luts/Amber_Ember.CUBE
# kravix mobile - LUTs Pack
LUT_3D_SIZE 5
0.000000 0.000000 0.000000
0.287556 0.000000 0.000000
0.536980 0.000000 0.000000
0.747951 0.000000 0.000000
0.956786 0.000000 0.004105
0.000000 0.235981 0.000000
0.309575 0.217426 0.000000
0.559274 0.230549 0.000000
0.786633 0.237964 0.019837
0.995285 0.245838 0.033799
0.000000 0.510704 0.034989
0.314717 0.495506 0.000000
0.618402 0.474708 0.040085
0.810178 0.486030 0.038575
1.000000 0.495857 0.038941
0.000000 0.736171 0.064500
0.265217 0.738445 0.010590
0.650156 0.696742 0.048829
0.874998 0.695521 0.080140
1.000000 0.711650 0.083436
0.000000 0.959258 0.103441
0.256718 0.967636 0.048188
0.647410 0.928069 0.036881
0.874998 0.908843 0.086473
1.000000 0.914351 0.113191
0.000000 0.000000 0.272511
0.277394 0.000000 0.274678
0.531319 0.000000 0.262104
0.742535 0.000000 0.258640
0.947311 0.000000 0.271458
0.000000 0.239429 0.230869
0.254032 0.237659 0.253178
0.556405 0.234333 0.265080
0.794141 0.237476 0.277623
0.989609 0.247700 0.293935
0.000000 0.508888 0.309743
0.225086 0.517952 0.286351
0.571771 0.491707 0.265431
0.789349 0.496239 0.257939
0.993286 0.501488 0.279133
0.000000 0.731441 0.348974
0.221286 0.747097 0.318746
0.564279 0.729397 0.247852
0.837766 0.712612 0.300526
1.000000 0.727230 0.304311
0.005127 0.953811 0.389319
0.244938 0.965805 0.364904
0.520211 0.966140 0.294362
0.860533 0.930297 0.305959
1.000000 0.928649 0.351598
0.000000 0.000000 0.516884
0.254063 0.000000 0.551080
0.518624 0.000000 0.528313
0.736538 0.000000 0.514885
0.945449 0.000000 0.524865
0.000000 0.247425 0.479728
0.219837 0.247181 0.550179
0.550149 0.234089 0.563287
0.790753 0.236622 0.555474
0.986740 0.247211 0.557656
0.000000 0.516533 0.507073
0.220081 0.520134 0.525261
0.515328 0.506783 0.529259
0.775357 0.498009 0.531746
0.985718 0.502632 0.543053
0.000000 0.735714 0.552834
0.228702 0.745480 0.566308
0.493675 0.745724 0.546960
0.787427 0.729397 0.534630
0.992020 0.736233 0.535302
0.008881 0.955764 0.609857
0.249882 0.964675 0.610376
0.495415 0.969070 0.581216
0.767758 0.959579 0.523018
1.000000 0.939971 0.561395
0.000000 0.000000 0.729900
0.226383 0.000000 0.769192
0.501152 0.000000 0.754849
0.733471 0.000000 0.751003
0.947204 0.000000 0.761242
0.000000 0.252476 0.696422
0.203586 0.255329 0.782010
0.532357 0.238956 0.814008
0.783246 0.237369 0.804242
0.984649 0.246586 0.796979
0.000000 0.521462 0.705715
0.199985 0.526162 0.750317
0.490852 0.510674 0.788632
0.769314 0.496452 0.793851
0.982147 0.501961 0.790494
0.000000 0.744427 0.732921
0.217121 0.753079 0.755352
0.488701 0.748486 0.764691
0.746303 0.740764 0.772900
0.981445 0.737575 0.778683
0.003006 0.962448 0.788846
0.250889 0.967422 0.804837
0.500038 0.966980 0.808362
0.728161 0.965362 0.792340
0.988434 0.949371 0.772992
0.000000 0.000000 0.944961
0.207492 0.000000 0.963088
0.494285 0.000000 0.955901
0.734768 0.000000 0.954559
0.951110 0.000000 0.963867
0.000000 0.259724 0.914549
0.195865 0.264546 0.971222
0.510842 0.250935 0.997497
0.769574 0.244846 0.998169
0.980301 0.250538 0.993606
0.000000 0.527871 0.915877
0.192798 0.529519 0.959762
0.477043 0.517510 0.984863
0.753811 0.503044 0.999802
0.981643 0.503899 0.999146
0.000000 0.752926 0.923659
0.205768 0.759487 0.951614
0.470817 0.755825 0.971603
0.724712 0.747768 0.990341
0.981003 0.737682 0.998825
0.000000 0.970916 0.961151
0.244617 0.974319 0.974487
0.491707 0.973663 0.979919
0.722667 0.968261 0.980529
0.958144 0.956725 0.977707
