luts/Amber_Ember.CUBE
# kravix mobile - LUTs Pack
LUT_3D_SIZE 17
0.000000 0.000000 0.000000
0.062532 0.000000 0.000000
0.132418 0.000000 0.000000
0.210208 0.000000 0.000000
0.287556 0.000000 0.000000
0.356268 0.000000 0.000000
0.420691 0.000000 0.000000
0.479759 0.000000 0.000000
0.536980 0.000000 0.000000
0.590295 0.000000 0.000000
0.640940 0.000000 0.000000
0.691997 0.000000 0.000000
0.747951 0.000000 0.000000
0.803632 0.000000 0.000000
0.857954 0.000000 0.000000
0.909514 0.000000 0.000031
0.956786 0.000000 0.004105
0.000000 0.041413 0.000000
0.063493 0.035599 0.000000
0.129946 0.035554 0.000000
0.210224 0.032105 0.000000
0.290120 0.031251 0.000000
0.358480 0.031251 0.000000
0.420798 0.031251 0.000000
0.479744 0.031251 0.000000
0.537743 0.031251 0.000000
0.593759 0.031251 0.000000
0.646876 0.031251 0.000000
0.698909 0.031251 0.000000
0.752667 0.031251 0.000000
0.809720 0.031251 0.000000
0.865568 0.031251 0.003479
0.918822 0.031251 0.007935
0.967712 0.033219 0.013352
0.000000 0.108064 0.000000
0.061875 0.102541 0.000000
0.139284 0.094972 0.000000
0.203845 0.093431 0.000000
0.281193 0.088319 0.000000
0.352880 0.085222 0.000000
0.418463 0.084169 0.000000
0.480568 0.084245 0.000000
0.541482 0.084810 0.000000
0.600565 0.086183 0.000000
0.656947 0.088151 0.000000
0.711620 0.090486 0.000000
0.765042 0.093385 0.005859
0.821912 0.095674 0.010529
0.878798 0.097948 0.014832
0.933059 0.100969 0.019577
0.983032 0.105196 0.025162
0.000000 0.168765 0.000000
0.036912 0.167681 0.000000
0.145663 0.153567 0.000000
0.219684 0.150500 0.000000
0.289799 0.150271 0.000000
0.358099 0.150988 0.000000
0.425620 0.151888 0.000000
0.489906 0.153445 0.000000
0.552972 0.155367 0.000000
0.613519 0.157427 0.000000
0.670939 0.159762 0.004791
0.726558 0.162387 0.010788
0.780423 0.165255 0.016800
0.834867 0.168017 0.022141
0.891310 0.170062 0.025986
0.945037 0.172564 0.029984
0.994385 0.176165 0.034699
0.000000 0.235981 0.000000
0.031251 0.238361 0.000000
0.128252 0.229450 0.000000
0.235721 0.217166 0.000000
0.309575 0.217426 0.000000
0.373861 0.220890 0.000000
0.434455 0.225315 0.000000
0.496391 0.228321 0.000000
0.559274 0.230549 0.000000
0.620066 0.232364 0.004593
0.677623 0.234058 0.009613
0.732967 0.236042 0.014755
0.786633 0.237964 0.019837
0.838895 0.240070 0.024735
0.894209 0.241367 0.027344
0.946838 0.243046 0.030137
0.995285 0.245838 0.033799
0.000000 0.308049 0.000000
0.031251 0.312825 0.000000
0.108339 0.310796 0.000000
0.229389 0.296742 0.000000
0.331136 0.286915 0.000000
0.396689 0.289387 0.004135
0.453925 0.294102 0.004334
0.508904 0.298573 0.003861
0.565194 0.301991 0.004181
0.622339 0.303761 0.006302
0.678676 0.304723 0.009842
0.733639 0.305608 0.014084
0.787015 0.306706 0.018357
0.838941 0.308171 0.022965
0.893233 0.308934 0.024933
0.945495 0.310338 0.027359
0.993408 0.312642 0.030457
0.000000 0.379889 0.007492
0.031251 0.385214 0.000000
0.103395 0.385977 0.000000
0.212512 0.376486 0.000000
0.334859 0.359747 0.000000
0.416220 0.354589 0.011612
0.476219 0.356420 0.017823
0.528878 0.360082 0.017380
0.581125 0.363607 0.015900
0.632639 0.366491 0.014649
0.684520 0.368582 0.014923
0.736645 0.369863 0.016525
0.789120 0.370947 0.019745
0.840986 0.371939 0.023941
0.895109 0.372610 0.025620
0.946853 0.373739 0.027619
0.994553 0.376089 0.030564
0.000000 0.447410 0.022736
0.031251 0.452323 0.012879
0.102968 0.453590 0.000000
0.195804 0.448341 0.000000
0.328588 0.428199 0.000000
0.422263 0.418128 0.009262
0.491798 0.415351 0.023941
0.548348 0.416831 0.029236
0.600076 0.419837 0.028687
0.649958 0.422843 0.027253
0.698680 0.425650 0.026246
0.747127 0.427970 0.025818
0.796674 0.429969 0.026902
0.846922 0.431525 0.028702
0.899626 0.432639 0.029038
0.950668 0.434012 0.030579
0.998276 0.436393 0.033509
0.000000 0.510704 0.034989
0.033829 0.514794 0.025437
0.102968 0.516564 0.006104
0.184436 0.514092 0.000000
0.314717 0.495506 0.000000
0.421759 0.481071 0.005112
0.499367 0.475135 0.023560
0.563058 0.473472 0.035660
0.618402 0.474708 0.040085
0.668406 0.477409 0.039887
0.716442 0.480308 0.039124
0.763333 0.483101 0.038544
0.810178 0.486030 0.038575
0.858595 0.488441 0.037842
0.908873 0.490578 0.036805
0.957961 0.492821 0.037018
1.000000 0.495857 0.038941
0.000000 0.569497 0.043427
0.037553 0.573526 0.035370
0.103243 0.575753 0.017410
0.177432 0.575143 0.000000
0.297368 0.560250 0.000000
0.416312 0.542687 0.001312
0.501198 0.534371 0.020691
0.571206 0.530236 0.036698
0.632456 0.529168 0.047028
0.685527 0.530755 0.050950
0.733761 0.533455 0.051392
0.780560 0.536538 0.051423
0.826551 0.539712 0.051576
0.874495 0.542794 0.049271
0.922011 0.545846 0.047425
0.968750 0.549142 0.046799
1.000000 0.552819 0.047715
0.000000 0.625132 0.051423
0.040711 0.629374 0.041901
0.103609 0.631998 0.027161
0.173129 0.632700 0.009720
0.282292 0.621393 0.000000
0.407233 0.603037 0.000000
0.499611 0.592676 0.017243
0.574594 0.587091 0.034974
0.641688 0.584039 0.049653
0.699397 0.583978 0.058350
0.750027 0.585840 0.062089
0.797101 0.588785 0.063386
0.844266 0.591943 0.062348
0.891279 0.595361 0.060609
0.937148 0.598917 0.058976
0.968750 0.602899 0.058122
1.000000 0.607233 0.058549
0.000000 0.680095 0.058976
0.044038 0.683940 0.049332
0.104555 0.687190 0.035904
0.171298 0.688670 0.019608
0.271656 0.680430 0.000381
0.395880 0.663188 0.000000
0.495598 0.651164 0.014511
0.575647 0.644221 0.032837
0.647150 0.639826 0.049638
0.709560 0.638148 0.062333
0.763775 0.638621 0.069917
0.813825 0.640681 0.072511
0.861662 0.643565 0.072023
0.906249 0.647044 0.071244
0.937499 0.650874 0.070542
0.968750 0.655238 0.070436
1.000000 0.660044 0.070985
0.000000 0.736171 0.064500
0.045121 0.739315 0.056107
0.106828 0.742306 0.044007
0.171649 0.744320 0.030350
0.265217 0.738445 0.010590
0.384375 0.723613 0.001892
0.489708 0.710552 0.013520
0.574716 0.702327 0.031159
0.650156 0.696742 0.048829
0.716716 0.693675 0.063600
0.775616 0.692638 0.072541
0.828931 0.693462 0.077821
0.874998 0.695521 0.080140
0.906249 0.698711 0.080949
0.937499 0.702602 0.081559
0.968750 0.707042 0.082765
1.000000 0.711650 0.083436
0.000000 0.792248 0.071290
0.044861 0.795682 0.062379
0.106767 0.798901 0.050217
0.172274 0.800778 0.038270
0.261753 0.796002 0.021378
0.374838 0.783475 0.008804
0.482277 0.770459 0.014557
0.572106 0.761105 0.029374
0.651972 0.754498 0.045960
0.722271 0.750134 0.060395
0.784772 0.747875 0.071824
0.841093 0.747280 0.079911
0.874998 0.748363 0.085252
0.906249 0.750668 0.088456
0.937499 0.754238 0.090944
0.968750 0.758541 0.093614
1.000000 0.762707 0.094758
0.000000 0.848463 0.079667
0.045563 0.852049 0.070451
0.107576 0.855528 0.057587
0.172000 0.857908 0.045014
0.257099 0.854353 0.029633
0.364660 0.843809 0.013840
0.472831 0.831144 0.013733
0.567559 0.820676 0.025605
0.652064 0.812558 0.041627
0.725750 0.807019 0.056580
0.791196 0.803632 0.069367
0.843748 0.801801 0.079561
0.874998 0.801755 0.087327
0.906249 0.803281 0.092958
0.937499 0.806104 0.097490
0.968750 0.810071 0.101656
1.000000 0.813519 0.103777
0.000000 0.904372 0.090257
0.047837 0.908110 0.080201
0.109758 0.911727 0.066773
0.173159 0.914473 0.053574
0.255421 0.911788 0.037629
0.357366 0.902861 0.021454
0.463462 0.891249 0.015961
0.561440 0.880156 0.023728
0.650202 0.870710 0.038102
0.727703 0.863935 0.053132
0.795560 0.859495 0.066270
0.843748 0.856703 0.077852
0.874998 0.855436 0.087312
0.906249 0.856062 0.094774
0.937499 0.858305 0.100877
0.968750 0.861540 0.106264
1.000000 0.864363 0.110079
0.000000 0.959258 0.103441
0.052445 0.962951 0.093065
0.114351 0.966628 0.078767
0.176867 0.969589 0.065126
0.256718 0.967636 0.048188
0.353765 0.960052 0.032090
0.456779 0.949630 0.022385
0.555276 0.938476 0.025299
0.647410 0.928069 0.036881
0.728466 0.920150 0.050965
0.798917 0.914611 0.064012
0.843748 0.911009 0.075853
0.874998 0.908843 0.086473
0.906249 0.908476 0.095186
0.937499 0.910155 0.102419
0.968750 0.912398 0.108507
1.000000 0.914351 0.113191
0.000000 0.000000 0.049592
0.059876 0.000000 0.049454
0.129625 0.000000 0.047181
0.207858 0.000000 0.045121
0.286046 0.000000 0.043656
0.355184 0.000000 0.044114
0.420218 0.000000 0.046921
0.480049 0.000000 0.048890
0.537346 0.000000 0.049790
0.591272 0.000000 0.049943
0.642664 0.000000 0.050797
0.692882 0.000000 0.052155
0.744915 0.000000 0.053834
0.800809 0.000000 0.055619
0.855207 0.000000 0.057862
0.907164 0.000000 0.061021
0.954818 0.000000 0.065248
0.000000 0.041596 0.039979
0.051362 0.038483 0.041276
0.126131 0.036423 0.042924
0.207568 0.032578 0.043397
0.288029 0.031251 0.042618
0.356634 0.031251 0.041810
0.419745 0.031251 0.042145
0.479545 0.031251 0.043320
0.538445 0.031251 0.045090
0.595239 0.031251 0.047379
0.649058 0.031251 0.049805
0.701747 0.031251 0.053010
0.753201 0.031251 0.056580
0.806867 0.031251 0.060380
0.862974 0.031251 0.064118
0.916564 0.031251 0.068452
0.965866 0.035081 0.073747
0.000000 0.106920 0.053697
0.042298 0.106264 0.046250
0.124987 0.098711 0.039612
0.196048 0.095232 0.034684
0.277638 0.088975 0.032990
0.351064 0.085771 0.034302
0.417762 0.084550 0.037110
0.480720 0.084535 0.040803
0.542840 0.085191 0.045045
0.602869 0.086686 0.049851
0.659907 0.088456 0.054719
0.715190 0.090822 0.059892
0.769238 0.093782 0.065599
0.821805 0.097124 0.071412
0.876554 0.099977 0.076463
0.931167 0.103029 0.081254
0.981323 0.106981 0.086442
0.000000 0.166934 0.056092
0.032410 0.167407 0.047639
0.123232 0.161013 0.032090
0.206058 0.155184 0.041123
0.279774 0.154025 0.037507
0.354589 0.153063 0.038666
0.424399 0.153368 0.043061
0.489998 0.154711 0.048386
0.554238 0.156359 0.053971
0.615854 0.158221 0.059510
0.674266 0.160479 0.065034
0.730297 0.162814 0.070314
0.784817 0.165499 0.075822
0.837781 0.168658 0.081529
0.888808 0.171893 0.087144
0.942763 0.174456 0.091249
0.992248 0.177661 0.095628
0.000000 0.234958 0.053956
0.031251 0.237690 0.047242
0.099458 0.238331 0.031251
0.216052 0.224933 0.039689
0.297520 0.222705 0.047837
0.364446 0.225650 0.047227
0.429343 0.228733 0.048356
0.494743 0.230503 0.052873
0.559411 0.232059 0.058137
0.621241 0.233448 0.063127
0.679835 0.234867 0.067842
0.735882 0.236484 0.072480
0.790051 0.238132 0.076966
0.842649 0.240192 0.081804
0.892989 0.242512 0.086519
0.943801 0.244709 0.090333
0.992554 0.247227 0.093858
0.000000 0.307881 0.057130
0.031251 0.312535 0.053422
0.091447 0.315785 0.037797
0.195850 0.308888 0.031251
0.315831 0.293690 0.052384
0.386053 0.294484 0.060136
0.444572 0.298802 0.059388
0.501198 0.302693 0.058152
0.560815 0.304677 0.059083
0.621180 0.305318 0.062333
0.679271 0.305791 0.066056
0.734936 0.306294 0.069673
0.789319 0.307210 0.073777
0.841794 0.308339 0.077867
0.892348 0.310002 0.082322
0.941619 0.312001 0.086549
0.990051 0.314183 0.089677
0.000000 0.380133 0.069047
0.031251 0.385290 0.064424
0.092393 0.388998 0.052308
0.176501 0.387930 0.035065
0.311772 0.368490 0.043610
0.403723 0.359838 0.064988
0.466056 0.360754 0.071778
0.519509 0.364202 0.070497
0.572671 0.367468 0.068116
0.626551 0.369772 0.066758
0.681010 0.370871 0.067353
0.735637 0.371435 0.069779
0.789960 0.371771 0.073350
0.842863 0.372580 0.077424
0.893736 0.373770 0.081758
0.942550 0.375601 0.086335
0.990692 0.377722 0.089235
0.000000 0.447700 0.083024
0.031251 0.452354 0.076417
0.095155 0.455512 0.065873
0.167971 0.456397 0.047822
0.295140 0.439841 0.038895
0.405951 0.424659 0.059617
0.480812 0.420066 0.076204
0.538888 0.420874 0.081712
0.591241 0.423728 0.080430
0.642100 0.426596 0.078263
0.691936 0.429038 0.076494
0.742565 0.430701 0.076081
0.794263 0.432029 0.077424
0.846006 0.433036 0.080171
0.897063 0.434256 0.084352
0.946181 0.436042 0.089067
0.994202 0.438163 0.091966
0.000000 0.510704 0.095918
0.035386 0.514946 0.087038
0.097536 0.517998 0.074876
0.163760 0.519783 0.059922
0.273564 0.508705 0.041657
0.400336 0.489189 0.053620
0.485725 0.480797 0.073091
0.552789 0.477836 0.086549
0.609567 0.478614 0.091279
0.660349 0.481209 0.090394
0.709087 0.483955 0.088853
0.756970 0.486610 0.087694
0.805188 0.489113 0.087144
0.854353 0.491295 0.088151
0.903334 0.493355 0.090608
0.951888 0.495628 0.093919
0.999329 0.498161 0.096391
0.000000 0.569299 0.107118
0.038590 0.573541 0.096788
0.099123 0.576883 0.082795
0.161364 0.579339 0.069551
0.257404 0.572320 0.049256
0.388266 0.552636 0.049195
0.484535 0.540993 0.068086
0.559091 0.535424 0.085374
0.623224 0.533516 0.097017
0.677546 0.534615 0.100908
0.726513 0.537224 0.100771
0.773953 0.540169 0.100145
0.820951 0.543313 0.099733
0.867491 0.546456 0.099702
0.914076 0.549615 0.100969
0.961059 0.552590 0.101930
1.000000 0.555932 0.103532
0.000000 0.624781 0.117891
0.041047 0.629282 0.106004
0.100496 0.633036 0.090715
0.160479 0.636255 0.076295
0.247379 0.631785 0.058061
0.372854 0.614786 0.048096
0.479301 0.600626 0.063218
0.560357 0.593210 0.081682
0.630961 0.589014 0.097581
0.691066 0.588220 0.107332
0.742901 0.589731 0.111040
0.791012 0.592554 0.111208
0.837766 0.595773 0.110872
0.883482 0.599329 0.111009
0.928222 0.603159 0.111788
0.968750 0.606806 0.111360
1.000000 0.610880 0.112215
0.000000 0.678950 0.129305
0.043671 0.683757 0.116274
0.101976 0.688029 0.099611
0.160586 0.691844 0.084138
0.242054 0.689158 0.066133
0.358297 0.675608 0.051438
0.471138 0.660471 0.060105
0.558877 0.651316 0.077989
0.634684 0.645747 0.095827
0.700175 0.642893 0.109560
0.756603 0.642710 0.117189
0.807111 0.644572 0.120531
0.854383 0.647669 0.121538
0.899794 0.651133 0.122377
0.937499 0.655085 0.122820
0.968750 0.659205 0.122148
1.000000 0.663844 0.122759
0.000000 0.733944 0.139269
0.047150 0.737942 0.128420
0.104112 0.742962 0.110582
0.162173 0.747280 0.094270
0.240513 0.745983 0.074479
0.347021 0.735668 0.058579
0.460792 0.721187 0.059709
0.554940 0.710475 0.075196
0.635737 0.703441 0.093477
0.705760 0.699092 0.109102
0.766827 0.697368 0.120104
0.820768 0.697673 0.126879
0.870130 0.699779 0.131182
0.906249 0.702907 0.133425
0.937499 0.706661 0.133577
0.968750 0.711040 0.134218
1.000000 0.715679 0.135042
0.000000 0.789960 0.147951
0.048600 0.793423 0.139223
0.107576 0.797803 0.124559
0.165515 0.802502 0.107088
0.241535 0.802213 0.085466
0.340932 0.794446 0.066422
0.450294 0.781781 0.062943
0.549142 0.770260 0.074403
0.634821 0.761715 0.091676
0.708873 0.756100 0.107408
0.773693 0.752987 0.120485
0.831052 0.751873 0.130541
0.874998 0.752728 0.137606
0.906249 0.754910 0.140871
0.937499 0.758144 0.142779
0.968750 0.762417 0.145129
1.000000 0.766659 0.146334
0.000000 0.846098 0.157992
0.049287 0.849729 0.149294
0.109117 0.853880 0.135683
0.169665 0.857618 0.121019
0.244968 0.857618 0.099199
0.338476 0.851865 0.077485
0.442542 0.841428 0.068376
0.542351 0.829938 0.075044
0.632639 0.820127 0.090150
0.710582 0.813382 0.106096
0.777920 0.809110 0.120058
0.839063 0.806836 0.130999
0.874998 0.806180 0.139132
0.906249 0.807370 0.144976
0.937499 0.809888 0.149416
0.968750 0.813748 0.153429
1.000000 0.817456 0.155779
0.000000 0.902159 0.169497
0.051164 0.905760 0.160586
0.111330 0.909926 0.147143
0.171572 0.913710 0.132418
0.246204 0.913878 0.111711
0.336828 0.908904 0.089891
0.436301 0.900023 0.076600
0.535241 0.889128 0.077562
0.628962 0.878508 0.089067
0.710674 0.870573 0.103532
0.781308 0.865217 0.116762
0.843748 0.861891 0.128496
0.874998 0.860151 0.138613
0.906249 0.860182 0.146410
0.937499 0.862089 0.152773
0.968750 0.865248 0.158312
1.000000 0.868070 0.162203
0.000000 0.957092 0.182940
0.055497 0.960662 0.174273
0.115602 0.964782 0.160906
0.175647 0.968566 0.146380
0.248478 0.968994 0.125673
0.336095 0.964874 0.102373
0.431235 0.957412 0.085679
0.528298 0.947387 0.081346
0.624231 0.936416 0.088777
0.709499 0.927184 0.101381
0.783368 0.920790 0.114458
0.843748 0.916320 0.126345
0.874998 0.913588 0.137163
0.906249 0.912627 0.146365
0.937499 0.913664 0.153948
0.968750 0.916091 0.160464
1.000000 0.917876 0.165591
0.000000 0.000000 0.118364
0.053864 0.000000 0.124468
0.127550 0.000000 0.119234
0.205463 0.000000 0.114275
0.284016 0.000000 0.111467
0.354452 0.000000 0.111391
0.419577 0.000000 0.112566
0.479835 0.000000 0.113298
0.537057 0.000000 0.112566
0.591699 0.000000 0.112016
0.643778 0.000000 0.112261
0.694621 0.000000 0.112917
0.744564 0.000000 0.114397
0.798154 0.000000 0.116304
0.852735 0.000000 0.118807
0.905074 0.000000 0.122225
0.952956 0.000000 0.126497
0.000000 0.043641 0.105119
0.042725 0.040147 0.114488
0.124254 0.036652 0.116823
0.204730 0.032715 0.113771
0.285023 0.031251 0.110735
0.354284 0.031251 0.108583
0.418280 0.031251 0.107912
0.478859 0.031251 0.108110
0.538857 0.031251 0.109117
0.596307 0.031251 0.110552
0.651057 0.031251 0.112551
0.704280 0.031251 0.114977
0.756374 0.031251 0.118120
0.807782 0.031251 0.122103
0.861051 0.031251 0.126146
0.914855 0.032624 0.130709
0.964569 0.036790 0.136309
0.000000 0.109102 0.106310
0.040803 0.106050 0.106401
0.111757 0.101549 0.105867
0.190616 0.095644 0.103914
0.273899 0.089250 0.101823
0.348501 0.085969 0.102144
0.416327 0.084886 0.104021
0.480217 0.084871 0.106645
0.543450 0.085649 0.110002
0.604334 0.086992 0.113710
0.662074 0.088823 0.117739
0.718181 0.091249 0.122194
0.772671 0.094057 0.126848
0.825803 0.097353 0.132006
0.877211 0.101320 0.137575
0.929213 0.104875 0.142840
0.979812 0.108797 0.148302
0.000000 0.167132 0.112123
0.035615 0.166094 0.112978
0.102876 0.165820 0.107637
0.190799 0.160021 0.105013
0.272267 0.156664 0.103426
0.351675 0.154284 0.105852
0.423117 0.154330 0.109972
0.489906 0.155489 0.114626
0.555200 0.156985 0.119219
0.617838 0.158892 0.123873
0.676982 0.160845 0.128130
0.733593 0.163058 0.132509
0.788769 0.165774 0.137194
0.841901 0.168658 0.141787
0.893126 0.172030 0.146700
0.941588 0.175784 0.151858
0.990280 0.179110 0.156435
0.000000 0.234623 0.116335
0.031251 0.236637 0.115389
0.094896 0.238834 0.108568
0.182498 0.236454 0.097658
0.282963 0.228229 0.109758
0.353979 0.230030 0.109102
0.425315 0.230945 0.112444
0.493065 0.231998 0.117067
0.559152 0.233097 0.121752
0.622248 0.234119 0.125917
0.681865 0.235340 0.129824
0.738598 0.236545 0.133425
0.793652 0.238056 0.137255
0.846571 0.239857 0.141070
0.897383 0.242130 0.145174
0.945159 0.244984 0.149416
0.990250 0.248554 0.154192
0.000000 0.307805 0.125063
0.031251 0.311803 0.122286
0.091707 0.315526 0.114183
0.161135 0.319234 0.101488
0.293126 0.302159 0.108949
0.372961 0.299687 0.119371
0.433051 0.303548 0.117586
0.493446 0.306050 0.117159
0.557717 0.306355 0.119905
0.620325 0.306401 0.123018
0.679454 0.306401 0.125826
0.736187 0.306645 0.128618
0.791379 0.307317 0.131746
0.844541 0.308278 0.135103
0.895674 0.309880 0.139116
0.943648 0.312108 0.143359
0.988098 0.315343 0.148470
0.000000 0.379843 0.141070
0.031251 0.384573 0.135927
0.093935 0.388479 0.125856
0.157305 0.392905 0.113222
0.272587 0.381415 0.099504
0.387015 0.366003 0.120867
0.453971 0.365301 0.128527
0.508354 0.368551 0.126085
0.563058 0.371466 0.123461
0.620478 0.372473 0.122789
0.678538 0.372366 0.124285
0.735424 0.372213 0.126741
0.790692 0.372335 0.129503
0.844419 0.372946 0.132830
0.895903 0.373999 0.136660
0.944472 0.375967 0.141192
0.989105 0.378805 0.146487
0.000000 0.446845 0.158145
0.033310 0.451102 0.150500
0.096666 0.454658 0.137896
0.156313 0.458839 0.124544
0.249683 0.453468 0.103792
0.382239 0.432944 0.112337
0.466911 0.425254 0.130541
0.527794 0.425132 0.136400
0.580880 0.427878 0.134127
0.632624 0.430610 0.131090
0.684749 0.432319 0.129183
0.738384 0.433204 0.129244
0.792737 0.433539 0.130922
0.846616 0.434012 0.134096
0.898497 0.434913 0.137881
0.947524 0.436744 0.142519
0.992493 0.439506 0.148028
0.000000 0.509407 0.173480
0.036973 0.513405 0.163882
0.098451 0.516808 0.149218
0.156069 0.521004 0.135225
0.236835 0.518898 0.113100
0.366766 0.500389 0.105547
0.467689 0.487434 0.124376
0.540429 0.482658 0.139071
0.599390 0.482841 0.144167
0.651072 0.485283 0.142428
0.700526 0.487846 0.139925
0.749660 0.490272 0.138109
0.800092 0.492058 0.137514
0.851698 0.493568 0.138674
0.902770 0.494972 0.141436
0.951934 0.496956 0.146014
0.997406 0.499931 0.152041
0.000000 0.567880 0.186801
0.039414 0.571939 0.175814
0.099474 0.575479 0.159991
0.155596 0.579919 0.144808
0.229877 0.579568 0.122621
0.346609 0.565927 0.104280
0.461448 0.549371 0.117128
0.544015 0.541543 0.135103
0.612116 0.538186 0.148058
0.668406 0.538750 0.152209
0.718379 0.541314 0.151461
0.766430 0.544045 0.149859
0.814282 0.547051 0.148592
0.862409 0.549767 0.148074
0.910903 0.552407 0.149325
0.958419 0.555154 0.152438
1.000000 0.558389 0.157549
0.000000 0.623301 0.198199
0.041260 0.627573 0.186831
0.100191 0.631586 0.170443
0.155398 0.636378 0.154604
0.225757 0.637263 0.132174
0.330205 0.627909 0.108721
0.450263 0.611032 0.111284
0.542046 0.600626 0.129122
0.617990 0.594842 0.146166
0.681361 0.592828 0.157107
0.734844 0.594018 0.161166
0.783215 0.596613 0.161456
0.830457 0.599817 0.161044
0.876875 0.603128 0.160403
0.922774 0.606683 0.160693
0.967834 0.610239 0.162295
1.000000 0.614160 0.166064
0.000000 0.677562 0.209323
0.043412 0.682124 0.197757
0.101137 0.686580 0.181353
0.155840 0.691630 0.165209
0.223972 0.693416 0.142687
0.319341 0.687221 0.116915
0.436591 0.672465 0.109361
0.536767 0.660166 0.123812
0.619104 0.652476 0.142107
0.688838 0.648249 0.157137
0.747662 0.647349 0.166827
0.798917 0.648737 0.171115
0.846540 0.651667 0.172534
0.892500 0.655146 0.173236
0.936797 0.658976 0.173846
0.968750 0.663218 0.175158
1.000000 0.667674 0.177905
0.000000 0.731579 0.220752
0.046540 0.736538 0.209598
0.102892 0.741543 0.193698
0.157717 0.746868 0.177615
0.224201 0.749340 0.155566
0.313115 0.745449 0.128145
0.423102 0.733883 0.112612
0.528237 0.720806 0.120363
0.617273 0.711238 0.137957
0.692027 0.705364 0.154803
0.756176 0.702495 0.168338
0.811841 0.702220 0.177310
0.861830 0.703868 0.182528
0.906249 0.706996 0.185412
0.937499 0.710765 0.187610
0.968750 0.715206 0.190097
1.000000 0.720027 0.193103
0.000000 0.787472 0.229801
0.051209 0.791058 0.222507
0.106050 0.796567 0.207507
0.161227 0.801984 0.191806
0.226444 0.804837 0.170459
0.310567 0.802747 0.141970
0.412329 0.794125 0.121111
0.517739 0.781720 0.120516
0.612680 0.770703 0.135027
0.692683 0.763333 0.152392
0.760845 0.758846 0.167605
0.820752 0.756893 0.180011
0.874174 0.757000 0.189090
0.906249 0.759030 0.195331
0.937499 0.762417 0.200198
0.968750 0.766690 0.204959
1.000000 0.771313 0.207828
0.000000 0.843809 0.238926
0.053071 0.847059 0.232898
0.110979 0.851438 0.222553
0.166445 0.856764 0.207462
0.231220 0.859770 0.186847
0.310857 0.858793 0.158724
0.405264 0.852705 0.133898
0.506889 0.842130 0.125521
0.605966 0.830289 0.134722
0.690913 0.821454 0.150683
0.762829 0.815671 0.166415
0.826276 0.812314 0.180819
0.874998 0.811063 0.192859
0.906249 0.811719 0.202335
0.937499 0.814206 0.210361
0.968750 0.817929 0.216709
1.000000 0.821881 0.219196
0.000000 0.899886 0.249058
0.055116 0.903151 0.243229
0.114031 0.907088 0.234684
0.173602 0.910689 0.224369
0.238010 0.913634 0.204669
0.314061 0.913497 0.177829
0.401816 0.909453 0.150988
0.497902 0.901030 0.135897
0.598016 0.889570 0.138109
0.687190 0.879393 0.151156
0.763088 0.872404 0.166613
0.829145 0.867872 0.181231
0.874998 0.865278 0.195254
0.906249 0.864805 0.207233
0.937499 0.866224 0.216480
0.968750 0.869307 0.222721
1.000000 0.872251 0.226993
0.000000 0.954986 0.260960
0.059007 0.958206 0.255283
0.118013 0.962081 0.246967
0.177584 0.965484 0.237400
0.245350 0.966827 0.222110
0.320668 0.966278 0.199573
0.402808 0.963714 0.172122
0.492744 0.957534 0.152605
0.590768 0.947036 0.147051
0.682948 0.936172 0.155489
0.762066 0.928130 0.169116
0.830961 0.922606 0.183581
0.874998 0.918975 0.197696
0.906249 0.917357 0.208850
0.937499 0.917693 0.217685
0.968750 0.919951 0.225147
1.000000 0.921889 0.231098
0.000000 0.000000 0.193637
0.044740 0.000000 0.206516
0.122438 0.000000 0.203571
0.202121 0.000000 0.194873
0.281071 0.000000 0.187655
0.352529 0.000000 0.186740
0.417212 0.000000 0.186145
0.477272 0.000000 0.185214
0.534737 0.000000 0.183291
0.589914 0.000000 0.182025
0.642664 0.000000 0.181720
0.693858 0.000000 0.181933
0.744335 0.000000 0.182986
0.794995 0.000000 0.184619
0.849775 0.000000 0.187808
0.902007 0.000000 0.191623
0.950164 0.000000 0.196460
0.000000 0.044724 0.175601
0.035721 0.041077 0.192325
0.118364 0.036347 0.203525
