luts/Amber_Ember.CUBE
# kravix mobile - LUTs Pack
LUT_3D_SIZE 9
0.000000 0.000000 0.000000
0.132418 0.000000 0.000000
0.287556 0.000000 0.000000
0.420691 0.000000 0.000000
0.536980 0.000000 0.000000
0.640940 0.000000 0.000000
0.747951 0.000000 0.000000
0.857954 0.000000 0.000000
0.956786 0.000000 0.004105
0.000000 0.108064 0.000000
0.139284 0.094972 0.000000
0.281193 0.088319 0.000000
0.418463 0.084169 0.000000
0.541482 0.084810 0.000000
0.656947 0.088151 0.000000
0.765042 0.093385 0.005859
0.878798 0.097948 0.014832
0.983032 0.105196 0.025162
0.000000 0.235981 0.000000
0.128252 0.229450 0.000000
0.309575 0.217426 0.000000
0.434455 0.225315 0.000000
0.559274 0.230549 0.000000
0.677623 0.234058 0.009613
0.786633 0.237964 0.019837
0.894209 0.241367 0.027344
0.995285 0.245838 0.033799
0.000000 0.379889 0.007492
0.103395 0.385977 0.000000
0.334859 0.359747 0.000000
0.476219 0.356420 0.017823
0.581125 0.363607 0.015900
0.684520 0.368582 0.014923
0.789120 0.370947 0.019745
0.895109 0.372610 0.025620
0.994553 0.376089 0.030564
0.000000 0.510704 0.034989
0.102968 0.516564 0.006104
0.314717 0.495506 0.000000
0.499367 0.475135 0.023560
0.618402 0.474708 0.040085
0.716442 0.480308 0.039124
0.810178 0.486030 0.038575
0.908873 0.490578 0.036805
1.000000 0.495857 0.038941
0.000000 0.625132 0.051423
0.103609 0.631998 0.027161
0.282292 0.621393 0.000000
0.499611 0.592676 0.017243
0.641688 0.584039 0.049653
0.750027 0.585840 0.062089
0.844266 0.591943 0.062348
0.937148 0.598917 0.058976
1.000000 0.607233 0.058549
0.000000 0.736171 0.064500
0.106828 0.742306 0.044007
0.265217 0.738445 0.010590
0.489708 0.710552 0.013520
0.650156 0.696742 0.048829
0.775616 0.692638 0.072541
0.874998 0.695521 0.080140
0.937499 0.702602 0.081559
1.000000 0.711650 0.083436
0.000000 0.848463 0.079667
0.107576 0.855528 0.057587
0.257099 0.854353 0.029633
0.472831 0.831144 0.013733
0.652064 0.812558 0.041627
0.791196 0.803632 0.069367
0.874998 0.801755 0.087327
0.937499 0.806104 0.097490
1.000000 0.813519 0.103777
0.000000 0.959258 0.103441
0.114351 0.966628 0.078767
0.256718 0.967636 0.048188
0.456779 0.949630 0.022385
0.647410 0.928069 0.036881
0.798917 0.914611 0.064012
0.874998 0.908843 0.086473
0.937499 0.910155 0.102419
1.000000 0.914351 0.113191
0.000000 0.000000 0.118364
0.127550 0.000000 0.119234
0.284016 0.000000 0.111467
0.419577 0.000000 0.112566
0.537057 0.000000 0.112566
0.643778 0.000000 0.112261
0.744564 0.000000 0.114397
0.852735 0.000000 0.118807
0.952956 0.000000 0.126497
0.000000 0.109102 0.106310
0.111757 0.101549 0.105867
0.273899 0.089250 0.101823
0.416327 0.084886 0.104021
0.543450 0.085649 0.110002
0.662074 0.088823 0.117739
0.772671 0.094057 0.126848
0.877211 0.101320 0.137575
0.979812 0.108797 0.148302
0.000000 0.234623 0.116335
0.094896 0.238834 0.108568
0.282963 0.228229 0.109758
0.425315 0.230945 0.112444
0.559152 0.233097 0.121752
0.681865 0.235340 0.129824
0.793652 0.238056 0.137255
0.897383 0.242130 0.145174
0.990250 0.248554 0.154192
0.000000 0.379843 0.141070
0.093935 0.388479 0.125856
0.272587 0.381415 0.099504
0.453971 0.365301 0.128527
0.563058 0.371466 0.123461
0.678538 0.372366 0.124285
0.790692 0.372335 0.129503
0.895903 0.373999 0.136660
0.989105 0.378805 0.146487
0.000000 0.509407 0.173480
0.098451 0.516808 0.149218
0.236835 0.518898 0.113100
0.467689 0.487434 0.124376
0.599390 0.482841 0.144167
0.700526 0.487846 0.139925
0.800092 0.492058 0.137514
0.902770 0.494972 0.141436
0.997406 0.499931 0.152041
0.000000 0.623301 0.198199
0.100191 0.631586 0.170443
0.225757 0.637263 0.132174
0.450263 0.611032 0.111284
0.617990 0.594842 0.146166
0.734844 0.594018 0.161166
0.830457 0.599817 0.161044
0.922774 0.606683 0.160693
1.000000 0.614160 0.166064
0.000000 0.731579 0.220752
0.102892 0.741543 0.193698
0.224201 0.749340 0.155566
0.423102 0.733883 0.112612
0.617273 0.711238 0.137957
0.756176 0.702495 0.168338
0.861830 0.703868 0.182528
0.937499 0.710765 0.187610
1.000000 0.720027 0.193103
0.000000 0.843809 0.238926
0.110979 0.851438 0.222553
0.231220 0.859770 0.186847
0.405264 0.852705 0.133898
0.605966 0.830289 0.134722
0.762829 0.815671 0.166415
0.874998 0.811063 0.192859
0.937499 0.814206 0.210361
1.000000 0.821881 0.219196
0.000000 0.954986 0.260960
0.118013 0.962081 0.246967
0.245350 0.966827 0.222110
0.402808 0.963714 0.172122
0.590768 0.947036 0.147051
0.762066 0.928130 0.169116
0.874998 0.918975 0.197696
0.937499 0.917693 0.217685
1.000000 0.921889 0.231098
0.000000 0.000000 0.272511
0.114656 0.000000 0.290211
0.277394 0.000000 0.274678
0.414237 0.000000 0.268406
0.531319 0.000000 0.262104
0.639796 0.000000 0.258808
0.742535 0.000000 0.258640
0.846525 0.000000 0.262409
0.947311 0.000000 0.271458
0.000000 0.111238 0.241550
0.096986 0.100923 0.269596
0.266621 0.087602 0.265476
0.410529 0.084428 0.257542
0.539834 0.086061 0.259098
0.660685 0.089601 0.263828
0.772869 0.094774 0.270680
0.878202 0.101762 0.279423
0.973846 0.111177 0.290105
0.000000 0.239429 0.230869
0.093446 0.240574 0.243351
0.254032 0.237659 0.253178
0.419272 0.233326 0.257939
0.556405 0.234333 0.265080
0.681224 0.235569 0.271534
0.794141 0.237476 0.277623
0.898512 0.241047 0.284871
0.989609 0.247700 0.293935
0.000000 0.381598 0.272374
0.097459 0.386496 0.279850
0.233265 0.390143 0.267536
0.424369 0.375006 0.253742
0.547707 0.376532 0.248280
0.673060 0.374060 0.253239
0.788113 0.372946 0.259785
0.894835 0.373953 0.268284
0.987137 0.378866 0.279866
0.000000 0.508888 0.309743
0.100893 0.513588 0.305104
0.225086 0.517952 0.286351
0.415747 0.504311 0.238682
0.571771 0.491707 0.265431
0.677989 0.495705 0.257694
0.789349 0.496239 0.257939
0.898528 0.496834 0.266468
0.993286 0.501488 0.279133
0.000000 0.622568 0.331441
0.101534 0.628931 0.321614
0.220584 0.634684 0.302480
0.377447 0.631601 0.253101
0.583017 0.607217 0.258152
0.708858 0.602991 0.280842
0.807691 0.608103 0.278157
0.907286 0.613184 0.276112
1.000000 0.618555 0.285130
0.000000 0.731441 0.348974
0.103853 0.739986 0.337423
0.221286 0.747097 0.318746
0.364553 0.747845 0.279011
0.564279 0.729397 0.247852
0.726543 0.713314 0.282322
0.837766 0.712612 0.300526
0.930190 0.718975 0.302693
1.000000 0.727230 0.304311
0.000000 0.842496 0.367483
0.111635 0.850904 0.357565
0.228870 0.858381 0.339025
0.364385 0.860853 0.306523
0.533913 0.852399 0.260502
0.722866 0.829938 0.274784
0.856764 0.820478 0.306401
0.937499 0.821973 0.325002
1.000000 0.829664 0.334981
0.005127 0.953811 0.389319
0.124788 0.959762 0.382406
0.244938 0.965805 0.364904
0.374868 0.968566 0.336751
0.520211 0.966140 0.294362
0.707668 0.946029 0.279286
0.860533 0.930297 0.305959
0.937499 0.925307 0.332845
1.000000 0.928649 0.351598
0.000000 0.000000 0.404456
0.100862 0.000000 0.427893
0.268070 0.000000 0.422370
0.407675 0.000000 0.411917
0.525765 0.000000 0.401633
0.635798 0.000000 0.395087
0.739925 0.000000 0.392386
0.844068 0.000000 0.394614
0.945098 0.000000 0.403128
0.000000 0.110521 0.385794
0.086427 0.101228 0.412894
0.252323 0.088563 0.422156
0.406332 0.083665 0.411826
0.537331 0.086183 0.408408
0.658747 0.090150 0.409033
0.771725 0.095567 0.412802
0.877882 0.102663 0.418372
0.972839 0.112261 0.425727
0.000000 0.243961 0.360372
0.080049 0.245090 0.385718
0.233326 0.242222 0.416678
0.415686 0.232547 0.422324
0.552850 0.234073 0.420752
0.677775 0.235096 0.422080
0.791745 0.236835 0.424262
0.896757 0.240345 0.427314
0.987549 0.247272 0.432471
0.000000 0.387442 0.378653
0.091096 0.391424 0.390799
0.229358 0.391562 0.399405
0.393561 0.382513 0.400671
0.536767 0.377157 0.402670
0.665537 0.373800 0.404868
0.783093 0.372198 0.407874
0.891402 0.373098 0.412451
0.983886 0.378363 0.419928
0.000000 0.512383 0.411704
0.100481 0.514977 0.419638
0.229694 0.515358 0.423453
0.377157 0.511177 0.409598
0.537621 0.501137 0.398688
0.659434 0.500130 0.395209
0.780362 0.497597 0.398886
0.892760 0.497505 0.405524
0.988510 0.502174 0.415503
0.000000 0.624552 0.436683
0.102815 0.629206 0.440986
0.226001 0.632166 0.437842
0.367117 0.630793 0.419776
0.525872 0.624308 0.386191
0.678492 0.612345 0.407904
0.784192 0.615702 0.402655
0.895521 0.616648 0.405234
0.994018 0.620706 0.415152
0.000000 0.732815 0.457832
0.105638 0.740215 0.458442
0.226474 0.745281 0.451102
0.362982 0.746014 0.431983
0.497444 0.747082 0.399878
0.688518 0.725597 0.401312
0.811475 0.721370 0.420920
0.908766 0.726696 0.418524
1.000000 0.733074 0.419486
0.001312 0.843381 0.480354
0.113375 0.851225 0.478813
0.232975 0.857237 0.467948
0.364858 0.859297 0.448310
0.489891 0.862272 0.421012
0.664485 0.848371 0.392111
0.826871 0.830762 0.419867
0.936767 0.829465 0.437552
1.000000 0.836789 0.442725
0.008331 0.954070 0.506142
0.128084 0.959411 0.504540
0.247562 0.965164 0.491173
0.375036 0.967697 0.471443
0.494469 0.970947 0.446921
0.639414 0.965515 0.410056
0.821134 0.943297 0.413291
0.937499 0.932967 0.439872
1.000000 0.934585 0.456916
0.000000 0.000000 0.516884
0.090928 0.000000 0.545907
0.254063 0.000000 0.551080
0.398337 0.000000 0.539544
0.518624 0.000000 0.528313
0.630549 0.000000 0.520241
0.736538 0.000000 0.514885
0.844312 0.000000 0.516655
0.945449 0.000000 0.524865
0.000000 0.110918 0.504189
0.078325 0.102785 0.535592
0.234791 0.092866 0.555886
0.399191 0.085359 0.550378
0.533623 0.087602 0.545144
0.656794 0.091585 0.542214
0.771038 0.097017 0.541726
0.877974 0.104097 0.543786
0.973114 0.113512 0.548135
0.000000 0.247425 0.479728
0.072847 0.248447 0.513451
0.219837 0.247181 0.550179
0.405554 0.235126 0.567224
0.550149 0.234089 0.563287
0.676387 0.234897 0.558358
0.790753 0.236622 0.555474
0.896071 0.240146 0.555215
0.986740 0.247211 0.557656
0.000000 0.392126 0.486564
0.082002 0.395880 0.505455
0.212619 0.396536 0.525521
0.377386 0.385351 0.543847
0.533349 0.375891 0.547448
0.662364 0.373190 0.541619
0.780118 0.371847 0.540703
0.889082 0.372854 0.542138
0.981521 0.378424 0.546731
0.000000 0.516533 0.507073
0.093584 0.519417 0.516976
0.220081 0.520134 0.525261
0.373068 0.512749 0.525689
0.515328 0.506783 0.529259
0.651942 0.501045 0.529809
0.775357 0.498009 0.531746
0.889494 0.497795 0.535683
0.985718 0.502632 0.543053
0.000000 0.628199 0.529030
0.100313 0.632273 0.538109
0.224842 0.633844 0.545449
0.371572 0.629206 0.545342
0.502052 0.628641 0.537179
0.652140 0.620768 0.526482
0.771450 0.619745 0.524834
0.889723 0.618387 0.529671
0.989715 0.621942 0.538598
0.000000 0.735714 0.552834
0.105608 0.742199 0.561883
0.228702 0.745480 0.566308
0.368261 0.744045 0.560342
0.493675 0.745724 0.546960
0.636164 0.742092 0.516365
0.787427 0.729397 0.534630
0.891325 0.733028 0.530175
0.992020 0.736233 0.535302
0.000107 0.846098 0.579828
0.114595 0.852399 0.587152
0.235843 0.856886 0.586679
0.369467 0.857450 0.576242
0.490684 0.860304 0.560769
0.612528 0.861860 0.533150
0.793790 0.842039 0.525994
0.916228 0.836637 0.546609
1.000000 0.843091 0.546944
0.008881 0.955764 0.609857
0.129625 0.960037 0.615076
0.249882 0.964675 0.610376
0.378164 0.966140 0.597498
0.495415 0.969070 0.581216
0.609842 0.971206 0.556970
0.767758 0.959579 0.523018
0.928069 0.940856 0.543252
1.000000 0.939971 0.561395
0.000000 0.000000 0.619715
0.083391 0.000000 0.653468
0.239612 0.000000 0.666072
0.387701 0.000000 0.656291
0.510246 0.000000 0.646021
0.623896 0.000000 0.637781
0.733654 0.000000 0.633860
0.844953 0.000000 0.636912
0.946288 0.000000 0.644312
0.000000 0.111635 0.612024
0.072740 0.104616 0.648234
0.220722 0.097246 0.674647
0.389502 0.088441 0.676204
0.527642 0.089876 0.672740
0.652735 0.093538 0.669062
0.768246 0.098650 0.666728
0.876524 0.105364 0.665904
0.972778 0.114427 0.667109
0.000000 0.250126 0.590707
0.068559 0.251469 0.631327
0.210208 0.251377 0.671962
0.391470 0.239719 0.694591
0.542718 0.235599 0.696529
0.672038 0.235218 0.690333
0.787915 0.236484 0.684550
0.894606 0.239750 0.680430
0.986023 0.246769 0.679561
0.000000 0.395254 0.593545
0.076188 0.398398 0.620691
0.203281 0.398825 0.649943
0.365194 0.387762 0.672404
0.522637 0.376806 0.685985
0.658701 0.372061 0.678569
0.777996 0.370764 0.672206
0.887434 0.372045 0.669230
0.980026 0.377920 0.670817
0.000000 0.519478 0.605554
0.086793 0.522576 0.621057
0.207782 0.524102 0.636957
0.357946 0.516472 0.647990
0.501183 0.508690 0.667018
0.648615 0.499596 0.669947
0.772351 0.497307 0.663981
0.886427 0.497551 0.663981
0.982879 0.502663 0.668391
0.000000 0.631373 0.620966
0.095109 0.635798 0.632166
0.215351 0.638529 0.642145
0.362219 0.633707 0.645014
0.497719 0.630442 0.649409
0.632761 0.625528 0.654017
0.764874 0.620478 0.654734
0.884978 0.618738 0.657786
0.985870 0.622278 0.664164
0.000000 0.739971 0.642069
0.102998 0.745510 0.653208
0.224567 0.748867 0.662074
0.366888 0.745754 0.664988
0.496880 0.744396 0.668284
0.620508 0.743893 0.661891
0.763104 0.736919 0.649607
0.880552 0.735943 0.648936
0.985885 0.737514 0.655711
0.000000 0.850080 0.669551
0.113832 0.855024 0.680415
0.235813 0.858534 0.687190
0.371237 0.857435 0.687526
0.494606 0.858335 0.684398
0.612207 0.859480 0.672572
0.742519 0.856992 0.642710
0.894057 0.843473 0.656657
0.988067 0.848280 0.653651
0.006897 0.958709 0.701885
0.130571 0.961685 0.711101
0.251652 0.965209 0.714168
0.380316 0.965515 0.710582
0.498512 0.967132 0.702876
0.611414 0.968551 0.689052
0.726864 0.968399 0.663752
0.897887 0.949752 0.647318
1.000000 0.944747 0.667201
0.000000 0.000000 0.729900
0.078157 0.000000 0.753750
0.226383 0.000000 0.769192
0.376654 0.000000 0.762478
0.501152 0.000000 0.754849
0.618830 0.000000 0.751034
0.733471 0.000000 0.751003
0.845548 0.000000 0.754147
0.947204 0.000000 0.761242
0.000000 0.112520 0.713695
0.068818 0.106661 0.751431
0.210132 0.101503 0.780713
0.379812 0.092744 0.788022
0.520302 0.093309 0.788281
0.647318 0.096483 0.785687
0.764187 0.101076 0.783307
0.873579 0.107210 0.781750
0.971511 0.115541 0.781704
0.000000 0.252476 0.696422
0.066133 0.254368 0.740490
0.203586 0.255329 0.782010
0.379187 0.244816 0.806043
0.532357 0.238956 0.814008
0.665248 0.236927 0.810040
0.783246 0.237369 0.804242
0.891493 0.240070 0.799405
0.984649 0.246586 0.796979
0.000000 0.397436 0.698909
0.072984 0.400107 0.731823
0.197360 0.400656 0.764843
0.355505 0.390402 0.788113
0.509651 0.379934 0.804959
0.651225 0.372854 0.803449
0.774060 0.370504 0.796826
0.885328 0.371435 0.791989
0.979263 0.377188 0.791196
0.000000 0.521462 0.705715
0.082124 0.524483 0.727489
0.199985 0.526162 0.750317
0.347524 0.518593 0.768200
0.490852 0.510674 0.788632
0.638148 0.500877 0.799741
0.769314 0.496452 0.793851
0.885130 0.496651 0.789578
0.982147 0.501961 0.790494
0.000000 0.634745 0.716350
0.090257 0.638483 0.730587
0.206317 0.642054 0.745571
0.349676 0.637736 0.754574
0.485023 0.633707 0.767483
0.619196 0.627756 0.784863
0.762463 0.619089 0.788632
0.882887 0.618006 0.784161
0.983734 0.621958 0.786908
0.000000 0.744427 0.732921
0.099870 0.748608 0.744366
0.217121 0.753079 0.755352
0.357900 0.750271 0.759579
0.488701 0.748486 0.764691
0.615442 0.745922 0.768933
0.746303 0.740764 0.772900
0.874830 0.736294 0.773709
0.981445 0.737575 0.778683
0.000000 0.854505 0.757092
0.111864 0.858152 0.767987
0.231540 0.862119 0.776730
0.367773 0.860365 0.780301
0.493614 0.859678 0.784787
0.615030 0.858198 0.786984
0.734630 0.856443 0.780392
0.871641 0.849836 0.767285
0.978073 0.850553 0.767941
0.003006 0.962448 0.788846
0.128389 0.964828 0.798474
0.250889 0.967422 0.804837
0.380606 0.966690 0.807187
0.500038 0.966980 0.808362
0.614679 0.966598 0.804288
0.728161 0.965362 0.792340
0.851637 0.961868 0.763104
0.988434 0.949371 0.772992
0.000000 0.000000 0.841001
0.072526 0.000000 0.863661
0.215625 0.000000 0.872877
0.368643 0.000000 0.867018
0.497063 0.000000 0.863951
0.617487 0.000000 0.862013
0.733654 0.000000 0.861723
0.846571 0.000000 0.864546
0.948501 0.000000 0.871473
0.000000 0.113878 0.825132
0.065965 0.109178 0.848432
0.202365 0.106279 0.877562
0.370535 0.098436 0.886870
0.512505 0.098405 0.890806
0.640742 0.100893 0.890929
0.759136 0.104753 0.890043
0.869718 0.110124 0.888914
0.972183 0.116213 0.893004
0.000000 0.255802 0.806012
0.064897 0.257603 0.843214
0.198840 0.259602 0.883101
0.368734 0.250675 0.903944
0.521324 0.244327 0.913222
0.656352 0.240864 0.913466
0.777035 0.240024 0.910353
0.887251 0.241886 0.906691
0.982422 0.247593 0.905165
0.000000 0.400397 0.807294
0.071565 0.401816 0.838132
0.193362 0.402640 0.871809
0.347631 0.393683 0.892409
0.498543 0.384375 0.905425
0.641016 0.376562 0.907973
0.768200 0.372519 0.904967
0.882185 0.372473 0.902068
0.978088 0.377569 0.902190
0.000000 0.524727 0.811002
0.079438 0.525872 0.832914
0.195102 0.527733 0.859998
0.339986 0.520790 0.879652
0.482750 0.513436 0.896681
0.625483 0.505135 0.906828
0.763043 0.498344 0.906477
0.882887 0.497169 0.904082
0.981735 0.501930 0.905333
0.000000 0.638544 0.816205
0.086854 0.640543 0.831464
0.199924 0.644572 0.851728
0.340215 0.640620 0.866514
0.476295 0.636088 0.882658
0.609232 0.630701 0.898451
0.752224 0.621653 0.906401
0.881102 0.617807 0.904326
0.983825 0.621408 0.905333
0.000000 0.748760 0.827405
0.097322 0.751186 0.839139
0.210193 0.756603 0.854032
0.347707 0.754376 0.862226
0.477897 0.752407 0.871992
0.602716 0.749523 0.883162
0.733318 0.743542 0.895415
0.873213 0.735286 0.899184
0.980682 0.736812 0.898695
0.000000 0.859007 0.846922
0.109804 0.861189 0.856916
0.225788 0.866041 0.867323
0.360235 0.864668 0.871626
0.485664 0.863951 0.876524
0.606668 0.862318 0.880507
0.729198 0.858732 0.882536
0.856764 0.853193 0.885252
0.973404 0.850492 0.887098
0.000000 0.966628 0.875212
0.123461 0.968902 0.883986
0.247837 0.970779 0.890639
0.377218 0.969940 0.893675
0.497536 0.969573 0.897231
0.613916 0.967773 0.899092
0.730388 0.964187 0.898116
0.846403 0.960418 0.891310
0.968505 0.954208 0.878416
0.000000 0.000000 0.944961
0.067872 0.000000 0.959289
0.207492 0.000000 0.963088
0.363195 0.000000 0.957824
0.494285 0.000000 0.955901
0.616709 0.000000 0.954513
0.734768 0.000000 0.954559
0.848783 0.000000 0.957168
0.951110 0.000000 0.963867
0.000000 0.115923 0.931517
0.062501 0.112032 0.950637
0.197009 0.111482 0.966094
0.362661 0.105440 0.969894
0.505180 0.105135 0.976059
0.633906 0.107164 0.978134
0.754818 0.109850 0.979385
0.870314 0.113085 0.981765
0.974075 0.118288 0.986130
0.000000 0.259724 0.914549
0.062989 0.261387 0.941863
0.195865 0.264546 0.971222
0.360327 0.257389 0.985855
0.510842 0.250935 0.997497
0.646342 0.246738 1.000000
0.769574 0.244846 0.998169
0.882429 0.245731 0.994949
0.980301 0.250538 0.993606
0.000000 0.403693 0.915496
0.071550 0.403555 0.937057
0.191394 0.405203 0.966278
0.342138 0.397955 0.978286
0.489845 0.389563 0.991043
0.630014 0.381994 0.997208
0.760418 0.376806 0.995972
0.878202 0.375662 0.993133
0.977234 0.379919 0.993103
0.000000 0.527871 0.915877
0.078660 0.527169 0.933318
0.192798 0.529519 0.959762
0.335042 0.523964 0.973663
0.477043 0.517510 0.984863
0.615198 0.510475 0.996551
0.753811 0.503044 0.999802
0.879332 0.500160 0.998215
0.981643 0.503899 0.999146
0.000000 0.642100 0.917082
0.085435 0.642222 0.930510
0.196628 0.646769 0.952865
0.334417 0.643595 0.966888
0.471015 0.639506 0.977295
0.602014 0.635019 0.989837
0.740871 0.627024 0.999496
0.876554 0.620859 1.000000
0.984100 0.622904 1.000000
0.000000 0.752926 0.923659
0.093278 0.754101 0.935058
0.205768 0.759487 0.951614
0.340337 0.757885 0.961944
0.470817 0.755825 0.971603
0.595346 0.753384 0.980438
0.724712 0.747768 0.990341
0.864897 0.738949 0.997986
0.981003 0.737682 0.998825
0.000000 0.863493 0.937835
0.103365 0.865339 0.947387
0.221271 0.869520 0.958343
0.352972 0.868833 0.964202
0.477348 0.868162 0.970077
0.596384 0.866804 0.975631
0.717678 0.863233 0.979980
0.846067 0.856992 0.986664
0.973602 0.850401 0.991363
0.000000 0.970916 0.961151
0.118105 0.973114 0.968704
0.244617 0.974319 0.974487
0.372351 0.973861 0.977172
0.491707 0.973663 0.979919
0.606638 0.972107 0.981353
0.722667 0.968261 0.980529
0.841459 0.962829 0.978607
0.958144 0.956725 0.977707
