luts/Arctic_Moss.CUBE
# kravix mobile - LUTs Pack
LUT_3D_SIZE 9
0.005676 0.009339 0.011109
0.084794 0.012787 0.014282
0.164797 0.015427 0.016998
0.259464 0.015869 0.018082
0.373175 0.013718 0.015885
0.488579 0.009247 0.010986
0.592569 0.004593 0.005859
0.697871 0.000046 0.000549
0.794171 0.000000 0.000000
0.009369 0.094514 0.022904
0.089280 0.097200 0.024292
0.169482 0.099535 0.024994
0.268345 0.098405 0.020722
0.382071 0.094087 0.015518
0.501152 0.088502 0.008682
0.608957 0.083406 0.002686
0.739376 0.078569 0.000000
0.878065 0.074998 0.000000
0.010727 0.178134 0.031449
0.090242 0.178759 0.029572
0.169726 0.180041 0.028519
0.273182 0.179706 0.021149
0.408026 0.178714 0.017731
0.562463 0.177722 0.013168
0.711711 0.174655 0.006806
0.866773 0.170230 0.000046
0.999527 0.170672 0.000000
0.000000 0.265141 0.034943
0.080339 0.273732 0.037842
0.163958 0.285176 0.041901
0.293538 0.290242 0.028412
0.449409 0.299229 0.010803
0.621317 0.303105 0.009827
0.770291 0.303014 0.007095
0.915541 0.306447 0.007446
1.000000 0.315282 0.012192
0.000000 0.392035 0.054765
0.074998 0.406043 0.056001
0.149996 0.420920 0.059892
0.281086 0.433204 0.036103
0.486900 0.433310 0.046830
0.631724 0.455360 0.023667
0.775418 0.462303 0.014328
0.922362 0.467033 0.014816
1.000000 0.476478 0.019959
0.000000 0.534829 0.075700
0.074998 0.550195 0.079728
0.149996 0.566812 0.086885
0.278248 0.585321 0.068345
0.496574 0.591669 0.062196
0.687236 0.596033 0.082414
0.816388 0.608942 0.062532
0.925002 0.624018 0.036408
1.000000 0.635904 0.030152
0.000000 0.681956 0.106157
0.074998 0.698863 0.110979
0.149996 0.716197 0.118593
0.283146 0.734600 0.099641
0.494728 0.744595 0.074632
0.696971 0.744793 0.095766
0.849714 0.746471 0.107744
0.925002 0.755062 0.101503
1.000000 0.772503 0.082689
0.000000 0.827008 0.137819
0.074998 0.842512 0.141207
0.151812 0.858518 0.147448
0.292226 0.876219 0.126040
0.497902 0.888319 0.092912
0.704326 0.887572 0.104280
0.850004 0.888228 0.122423
0.925002 0.890242 0.132982
1.000000 0.896941 0.136156
0.000000 0.963287 0.170443
0.075792 0.978790 0.173312
0.175372 0.994064 0.178408
0.319661 1.000000 0.153903
0.522286 1.000000 0.118196
0.716258 1.000000 0.120699
0.850004 1.000000 0.138506
0.925002 1.000000 0.151080
1.000000 1.000000 0.159014
0.005570 0.010590 0.088075
0.084169 0.013916 0.091722
0.163973 0.016449 0.095186
0.259510 0.016434 0.097642
0.373999 0.013901 0.096269
0.489693 0.009186 0.091890
0.593637 0.004334 0.086732
0.697215 0.000000 0.081422
0.794827 0.000000 0.077638
0.008927 0.095399 0.100786
0.088548 0.098085 0.102693
0.168460 0.100404 0.103822
0.267796 0.098207 0.101488
0.381109 0.093797 0.096437
0.501839 0.088273 0.090303
0.613108 0.083330 0.084779
0.748501 0.078523 0.079225
0.891203 0.074998 0.074998
0.010223 0.178073 0.110018
0.089784 0.178744 0.109056
0.169680 0.180499 0.109483
0.275776 0.180514 0.104295
0.413413 0.180026 0.102281
0.570260 0.179339 0.099413
0.720668 0.176211 0.094560
0.875196 0.172198 0.088289
1.000000 0.173602 0.087755
0.000015 0.267185 0.117647
0.080674 0.276722 0.122332
0.165545 0.288380 0.128252
0.293477 0.294209 0.112001
0.455070 0.301350 0.099916
0.625696 0.306340 0.101488
0.775250 0.307424 0.100435
0.920348 0.311086 0.100862
1.000000 0.319966 0.105806
0.000000 0.395346 0.142138
0.074998 0.408927 0.144594
0.149996 0.423514 0.149676
0.281056 0.436652 0.127749
0.487129 0.437201 0.133745
0.632731 0.459861 0.112703
0.781781 0.467262 0.107790
0.924865 0.471885 0.108705
1.000000 0.481315 0.113939
0.000000 0.537652 0.165850
0.074998 0.552850 0.170291
0.149996 0.569604 0.177737
0.280812 0.588617 0.161028
0.496925 0.596658 0.150011
0.687419 0.602152 0.171389
0.816938 0.616053 0.150927
0.925002 0.630076 0.126604
1.000000 0.641611 0.121324
0.000000 0.685100 0.196963
0.074998 0.701686 0.201968
0.150607 0.718715 0.209491
0.285725 0.737194 0.192279
0.493721 0.749920 0.164309
0.696590 0.750683 0.184283
0.849989 0.752697 0.197131
0.925002 0.761654 0.190005
1.000000 0.779049 0.170459
0.000000 0.829328 0.228244
0.074998 0.844800 0.231876
0.156024 0.860746 0.238376
0.294743 0.878614 0.218677
0.495979 0.892912 0.183490
0.701946 0.892989 0.192172
0.850004 0.893767 0.211124
0.925002 0.895659 0.221790
1.000000 0.902235 0.224475
0.000000 0.965530 0.260761
0.079011 0.980743 0.263981
0.179187 0.995758 0.269245
0.320806 1.000000 0.246204
0.518334 1.000000 0.208743
0.711864 1.000000 0.207843
0.850004 1.000000 0.225864
0.925002 1.000000 0.238773
1.000000 1.000000 0.246677
0.005417 0.011749 0.165011
0.083818 0.014939 0.169024
0.163363 0.017441 0.172961
0.259480 0.017136 0.176501
0.375158 0.014191 0.175692
0.491585 0.009232 0.171298
0.593362 0.004089 0.165789
0.697398 0.000000 0.160555
0.797147 0.000000 0.157046
0.008270 0.096483 0.177920
0.087480 0.099168 0.179950
0.166979 0.101564 0.181720
0.266590 0.098329 0.180591
0.380804 0.093721 0.175586
0.503700 0.088334 0.169924
0.619989 0.083665 0.164920
0.760250 0.078706 0.159899
0.905455 0.075105 0.155169
0.009445 0.178347 0.186999
0.088991 0.179263 0.186435
0.168963 0.181765 0.187900
0.278355 0.181964 0.186221
0.420462 0.181842 0.184985
0.578744 0.181460 0.183276
0.730068 0.178332 0.178576
0.883741 0.174899 0.173220
1.000000 0.177661 0.174121
0.000015 0.269886 0.199527
0.081178 0.280140 0.205585
0.166857 0.292149 0.212329
0.294972 0.298222 0.194049
0.461982 0.304417 0.185565
0.630259 0.310277 0.188891
0.780667 0.312276 0.188785
0.923003 0.316136 0.189425
1.000000 0.325216 0.194888
0.000000 0.399344 0.226459
0.074998 0.412695 0.229572
0.150881 0.427070 0.235401
0.283696 0.440726 0.215152
0.490303 0.441840 0.218036
0.635645 0.464805 0.198566
0.788632 0.472724 0.196506
0.925002 0.477302 0.197574
1.000000 0.486732 0.203021
0.000000 0.541512 0.251759
0.074998 0.556710 0.256336
0.150408 0.573617 0.264286
0.284810 0.592920 0.248829
0.499748 0.602136 0.234958
0.689265 0.607980 0.256825
0.819821 0.622705 0.236210
0.925002 0.636057 0.212940
1.000000 0.647349 0.208606
0.000000 0.689189 0.283299
0.074998 0.705577 0.288426
0.154452 0.722454 0.296010
0.289708 0.740856 0.279637
0.495720 0.755276 0.250294
0.697917 0.756512 0.269444
0.850004 0.758648 0.282933
0.925002 0.767834 0.275166
1.000000 0.785168 0.255467
0.000000 0.832868 0.314260
0.074998 0.848173 0.318151
0.160937 0.864057 0.324865
0.298558 0.882078 0.306127
0.497307 0.897688 0.270115
0.701778 0.898238 0.276738
0.850004 0.899031 0.296223
0.925002 0.900832 0.307057
1.000000 0.907317 0.309392
0.000000 0.968353 0.347921
0.083299 0.983520 0.350835
0.183581 0.997345 0.356130
0.323644 1.000000 0.333898
0.517296 1.000000 0.295476
0.710201 1.000000 0.292073
0.850004 1.000000 0.309926
0.925002 1.000000 0.323095
1.000000 1.000000 0.330922
0.002182 0.013001 0.245212
0.079851 0.016113 0.250813
0.158236 0.018784 0.256229
0.251743 0.018708 0.264286
0.366598 0.014710 0.269688
0.485023 0.008804 0.267979
0.585214 0.003128 0.261524
0.690059 0.000000 0.257160
0.792569 0.000000 0.255528
0.001572 0.098329 0.260304
0.080522 0.100877 0.263890
0.159243 0.102815 0.267262
0.255375 0.099855 0.270283
0.371420 0.093828 0.270817
0.497978 0.087556 0.267720
0.619562 0.082765 0.264744
0.764218 0.077684 0.264286
0.909972 0.074998 0.265263
0.000870 0.179904 0.269673
0.080461 0.181247 0.270375
0.159701 0.184634 0.275090
0.266224 0.185718 0.285374
0.414191 0.182712 0.292531
0.575265 0.181018 0.294545
0.727840 0.178225 0.293095
0.880888 0.175479 0.291463
1.000000 0.179370 0.296223
0.000000 0.272175 0.295628
0.077241 0.282582 0.306416
0.163500 0.294026 0.317876
0.283818 0.301274 0.308904
0.460136 0.301472 0.303441
0.625513 0.308476 0.308034
0.778164 0.313329 0.310536
0.921599 0.317479 0.312383
1.000000 0.326680 0.319677
0.000000 0.399649 0.337652
0.074998 0.412253 0.341863
0.150881 0.425757 0.348302
0.282124 0.437598 0.334035
0.474022 0.441306 0.317556
0.629007 0.462043 0.307515
0.792401 0.473945 0.317494
0.925002 0.478782 0.320287
1.000000 0.487907 0.327443
0.000000 0.540124 0.363378
0.074998 0.554208 0.367315
0.150851 0.570260 0.375723
0.283009 0.587442 0.364996
0.479210 0.601923 0.334691
0.673594 0.608072 0.356893
0.808515 0.630289 0.340291
0.925002 0.641321 0.325185
1.000000 0.650324 0.327672
0.000000 0.686793 0.395651
0.074998 0.702281 0.400565
0.155886 0.718059 0.408438
0.288045 0.735195 0.396094
0.476997 0.756939 0.361196
0.685878 0.761486 0.373205
0.848859 0.765530 0.389807
0.925002 0.776257 0.379370
1.000000 0.793271 0.360830
0.000000 0.828626 0.429496
0.074998 0.843381 0.433097
0.162081 0.858595 0.440101
0.296483 0.875807 0.425086
0.479789 0.897475 0.387076
0.685237 0.902800 0.381155
0.850004 0.904570 0.401663
0.925002 0.906844 0.413581
1.000000 0.913741 0.415274
0.000000 0.962356 0.466621
0.083970 0.976883 0.469001
0.183505 0.990997 0.474220
0.319554 1.000000 0.455436
0.498268 1.000000 0.415274
0.689479 1.000000 0.398535
0.850004 1.000000 0.414038
0.925002 1.000000 0.428504
1.000000 1.000000 0.436683
0.000000 0.013825 0.326925
0.074998 0.017121 0.334844
0.150454 0.019913 0.342321
0.241535 0.020417 0.352956
0.351858 0.016281 0.368444
0.470039 0.009262 0.372442
0.569116 0.003082 0.365866
0.674693 0.000000 0.363409
0.780072 0.000000 0.365164
0.000000 0.099855 0.347143
0.074998 0.102464 0.353262
0.149996 0.103838 0.357244
0.241703 0.101381 0.361196
0.354253 0.095613 0.372961
0.482902 0.088075 0.378012
0.607248 0.082475 0.380575
0.753735 0.076799 0.388632
0.899092 0.074998 0.397955
0.000000 0.181384 0.358053
0.074998 0.183337 0.362341
0.149996 0.187930 0.372274
0.248234 0.190341 0.388128
0.392233 0.186160 0.414450
0.552560 0.180941 0.424109
0.705135 0.177646 0.428733
0.859068 0.175540 0.432563
0.992035 0.180285 0.439445
0.000000 0.278264 0.392889
0.074998 0.289799 0.408042
0.149996 0.301488 0.422629
0.256001 0.307897 0.425193
0.430259 0.302571 0.441596
0.596948 0.304097 0.445335
0.755810 0.310521 0.450874
0.903960 0.315694 0.454200
1.000000 0.325261 0.461860
0.000000 0.399542 0.461830
0.074998 0.411215 0.468681
0.149996 0.423880 0.476020
0.277073 0.434226 0.465919
0.447150 0.440314 0.437095
0.617288 0.449104 0.442603
0.782666 0.465492 0.456443
0.925002 0.475792 0.464149
1.000000 0.484993 0.471015
0.000000 0.535988 0.498970
0.074998 0.548913 0.501320
0.149996 0.563851 0.507881
0.277287 0.577203 0.495705
0.443519 0.593164 0.464164
0.636545 0.596948 0.462638
0.781979 0.623743 0.454490
0.925002 0.640116 0.465064
1.000000 0.648692 0.471382
0.000000 0.681117 0.529992
0.074998 0.695109 0.532250
0.151125 0.709377 0.537896
0.282338 0.721950 0.525521
0.449409 0.742931 0.497276
0.648157 0.754131 0.480613
0.828443 0.763851 0.505028
0.925002 0.785763 0.496925
1.000000 0.800366 0.484718
0.000000 0.821103 0.561990
0.074998 0.834577 0.563577
0.157763 0.848707 0.569070
0.291737 0.862211 0.556161
0.459388 0.884840 0.527077
0.649638 0.902724 0.501778
0.840909 0.908507 0.520928
0.925002 0.913268 0.536797
1.000000 0.921294 0.535851
0.000000 0.953521 0.597040
0.079362 0.966659 0.597940
0.178683 0.979583 0.602548
0.313436 0.992615 0.586786
0.478096 1.000000 0.554513
0.652628 1.000000 0.524285
0.845472 1.000000 0.530495
0.925002 1.000000 0.548791
1.000000 1.000000 0.558083
0.000000 0.015839 0.413031
0.074998 0.019257 0.423575
0.149996 0.022263 0.433707
0.229374 0.022675 0.446647
0.335851 0.018921 0.463233
0.452186 0.010681 0.474434
0.552758 0.003632 0.467979
0.658198 0.000000 0.467430
0.765820 0.000000 0.473716
0.000000 0.102251 0.439185
0.074998 0.104967 0.447974
0.149996 0.105653 0.451469
0.226658 0.103258 0.456245
0.336110 0.098405 0.469184
0.465400 0.090105 0.489433
0.592309 0.083253 0.498939
0.736767 0.077012 0.514351
0.879149 0.074998 0.530770
0.000000 0.183734 0.452644
0.074998 0.186419 0.461067
0.149996 0.192538 0.478706
0.225620 0.195911 0.503212
0.363485 0.192752 0.534249
0.522393 0.184329 0.561196
0.674281 0.178683 0.569680
0.825879 0.177157 0.576989
0.956207 0.182681 0.587304
0.000000 0.285695 0.498650
0.074998 0.298192 0.522576
0.149996 0.310201 0.544869
0.225177 0.314717 0.557290
0.389502 0.310811 0.572641
0.554437 0.306752 0.591714
0.712886 0.308415 0.597711
0.862806 0.313848 0.604303
0.991073 0.323522 0.615961
0.000000 0.407507 0.574182
0.074998 0.419440 0.582254
0.149996 0.432288 0.591318
0.239353 0.442374 0.581781
0.408026 0.447608 0.575784
0.575692 0.445258 0.593149
0.739559 0.452644 0.602487
0.897414 0.465614 0.615656
1.000000 0.476570 0.626917
0.000000 0.536034 0.627405
0.074998 0.548104 0.632395
0.149996 0.561944 0.642573
0.266117 0.571725 0.633677
0.434272 0.583047 0.611154
0.594842 0.588067 0.585061
0.757534 0.599695 0.592996
0.919615 0.621241 0.612757
1.000000 0.638636 0.629755
0.000000 0.676890 0.667338
0.074998 0.689311 0.671824
0.149996 0.702022 0.680797
0.271260 0.710460 0.667948
0.435401 0.721828 0.638666
0.593896 0.736645 0.608667
0.774990 0.742168 0.610697
0.919539 0.772045 0.609781
1.000000 0.793408 0.625971
0.000000 0.814633 0.701518
0.074998 0.826749 0.705196
0.150423 0.839338 0.713588
0.280247 0.848493 0.698344
0.444221 0.860258 0.668177
0.602609 0.880201 0.642252
0.787030 0.892012 0.629221
0.925002 0.904112 0.654795
1.000000 0.923659 0.658061
0.000000 0.945083 0.741421
0.075013 0.956588 0.743633
0.167681 0.967956 0.749508
0.300649 0.976303 0.730587
0.462547 0.988708 0.700053
0.614313 1.000000 0.674754
0.794278 1.000000 0.652461
0.925002 1.000000 0.673152
1.000000 1.000000 0.689815
0.000000 0.018311 0.501335
0.074998 0.021775 0.514138
0.149996 0.024903 0.526558
0.224994 0.025269 0.542565
0.320760 0.021744 0.562539
0.433555 0.013825 0.577646
0.536309 0.005707 0.575296
0.644007 0.000000 0.577768
0.754879 0.000000 0.589990
0.000000 0.105074 0.533501
0.074998 0.107332 0.543038
0.149996 0.107866 0.546929
0.224994 0.106081 0.555535
0.318303 0.101671 0.572702
0.444617 0.094728 0.604257
0.572900 0.086824 0.627314
0.717220 0.079072 0.652598
0.856306 0.075563 0.675593
0.000000 0.186709 0.550057
0.074998 0.190524 0.564370
0.149996 0.197925 0.589685
0.224994 0.202167 0.623102
0.335454 0.199191 0.658900
0.487938 0.192126 0.692622
0.637415 0.185016 0.714855
0.789685 0.181979 0.727474
0.920272 0.186954 0.736873
0.000000 0.294850 0.617761
0.074998 0.307744 0.648157
0.149996 0.319966 0.674159
0.224994 0.323339 0.689754
0.355184 0.318120 0.701366
0.515145 0.315312 0.720394
0.671748 0.313634 0.739361
0.824216 0.315648 0.749126
0.953521 0.324269 0.759350
0.000000 0.421851 0.693935
0.074998 0.433616 0.702190
0.149996 0.445853 0.711101
0.224994 0.452369 0.704982
0.370748 0.452598 0.704585
0.536141 0.451942 0.719600
0.695247 0.452964 0.742031
0.851133 0.458808 0.753613
0.981674 0.469108 0.764218
0.000000 0.545327 0.748318
0.074998 0.557565 0.752804
0.149996 0.571405 0.761761
0.236744 0.579889 0.749203
0.396292 0.588739 0.723415
0.555673 0.593591 0.719432
0.713466 0.592782 0.736446
0.871565 0.601816 0.748409
1.000000 0.618418 0.764492
0.000000 0.678553 0.801175
0.074998 0.690089 0.805432
0.149996 0.702159 0.812940
0.259907 0.708614 0.800061
0.421302 0.713726 0.771786
0.581796 0.724453 0.751568
0.729931 0.730480 0.731868
0.888823 0.742489 0.739940
1.000000 0.763973 0.759899
0.000000 0.811627 0.842512
0.074998 0.822858 0.845853
0.149996 0.834775 0.849363
0.271702 0.841245 0.837232
0.429465 0.845273 0.804135
0.584924 0.855711 0.778256
0.730449 0.868467 0.754681
0.901884 0.874647 0.752865
1.000000 0.899733 0.754559
0.000000 0.940154 0.850004
0.074998 0.950729 0.850004
0.160128 0.961334 0.850004
0.290288 0.966903 0.850004
0.446113 0.971481 0.831678
0.593942 0.980362 0.804150
0.741146 0.996887 0.782437
0.913359 1.000000 0.769619
1.000000 1.000000 0.790402
0.000000 0.020157 0.587564
0.074998 0.023697 0.602274
0.149996 0.026902 0.616541
0.224994 0.027314 0.635111
0.308232 0.023529 0.656001
0.419562 0.015869 0.671458
0.522133 0.008026 0.673304
0.630426 0.000656 0.683696
0.743938 0.000000 0.705425
0.000000 0.107271 0.624796
0.074998 0.108812 0.633265
0.149996 0.109422 0.637964
0.224994 0.108278 0.650446
0.303395 0.104433 0.673213
0.428748 0.098405 0.711620
0.554986 0.091386 0.744076
0.697093 0.083497 0.780270
0.834302 0.078874 0.808713
0.000000 0.189197 0.644373
0.074998 0.194553 0.666056
0.149996 0.203555 0.699611
0.224994 0.208804 0.740490
0.312276 0.205692 0.779492
0.463264 0.198871 0.811810
0.608286 0.192828 0.837934
0.758572 0.189639 0.857145
0.890257 0.193515 0.869810
0.000000 0.303532 0.734325
0.074998 0.316548 0.768917
0.149996 0.329015 0.797650
0.224994 0.332158 0.814527
0.329366 0.326543 0.823804
0.488548 0.323140 0.838239
0.640238 0.321828 0.859586
0.791745 0.322377 0.877836
0.922362 0.329183 0.891035
0.000000 0.433402 0.810101
0.074998 0.444678 0.818616
0.149996 0.456855 0.828504
0.224994 0.462394 0.826215
0.343740 0.459831 0.826749
0.507530 0.457298 0.837369
0.661891 0.459144 0.859602
0.815351 0.461769 0.880674
0.946639 0.468727 0.893080
0.000000 0.556878 0.856321
0.074998 0.569574 0.861387
0.149996 0.583444 0.870481
0.224994 0.591974 0.858869
0.363241 0.594949 0.836484
0.522515 0.595605 0.836805
0.679255 0.596826 0.851835
0.832502 0.600046 0.874327
0.967437 0.609323 0.887678
0.000000 0.685649 0.913436
0.074998 0.697078 0.917494
0.149996 0.709087 0.923308
0.240040 0.715602 0.910735
0.395270 0.718334 0.877729
0.548058 0.727703 0.855528
0.696941 0.734508 0.853208
0.850004 0.735317 0.869993
0.986908 0.744732 0.881315
0.000000 0.814206 0.925002
0.074998 0.824979 0.925002
0.149996 0.836561 0.925002
0.261540 0.841779 0.925002
0.418067 0.842084 0.922240
0.571221 0.847364 0.898817
0.719371 0.857694 0.883192
0.862837 0.863600 0.864378
0.999954 0.872892 0.870939
0.000000 0.940154 0.925002
0.074998 0.949935 0.925002
0.153063 0.959930 0.925002
0.282414 0.963714 0.925002
0.436179 0.963806 0.925002
0.579202 0.966110 0.924285
0.724819 0.976638 0.905837
0.863691 0.988144 0.882628
1.000000 0.991257 0.879561
0.000000 0.021820 0.671778
0.074998 0.025376 0.687694
0.149996 0.028595 0.703044
0.224994 0.028962 0.723293
0.300389 0.024582 0.742657
0.410788 0.017136 0.759762
0.513558 0.009583 0.764355
0.622583 0.002319 0.780499
0.737942 0.000000 0.809979
0.000000 0.109102 0.712306
0.074998 0.109895 0.718853
0.149996 0.110643 0.724514
0.224994 0.110216 0.741268
0.299992 0.107225 0.771527
0.418173 0.101793 0.816083
0.543511 0.095415 0.852750
0.683406 0.088060 0.893690
0.818479 0.083726 0.925139
0.000000 0.191684 0.735576
0.074998 0.198764 0.765148
0.149996 0.209476 0.805997
0.224994 0.215122 0.851347
0.299992 0.211536 0.891249
0.447517 0.204685 0.921691
0.590555 0.199603 0.946746
0.738659 0.197299 0.967361
0.870634 0.200900 0.982361
0.000000 0.311467 0.844678
0.074998 0.324269 0.880659
0.149996 0.336736 0.909438
0.224994 0.339559 0.924773
0.314488 0.333913 0.932357
0.472969 0.330114 0.944518
0.622995 0.329030 0.964477
0.772625 0.329824 0.985504
0.903319 0.336095 0.999802
0.000000 0.442527 0.917891
0.074998 0.453544 0.926070
0.149996 0.465583 0.935821
0.224994 0.470542 0.934615
0.329381 0.467658 0.936217
0.491005 0.464225 0.944915
0.644266 0.465263 0.963729
0.794247 0.467720 0.986679
0.925124 0.473533 1.000000
0.000000 0.567193 0.957870
0.074998 0.579950 0.963455
0.149996 0.593683 0.972396
0.224994 0.601526 0.961730
0.346059 0.602548 0.943709
0.502235 0.599466 0.942855
0.658778 0.599847 0.955200
0.808927 0.604196 0.978378
0.942626 0.611322 0.996689
0.000000 0.694316 1.000000
0.074998 0.705608 1.000000
0.149996 0.717662 1.000000
0.226108 0.724422 1.000000
0.375967 0.727199 0.976623
0.522881 0.731044 0.955444
0.673365 0.735561 0.957534
0.825299 0.738628 0.973587
0.959228 0.743801 0.992493
0.000000 0.819791 1.000000
0.074998 0.830442 1.000000
0.149996 0.841810 1.000000
0.251072 0.846784 1.000000
0.405966 0.846937 1.000000
0.551812 0.848920 0.995132
0.695918 0.859556 0.978424
0.838087 0.866835 0.975326
0.973388 0.867735 0.988952
0.000000 0.943465 1.000000
0.074998 0.952926 1.000000
0.150210 0.962554 1.000000
0.275639 0.965606 1.000000
0.428534 0.964187 1.000000
0.568521 0.962341 1.000000
0.713832 0.970123 1.000000
0.855070 0.979736 0.999512
0.982223 0.982483 0.982498
