luts/Arctic_Moss.CUBE
# kravix mobile - LUTs Pack
LUT_3D_SIZE 5
0.005676 0.009339 0.011109
0.164797 0.015427 0.016998
0.373175 0.013718 0.015885
0.592569 0.004593 0.005859
0.794171 0.000000 0.000000
0.010727 0.178134 0.031449
0.169726 0.180041 0.028519
0.408026 0.178714 0.017731
0.711711 0.174655 0.006806
0.999527 0.170672 0.000000
0.000000 0.392035 0.054765
0.149996 0.420920 0.059892
0.486900 0.433310 0.046830
0.775418 0.462303 0.014328
1.000000 0.476478 0.019959
0.000000 0.681956 0.106157
0.149996 0.716197 0.118593
0.494728 0.744595 0.074632
0.849714 0.746471 0.107744
1.000000 0.772503 0.082689
0.000000 0.963287 0.170443
0.175372 0.994064 0.178408
0.522286 1.000000 0.118196
0.850004 1.000000 0.138506
1.000000 1.000000 0.159014
0.005417 0.011749 0.165011
0.163363 0.017441 0.172961
0.375158 0.014191 0.175692
0.593362 0.004089 0.165789
0.797147 0.000000 0.157046
0.009445 0.178347 0.186999
0.168963 0.181765 0.187900
0.420462 0.181842 0.184985
0.730068 0.178332 0.178576
1.000000 0.177661 0.174121
0.000000 0.399344 0.226459
0.150881 0.427070 0.235401
0.490303 0.441840 0.218036
0.788632 0.472724 0.196506
1.000000 0.486732 0.203021
0.000000 0.689189 0.283299
0.154452 0.722454 0.296010
0.495720 0.755276 0.250294
0.850004 0.758648 0.282933
1.000000 0.785168 0.255467
0.000000 0.968353 0.347921
0.183581 0.997345 0.356130
0.517296 1.000000 0.295476
0.850004 1.000000 0.309926
1.000000 1.000000 0.330922
0.000000 0.013825 0.326925
0.150454 0.019913 0.342321
0.351858 0.016281 0.368444
0.569116 0.003082 0.365866
0.780072 0.000000 0.365164
0.000000 0.181384 0.358053
0.149996 0.187930 0.372274
0.392233 0.186160 0.414450
0.705135 0.177646 0.428733
0.992035 0.180285 0.439445
0.000000 0.399542 0.461830
0.149996 0.423880 0.476020
0.447150 0.440314 0.437095
0.782666 0.465492 0.456443
1.000000 0.484993 0.471015
0.000000 0.681117 0.529992
0.151125 0.709377 0.537896
0.449409 0.742931 0.497276
0.828443 0.763851 0.505028
1.000000 0.800366 0.484718
0.000000 0.953521 0.597040
0.178683 0.979583 0.602548
0.478096 1.000000 0.554513
0.845472 1.000000 0.530495
1.000000 1.000000 0.558083
0.000000 0.018311 0.501335
0.149996 0.024903 0.526558
0.320760 0.021744 0.562539
0.536309 0.005707 0.575296
0.754879 0.000000 0.589990
0.000000 0.186709 0.550057
0.149996 0.197925 0.589685
0.335454 0.199191 0.658900
0.637415 0.185016 0.714855
0.920272 0.186954 0.736873
0.000000 0.421851 0.693935
0.149996 0.445853 0.711101
0.370748 0.452598 0.704585
0.695247 0.452964 0.742031
0.981674 0.469108 0.764218
0.000000 0.678553 0.801175
0.149996 0.702159 0.812940
0.421302 0.713726 0.771786
0.729931 0.730480 0.731868
1.000000 0.763973 0.759899
0.000000 0.940154 0.850004
0.160128 0.961334 0.850004
0.446113 0.971481 0.831678
0.741146 0.996887 0.782437
1.000000 1.000000 0.790402
0.000000 0.021820 0.671778
0.149996 0.028595 0.703044
0.300389 0.024582 0.742657
0.513558 0.009583 0.764355
0.737942 0.000000 0.809979
0.000000 0.191684 0.735576
0.149996 0.209476 0.805997
0.299992 0.211536 0.891249
0.590555 0.199603 0.946746
0.870634 0.200900 0.982361
0.000000 0.442527 0.917891
0.149996 0.465583 0.935821
0.329381 0.467658 0.936217
0.644266 0.465263 0.963729
0.925124 0.473533 1.000000
0.000000 0.694316 1.000000
0.149996 0.717662 1.000000
0.375967 0.727199 0.976623
0.673365 0.735561 0.957534
0.959228 0.743801 0.992493
0.000000 0.943465 1.000000
0.150210 0.962554 1.000000
0.428534 0.964187 1.000000
0.713832 0.970123 1.000000
0.982223 0.982483 0.982498
