luts/Arctic_Moss.CUBE
# kravix mobile - LUTs Pack
LUT_3D_SIZE 17
0.005676 0.009339 0.011109
0.045213 0.011215 0.012924
0.084794 0.012787 0.014282
0.124102 0.014252 0.015641
0.164797 0.015427 0.016998
0.211170 0.015702 0.018067
0.259464 0.015869 0.018082
0.313344 0.015213 0.017441
0.373175 0.013718 0.015885
0.433539 0.011551 0.013520
0.488579 0.009247 0.010986
0.539162 0.006943 0.008438
0.592569 0.004593 0.005859
0.646815 0.002136 0.003159
0.697871 0.000046 0.000549
0.747982 0.000000 0.000000
0.794171 0.000000 0.000000
0.007950 0.052094 0.017395
0.047639 0.053590 0.018631
0.087571 0.054963 0.019593
0.127153 0.056245 0.020569
0.167636 0.057420 0.020996
0.214755 0.057481 0.020432
0.264454 0.057237 0.019898
0.318990 0.056214 0.018601
0.380087 0.054505 0.016419
0.443549 0.052216 0.013550
0.497917 0.049317 0.010315
0.547280 0.046464 0.007218
0.596597 0.043732 0.004257
0.650324 0.041123 0.001312
0.704906 0.038682 0.000000
0.760937 0.037491 0.000000
0.817060 0.037491 0.000000
0.009369 0.094514 0.022904
0.049180 0.095918 0.023728
0.089280 0.097200 0.024292
0.129061 0.098421 0.024918
0.169482 0.099535 0.024994
0.217182 0.099535 0.021881
0.268345 0.098405 0.020722
0.322179 0.096544 0.018616
0.382071 0.094087 0.015518
0.444785 0.091386 0.012009
0.501152 0.088502 0.008682
0.554711 0.085878 0.005692
0.608957 0.083406 0.002686
0.672251 0.081117 0.000061
0.739376 0.078569 0.000000
0.808576 0.075700 0.000000
0.878065 0.074998 0.000000
0.010636 0.136858 0.028061
0.050568 0.138155 0.028412
0.090745 0.139300 0.028443
0.130312 0.139879 0.028061
0.169940 0.140063 0.027085
0.217365 0.139132 0.022538
0.268421 0.137636 0.020035
0.323323 0.135958 0.018082
0.386114 0.133974 0.015076
0.454307 0.131899 0.011749
0.520150 0.130159 0.008774
0.583490 0.128389 0.006012
0.651652 0.126680 0.003067
0.726986 0.124208 0.000046
0.803388 0.121386 0.000000
0.880537 0.119142 0.000000
0.952316 0.118395 0.000000
0.010727 0.178134 0.031449
0.050477 0.178424 0.030533
0.090242 0.178759 0.029572
0.129778 0.179232 0.028931
0.169726 0.180041 0.028519
0.219303 0.179751 0.024399
0.273182 0.179706 0.021149
0.334752 0.179309 0.020050
0.408026 0.178714 0.017731
0.487449 0.178286 0.015351
0.562463 0.177722 0.013168
0.633951 0.176791 0.010742
0.711711 0.174655 0.006806
0.790066 0.172152 0.002457
0.866773 0.170230 0.000046
0.941115 0.169345 0.000000
0.999527 0.170672 0.000000
0.006149 0.218402 0.031189
0.046387 0.219516 0.030869
0.086625 0.221134 0.030839
0.127001 0.223713 0.031739
0.167849 0.227100 0.033051
0.218357 0.230182 0.026474
0.283207 0.230716 0.023438
0.351125 0.232822 0.018952
0.436362 0.234119 0.016876
0.523705 0.235325 0.015503
0.602457 0.235462 0.013748
0.675258 0.234180 0.010758
0.753475 0.232288 0.006836
0.830243 0.231250 0.003708
0.903624 0.231693 0.002121
0.962493 0.233783 0.002365
1.000000 0.238636 0.005402
0.000000 0.265141 0.034943
0.039033 0.268956 0.036179
0.080339 0.273732 0.037842
0.122042 0.279149 0.039750
0.163958 0.285176 0.041901
0.215854 0.290867 0.034577
0.293538 0.290242 0.028412
0.366659 0.293294 0.021607
0.449409 0.299229 0.010803
0.541009 0.301823 0.010346
0.621317 0.303105 0.009827
0.694087 0.303014 0.008423
0.770291 0.303014 0.007095
0.844388 0.304234 0.006912
0.915541 0.306447 0.007446
0.962493 0.309743 0.008759
1.000000 0.315282 0.012192
0.000000 0.324147 0.044465
0.037491 0.330694 0.046128
0.074998 0.337453 0.047532
0.112566 0.344228 0.048783
0.153719 0.351080 0.050858
0.208362 0.357366 0.042985
0.288731 0.359014 0.027558
0.382712 0.357183 0.032471
0.464424 0.365789 0.021836
0.544427 0.375631 0.011399
0.624277 0.379644 0.011505
0.697871 0.381064 0.011734
0.775051 0.381872 0.011170
0.849821 0.383307 0.011017
0.921416 0.385763 0.011399
0.962493 0.389181 0.012741
1.000000 0.395132 0.016525
0.000000 0.392035 0.054765
0.037491 0.398886 0.055375
0.074998 0.406043 0.056001
0.112490 0.413291 0.057008
0.149996 0.420920 0.059892
0.200580 0.428244 0.053483
0.281086 0.433204 0.036103
0.383871 0.431846 0.036240
0.486900 0.433310 0.046830
0.565591 0.444923 0.036210
0.631724 0.455360 0.023667
0.699565 0.460197 0.017624
0.775418 0.462303 0.014328
0.851118 0.464271 0.013962
0.922362 0.467033 0.014816
0.962493 0.470634 0.016220
1.000000 0.476478 0.019959
0.000000 0.462638 0.063783
0.037491 0.470100 0.064683
0.074998 0.477668 0.066056
0.112490 0.485298 0.068284
0.149996 0.493248 0.072511
0.198871 0.501442 0.067720
0.277852 0.508888 0.051530
0.380957 0.510674 0.042512
0.491768 0.510964 0.054810
0.592157 0.514778 0.064363
0.664286 0.523171 0.057725
0.720745 0.532769 0.042557
0.785657 0.539651 0.029679
0.854627 0.544747 0.022370
0.922591 0.548775 0.019257
0.962493 0.552666 0.019120
1.000000 0.558083 0.021820
0.000000 0.534829 0.075700
0.037491 0.542214 0.077470
0.074998 0.550195 0.079728
0.112490 0.558373 0.082475
0.149996 0.566812 0.086885
0.199390 0.576013 0.083085
0.278248 0.585321 0.068345
0.378851 0.590814 0.054826
0.496574 0.591669 0.062196
0.600900 0.593912 0.075883
0.687236 0.596033 0.082414
0.756817 0.599741 0.079469
0.816388 0.608942 0.062532
0.874250 0.617761 0.046067
0.925002 0.624018 0.036408
0.962493 0.629526 0.030884
1.000000 0.635904 0.030152
0.000000 0.607507 0.090333
0.037491 0.615534 0.092439
0.074998 0.624048 0.094881
0.112490 0.632944 0.097932
0.149996 0.641978 0.102876
0.202441 0.651377 0.099184
0.280964 0.661295 0.085100
0.378546 0.668818 0.069383
0.498054 0.670726 0.069200
0.606241 0.671214 0.082582
0.693309 0.671855 0.091051
0.770871 0.672465 0.095491
0.846677 0.675135 0.094484
0.887495 0.682460 0.082292
0.925002 0.691859 0.066728
0.962493 0.700145 0.055421
1.000000 0.707774 0.051820
0.000000 0.681956 0.106157
0.037491 0.690288 0.108461
0.074998 0.698863 0.110979
0.112490 0.707454 0.113832
0.149996 0.716197 0.118593
0.205692 0.725185 0.114229
0.283146 0.734600 0.099641
0.377218 0.742123 0.082078
0.494728 0.744595 0.074632
0.607019 0.744427 0.085145
0.696971 0.744793 0.095766
0.775906 0.745586 0.102541
0.849714 0.746471 0.107744
0.887495 0.749050 0.108324
0.925002 0.755062 0.101503
0.962493 0.763684 0.089998
1.000000 0.772503 0.082689
0.000000 0.755413 0.122255
0.037491 0.763607 0.124315
0.074998 0.771862 0.126497
0.112490 0.780026 0.129183
0.149996 0.788067 0.133120
0.209049 0.796658 0.127749
0.286030 0.805737 0.112810
0.378653 0.813596 0.094377
0.494118 0.817166 0.082780
0.608179 0.816922 0.088975
0.700710 0.816922 0.099641
0.781415 0.817578 0.108339
0.850004 0.818494 0.115526
0.887495 0.819547 0.120409
0.925002 0.822019 0.122118
0.962493 0.826841 0.119036
1.000000 0.833799 0.115282
0.000000 0.827008 0.137819
0.037491 0.834623 0.139300
0.074998 0.842512 0.141207
0.112490 0.850462 0.143969
0.151812 0.858518 0.147448
0.214893 0.867140 0.140993
0.292226 0.876219 0.126040
0.384436 0.884184 0.107088
0.497902 0.888319 0.092912
0.611002 0.888090 0.095125
0.704326 0.887572 0.104280
0.787305 0.887724 0.113725
0.850004 0.888228 0.122423
0.887495 0.889097 0.128527
0.925002 0.890242 0.132982
0.962493 0.892515 0.135271
1.000000 0.896941 0.136156
0.000000 0.896574 0.152956
0.037491 0.904280 0.154498
0.074998 0.912123 0.156420
0.112505 0.919997 0.159335
0.158755 0.927977 0.162142
0.223911 0.936477 0.154498
0.301457 0.945266 0.139116
0.393774 0.953079 0.119631
0.505516 0.956970 0.103944
0.615412 0.956756 0.103044
0.708202 0.956008 0.110170
0.793469 0.955550 0.119402
0.850004 0.955474 0.128862
0.887495 0.955962 0.136065
0.925002 0.956649 0.140948
0.962493 0.957717 0.144976
1.000000 0.960372 0.148363
0.000000 0.963287 0.170443
0.037491 0.971038 0.171756
0.075792 0.978790 0.173312
0.124056 0.986465 0.176455
0.175372 0.994064 0.178408
0.241901 0.999069 0.169528
0.319661 1.000000 0.153903
0.413245 1.000000 0.133791
0.522286 1.000000 0.118196
0.626307 1.000000 0.115740
0.716258 1.000000 0.120699
0.803922 1.000000 0.129320
0.850004 1.000000 0.138506
0.887495 1.000000 0.145800
0.925002 1.000000 0.151080
0.962493 1.000000 0.155093
1.000000 1.000000 0.159014
0.005631 0.009995 0.049622
0.044953 0.011795 0.051438
0.084443 0.013382 0.052995
0.123674 0.014801 0.054551
0.164370 0.015946 0.056138
0.210819 0.016068 0.057832
0.259510 0.016113 0.057923
0.313558 0.015396 0.057450
0.373526 0.013809 0.056184
0.434089 0.011551 0.054032
0.488914 0.009216 0.051560
0.540063 0.006867 0.049012
0.593225 0.004456 0.046448
0.646326 0.001938 0.043717
0.697475 0.000015 0.041123
0.747753 0.000000 0.038712
0.794324 0.000000 0.037553
0.007752 0.052583 0.056062
0.047303 0.054108 0.057374
0.087114 0.055497 0.058366
0.126528 0.056825 0.059434
0.166812 0.058030 0.060075
0.214282 0.057832 0.060853
0.264530 0.057404 0.060197
0.318883 0.056321 0.058946
0.380468 0.054597 0.057069
0.443183 0.052064 0.054292
0.497368 0.049104 0.051026
0.546883 0.046265 0.047898
0.596292 0.043534 0.044907
0.650462 0.040940 0.042039
0.705928 0.038498 0.039338
0.762997 0.037491 0.037522
0.820859 0.037491 0.037491
0.009201 0.094911 0.061967
0.048966 0.096300 0.062974
0.089097 0.097566 0.063706
0.128862 0.098726 0.064439
0.169268 0.099794 0.064775
0.217212 0.099641 0.062928
0.268177 0.098283 0.061219
0.321614 0.096407 0.058991
0.381521 0.093919 0.056184
0.444297 0.091203 0.052857
0.501335 0.088350 0.049638
0.555520 0.085771 0.046708
0.610605 0.083314 0.043900
0.675776 0.081056 0.041077
0.743603 0.078553 0.037934
0.814343 0.075670 0.037491
0.884611 0.074998 0.037491
0.010452 0.137148 0.067491
0.050431 0.138415 0.068116
0.090562 0.139391 0.068299
0.130083 0.139788 0.067948
0.169711 0.139956 0.067277
0.216526 0.139239 0.062577
0.268482 0.137469 0.060655
0.323323 0.135973 0.058778
0.386526 0.134020 0.056138
0.455772 0.132082 0.053193
0.522484 0.130388 0.050477
0.586999 0.128740 0.048035
0.656489 0.127077 0.045319
0.732280 0.124575 0.041367
0.809262 0.121874 0.037614
0.886290 0.119707 0.037491
0.957534 0.119051 0.037491
0.010544 0.178058 0.070954
0.050309 0.178347 0.070298
0.090089 0.178683 0.069627
0.129717 0.179217 0.069276
0.169741 0.180194 0.069322
0.218540 0.180362 0.064927
0.274449 0.180041 0.062684
0.336263 0.179828 0.061952
0.410468 0.179309 0.060044
0.490715 0.178973 0.058228
0.566232 0.178470 0.056474
0.638239 0.177600 0.054475
0.716136 0.175433 0.050828
0.794430 0.172992 0.046876
0.870909 0.171221 0.043641
0.944900 0.170520 0.041550
0.999878 0.172168 0.041962
0.006027 0.218509 0.071290
0.046326 0.219776 0.071336
0.086641 0.221576 0.071702
0.127275 0.224537 0.073152
0.168261 0.228000 0.074968
0.217899 0.231739 0.069719
0.283909 0.232258 0.064469
0.353933 0.233753 0.062318
0.439796 0.235080 0.060960
0.527077 0.236316 0.059968
0.605509 0.236469 0.058534
0.678569 0.235325 0.055940
0.756786 0.233555 0.052338
0.833249 0.232746 0.049638
0.906218 0.233509 0.048539
0.962493 0.235843 0.049073
1.000000 0.240864 0.052338
0.000015 0.266102 0.076371
0.038941 0.270222 0.078065
0.080552 0.275166 0.080079
0.122683 0.280644 0.082368
0.164858 0.286702 0.085252
0.216175 0.292485 0.079240
0.293400 0.292210 0.070298
0.366552 0.295186 0.063630
0.452079 0.300221 0.055604
0.543557 0.303014 0.055772
0.623514 0.304631 0.055909
0.696529 0.304936 0.055116
0.772747 0.305135 0.054093
0.846754 0.306432 0.053986
0.917891 0.308721 0.054520
0.962493 0.312016 0.055848
1.000000 0.317586 0.059403
0.000000 0.325917 0.087373
0.037491 0.332464 0.089433
0.074998 0.339055 0.091218
0.112886 0.345647 0.092653
0.154910 0.352392 0.095155
0.209323 0.358633 0.088563
0.287602 0.361089 0.071687
0.382605 0.359014 0.075959
0.463859 0.368002 0.064927
0.545785 0.377310 0.056657
0.626291 0.381338 0.057984
0.700679 0.383291 0.058808
0.777966 0.384070 0.058274
0.852644 0.385550 0.058167
0.922438 0.388006 0.058763
0.962493 0.391531 0.060151
1.000000 0.397482 0.063966
0.000000 0.393622 0.098650
0.037491 0.400366 0.099611
0.074998 0.407385 0.100603
0.112490 0.414572 0.102007
0.149996 0.422110 0.105028
0.202396 0.429343 0.099535
0.280812 0.434928 0.082170
0.383352 0.433799 0.079927
0.486854 0.435248 0.090532
0.564630 0.447318 0.079484
0.632120 0.457618 0.068437
0.701640 0.462806 0.063676
0.778561 0.464805 0.061448
0.854368 0.466621 0.061357
0.923445 0.469413 0.062226
0.962493 0.473030 0.063706
1.000000 0.478859 0.067430
0.000000 0.464134 0.108583
0.037491 0.471397 0.109773
0.074998 0.478843 0.111498
0.112490 0.486412 0.113909
0.149996 0.494377 0.118059
0.200946 0.502571 0.113909
0.278386 0.510369 0.097963
0.380087 0.512795 0.086854
0.491844 0.513085 0.098711
0.591959 0.517113 0.108476
0.663676 0.526162 0.101915
0.721187 0.536309 0.087388
0.787198 0.542916 0.075273
0.856794 0.547692 0.068528
0.923506 0.551415 0.066072
0.962493 0.555047 0.066239
1.000000 0.560327 0.068910
0.000000 0.536141 0.121157
0.037491 0.543511 0.123049
0.074998 0.551400 0.125383
0.112490 0.559579 0.128191
0.149996 0.568139 0.132753
0.201617 0.577295 0.129290
0.279469 0.586923 0.115038
0.378180 0.593133 0.100282
0.496605 0.594141 0.106371
0.600870 0.596597 0.120287
0.687297 0.599222 0.127230
0.757122 0.603250 0.124361
0.816480 0.612558 0.106981
0.874846 0.621027 0.090928
0.925002 0.627039 0.081834
0.962493 0.632441 0.076494
1.000000 0.638743 0.075959
0.000000 0.608911 0.135958
0.037491 0.616968 0.138170
0.074998 0.625422 0.140719
0.112490 0.634272 0.143908
0.149996 0.643366 0.148714
0.204761 0.652735 0.145525
0.282322 0.662882 0.131960
0.378225 0.671092 0.115740
0.497780 0.673564 0.114015
0.606256 0.674250 0.127291
0.693233 0.674952 0.135866
0.771237 0.675593 0.140444
0.846922 0.678386 0.139315
0.887495 0.685908 0.126696
0.925002 0.695369 0.111131
0.962493 0.703456 0.100206
1.000000 0.710887 0.096803
0.000000 0.683436 0.151934
0.037491 0.691661 0.154253
0.074998 0.700191 0.156863
0.112490 0.708736 0.159854
0.149996 0.717388 0.164340
0.207782 0.726329 0.160540
0.284306 0.735851 0.146471
0.376822 0.744015 0.128634
0.493874 0.747280 0.119829
0.606516 0.747311 0.129610
0.696620 0.747707 0.140246
0.776043 0.748684 0.147402
0.849897 0.749569 0.152697
0.887495 0.752255 0.153307
0.925002 0.758389 0.146044
0.962493 0.767086 0.134173
1.000000 0.775830 0.126787
0.000000 0.756848 0.168063
0.037491 0.764797 0.170062
0.074998 0.772976 0.172305
0.112490 0.781079 0.174990
0.150591 0.789105 0.178820
0.210910 0.797696 0.173999
0.287190 0.806912 0.159625
0.378424 0.815396 0.141192
0.493034 0.819715 0.128206
0.607034 0.819745 0.133455
0.699901 0.819837 0.144091
0.781201 0.820462 0.152972
0.850004 0.821469 0.160418
0.887495 0.822477 0.165316
0.925002 0.824979 0.166979
0.962493 0.829847 0.163684
1.000000 0.836866 0.159442
0.000000 0.828092 0.183398
0.037491 0.835721 0.185016
0.074998 0.843488 0.187015
0.112490 0.851499 0.189532
0.153735 0.859541 0.193256
0.216739 0.868132 0.187396
0.293339 0.877348 0.172885
0.384192 0.885786 0.153933
0.496605 0.890623 0.138476
0.609277 0.890776 0.139681
0.702922 0.890272 0.148516
0.786694 0.890471 0.158114
0.850004 0.891051 0.167117
0.887495 0.891844 0.173251
0.925002 0.892958 0.177676
0.962493 0.895155 0.179889
1.000000 0.899626 0.180606
0.000000 0.897597 0.198566
0.037491 0.905303 0.200183
0.074998 0.913146 0.202014
0.112535 0.920989 0.204944
0.160952 0.928893 0.207996
0.225467 0.937407 0.200900
0.302251 0.946303 0.185901
0.393271 0.954513 0.166415
0.503883 0.959289 0.149660
0.613199 0.959411 0.147616
0.706218 0.958633 0.154162
0.792401 0.958099 0.163485
0.850004 0.958083 0.173205
0.887495 0.958511 0.180453
0.925002 0.959243 0.185473
0.962493 0.960327 0.189441
1.000000 0.962295 0.192782
0.000000 0.964340 0.215854
0.037491 0.972015 0.217288
0.077134 0.979675 0.218982
0.126207 0.987274 0.222080
0.177218 0.994842 0.224201
0.243030 0.999435 0.215824
0.319921 1.000000 0.200504
0.412207 1.000000 0.180346
0.519936 1.000000 0.163760
0.623346 1.000000 0.160128
0.713741 1.000000 0.164477
0.802396 1.000000 0.173098
0.850004 1.000000 0.182452
0.887495 1.000000 0.189822
0.925002 1.000000 0.195148
0.962493 1.000000 0.199176
1.000000 1.000000 0.203113
0.005570 0.010590 0.088075
0.044740 0.012344 0.089983
0.084169 0.013916 0.091722
0.123354 0.015320 0.093431
0.163973 0.016449 0.095186
0.210513 0.016510 0.097444
0.259510 0.016434 0.097642
0.313817 0.015579 0.097353
0.373999 0.013901 0.096269
0.434745 0.011582 0.094316
0.489693 0.009186 0.091890
0.540993 0.006790 0.089342
0.593637 0.004334 0.086732
0.645960 0.001755 0.083986
0.697215 0.000000 0.081422
0.747677 0.000000 0.079042
0.794827 0.000000 0.077638
0.007492 0.053117 0.094591
0.046860 0.054673 0.095994
0.086488 0.056092 0.097124
0.125826 0.057420 0.098314
0.166140 0.058595 0.099306
0.213718 0.058274 0.100954
0.264332 0.057633 0.100313
0.319036 0.056489 0.099184
0.380926 0.054673 0.097459
0.442588 0.051911 0.094682
0.496925 0.048920 0.091432
0.546639 0.046067 0.088258
0.596185 0.043351 0.085252
0.651011 0.040772 0.082460
0.707378 0.038331 0.079881
0.765637 0.037491 0.077333
0.825116 0.037491 0.075456
0.008927 0.095399 0.100786
0.048585 0.096788 0.101884
0.088548 0.098085 0.102693
0.128206 0.099275 0.103441
0.168460 0.100404 0.103822
0.216327 0.099901 0.103426
0.267796 0.098207 0.101488
0.321187 0.096315 0.099184
0.381109 0.093797 0.096437
0.444053 0.091051 0.093385
0.501839 0.088273 0.090303
0.556497 0.085695 0.087434
0.613108 0.083330 0.084779
0.679728 0.081102 0.082200
0.748501 0.078523 0.079225
0.820645 0.075654 0.075837
0.891203 0.074998 0.074998
0.010147 0.137545 0.106584
0.050111 0.138827 0.107393
0.090059 0.139635 0.107500
0.129503 0.139879 0.107042
0.169116 0.140078 0.106462
0.215991 0.139223 0.103258
0.268482 0.137438 0.101167
0.323522 0.136065 0.099306
0.387366 0.134157 0.096879
0.457740 0.132311 0.094469
0.525322 0.130694 0.092088
0.590890 0.129137 0.089921
0.661494 0.127474 0.087511
0.738079 0.124910 0.084016
0.815686 0.122271 0.080400
0.892180 0.120134 0.077302
0.962890 0.119631 0.075975
0.010223 0.178073 0.110018
0.050004 0.178363 0.109499
0.089784 0.178744 0.109056
0.129534 0.179400 0.109026
0.169680 0.180499 0.109483
0.218021 0.181048 0.105623
0.275776 0.180514 0.104295
0.338003 0.180423 0.103685
0.413413 0.180026 0.102281
0.494270 0.179721 0.100938
0.570260 0.179339 0.099413
0.642573 0.178531 0.097490
0.720668 0.176211 0.094560
0.798962 0.173846 0.091066
0.875196 0.172198 0.088289
0.948775 0.171664 0.086717
1.000000 0.173602 0.087755
0.005936 0.218723 0.111208
0.046296 0.220096 0.111574
0.086748 0.222232 0.112566
0.127535 0.225422 0.114534
0.168673 0.229129 0.116945
0.218799 0.232898 0.113054
0.284932 0.233753 0.105760
0.357061 0.234821 0.105440
0.443336 0.236103 0.104646
0.530282 0.237308 0.104036
0.608469 0.237568 0.102922
0.681880 0.236591 0.100664
0.760067 0.234974 0.097383
0.836240 0.234485 0.095140
0.908598 0.235492 0.094438
0.962493 0.238148 0.095308
1.000000 0.243214 0.098634
0.000015 0.267185 0.117647
0.038834 0.271641 0.119905
0.080674 0.276722 0.122332
0.123125 0.282277 0.124926
0.165545 0.288380 0.128252
0.217060 0.293965 0.123247
0.293477 0.294209 0.112001
0.367163 0.297063 0.105425
0.455070 0.301350 0.099916
0.546105 0.304356 0.100771
0.625696 0.306340 0.101488
0.698909 0.307027 0.101213
0.775250 0.307424 0.100435
0.849180 0.308690 0.100252
0.920348 0.311086 0.100862
0.962493 0.314366 0.102174
1.000000 0.319966 0.105806
0.000000 0.327840 0.130205
0.037491 0.334371 0.132448
0.074998 0.340810 0.134371
0.113283 0.347219 0.136156
0.155947 0.353857 0.139010
0.210590 0.359976 0.133333
0.286839 0.363195 0.115541
0.382895 0.360906 0.119036
0.463890 0.370169 0.107729
0.547631 0.379004 0.101549
0.628305 0.383154 0.103716
0.703441 0.385565 0.105089
0.780850 0.386404 0.104646
0.855482 0.387839 0.104524
0.923583 0.390372 0.105180
0.962493 0.393942 0.106615
1.000000 0.400015 0.110582
0.000000 0.395346 0.142138
0.037491 0.402075 0.143404
0.074998 0.408927 0.144594
0.112490 0.416083 0.146181
0.149996 0.423514 0.149676
0.204471 0.430625 0.144945
0.281056 0.436652 0.127749
0.383261 0.435889 0.123247
0.487129 0.437201 0.133745
0.564141 0.449729 0.122423
0.632731 0.459861 0.112703
0.704067 0.465415 0.109270
0.781781 0.467262 0.107790
0.857649 0.469215 0.107927
0.924865 0.471885 0.108705
0.962493 0.475532 0.110277
1.000000 0.481315 0.113939
0.000000 0.465797 0.152834
0.037491 0.472923 0.154238
0.074998 0.480247 0.156191
0.112490 0.487785 0.158587
0.149996 0.495689 0.162951
0.203082 0.503868 0.159304
0.279271 0.511971 0.143801
0.379507 0.515007 0.130785
0.492287 0.515282 0.142184
0.592035 0.519417 0.152071
0.663432 0.529076 0.145602
0.721935 0.539651 0.131640
0.789059 0.546181 0.120333
0.859190 0.550607 0.113985
0.924849 0.554025 0.112108
0.962493 0.557473 0.112413
1.000000 0.562722 0.115129
0.000000 0.537652 0.165850
0.037491 0.545068 0.167926
0.074998 0.552850 0.170291
0.112490 0.561013 0.173007
0.149996 0.569604 0.177737
0.203891 0.578744 0.174807
0.280812 0.588617 0.161028
0.377920 0.595468 0.145235
0.496925 0.596658 0.150011
0.601144 0.599252 0.164157
0.687419 0.602152 0.171389
0.757900 0.606760 0.168734
0.816938 0.616053 0.150927
0.875837 0.624231 0.135225
0.925002 0.630076 0.126604
0.962493 0.635325 0.121386
1.000000 0.641611 0.121324
0.000000 0.610498 0.180819
0.037491 0.618570 0.183154
0.074998 0.627176 0.185931
0.112490 0.635889 0.188907
0.149996 0.644938 0.193957
0.207095 0.654231 0.191104
0.283925 0.664561 0.177981
0.378332 0.673365 0.161349
0.497887 0.676249 0.158068
0.606561 0.677104 0.171237
0.693462 0.677974 0.180117
0.771939 0.678752 0.184894
0.847547 0.681605 0.183581
0.887495 0.689372 0.170596
0.925002 0.698711 0.154940
0.962493 0.706706 0.144472
1.000000 0.713878 0.141268
0.000000 0.685100 0.196963
0.037491 0.693202 0.199313
0.074998 0.701686 0.201968
0.112490 0.710262 0.204883
0.150607 0.718715 0.209491
0.209964 0.727657 0.206012
0.285725 0.737194 0.192279
0.377066 0.745937 0.174365
0.493721 0.749920 0.164309
0.606317 0.750195 0.173480
0.696590 0.750683 0.184283
0.776562 0.751690 0.191684
0.849989 0.752697 0.197131
0.887495 0.755322 0.197574
0.925002 0.761654 0.190005
0.962493 0.770382 0.177844
1.000000 0.779049 0.170459
0.000000 0.758328 0.213031
0.037491 0.766293 0.215122
0.074998 0.774258 0.217212
0.112490 0.782315 0.219821
0.151980 0.790326 0.223911
0.212879 0.798886 0.219409
0.288685 0.808316 0.205478
0.378759 0.817182 0.187015
0.492668 0.822187 0.173007
0.606424 0.822538 0.177356
0.699351 0.822629 0.187839
0.781415 0.823377 0.197040
0.850004 0.824369 0.204654
0.887495 0.825422 0.209644
0.925002 0.827878 0.211200
0.962493 0.832822 0.207736
1.000000 0.839857 0.203128
0.000000 0.829328 0.228244
0.037491 0.836973 0.229908
0.074998 0.844800 0.231876
0.112490 0.852689 0.234562
0.156024 0.860746 0.238376
0.218662 0.869291 0.232853
0.294743 0.878614 0.218677
0.384588 0.887495 0.199832
0.495979 0.892912 0.183490
0.608133 0.893370 0.183627
0.701946 0.892989 0.192172
0.786526 0.893141 0.201938
0.850004 0.893767 0.211124
0.887495 0.894530 0.217350
0.925002 0.895659 0.221790
0.962493 0.897856 0.223972
1.000000 0.902235 0.224475
0.000000 0.898848 0.243473
0.037491 0.906508 0.244953
0.074998 0.914321 0.246998
0.113161 0.922164 0.250004
0.163134 0.929976 0.253086
0.227237 0.938460 0.246326
0.303517 0.947524 0.231739
0.393423 0.956008 0.212253
0.502861 0.961532 0.194690
0.611597 0.961868 0.191638
0.704753 0.961059 0.197696
0.791867 0.960601 0.207095
0.850004 0.960632 0.216999
0.887495 0.960983 0.224308
0.925002 0.961685 0.229389
0.962493 0.961944 0.233371
1.000000 0.962219 0.236622
0.000000 0.965530 0.260761
0.037491 0.973114 0.262226
0.079011 0.980743 0.263981
0.128359 0.988220 0.267002
0.179187 0.995758 0.269245
0.244511 0.999771 0.261204
0.320806 1.000000 0.246204
0.411994 1.000000 0.226047
0.518334 1.000000 0.208743
0.621210 1.000000 0.204089
0.711864 1.000000 0.207843
0.801434 1.000000 0.216403
0.850004 1.000000 0.225864
0.887495 1.000000 0.233371
0.925002 1.000000 0.238773
0.962493 1.000000 0.242802
1.000000 1.000000 0.246677
0.005631 0.011185 0.126436
0.044770 0.012894 0.128359
0.084154 0.014420 0.130175
0.123323 0.015824 0.131975
0.163897 0.016938 0.133806
0.210513 0.016983 0.136355
0.259785 0.016770 0.136629
0.314336 0.015824 0.136492
0.374807 0.014054 0.135561
0.435462 0.011658 0.133639
0.490745 0.009216 0.131395
0.542062 0.006775 0.128847
0.593637 0.004211 0.126131
0.645945 0.001633 0.123400
0.697353 0.000000 0.120836
0.748043 0.000000 0.118456
0.795941 0.000000 0.117067
0.007401 0.053666 0.132967
0.046708 0.055207 0.134386
0.086229 0.056626 0.135622
