luts/Blue_Velvet.CUBE
# kravix mobile - LUTs Pack
LUT_3D_SIZE 17
0.000000 0.000000 0.000000
0.036316 0.000000 0.000336
0.086670 0.000000 0.000092
0.140869 0.000000 0.000732
0.200348 0.000000 0.000824
0.266449 0.000000 0.000702
0.337982 0.000000 0.000763
0.413483 0.000000 0.000305
0.491058 0.000000 0.000000
0.569244 0.000000 0.000000
0.646912 0.000000 0.000000
0.723328 0.000000 0.000000
0.798157 0.000000 0.000000
0.870667 0.000000 0.000000
0.940399 0.000000 0.000000
0.999329 0.000000 0.000000
1.000000 0.000000 0.000000
0.003876 0.029968 0.001190
0.040833 0.029602 0.001160
0.090149 0.028412 0.001190
0.144043 0.024597 0.001434
0.203888 0.016113 0.001556
0.269897 0.002289 0.001526
0.341248 0.000000 0.001404
0.416473 0.000000 0.000580
0.493683 0.000000 0.000000
0.571533 0.000000 0.000000
0.648743 0.000000 0.000000
0.724854 0.000000 0.000000
0.799347 0.000000 0.000000
0.871613 0.000000 0.000000
0.941010 0.000000 0.000000
0.999359 0.000000 0.000000
1.000000 0.000000 0.000000
0.010498 0.074677 0.003387
0.047546 0.075134 0.003082
0.095001 0.074677 0.003052
0.149292 0.072510 0.002716
0.209412 0.066925 0.002655
0.275726 0.055389 0.002411
0.346832 0.032593 0.001984
0.421509 0.004517 0.001068
0.498077 0.000000 0.000061
0.575226 0.000000 0.000000
0.651794 0.000000 0.000000
0.727356 0.000000 0.000000
0.801239 0.000000 0.000000
0.872986 0.000000 0.000000
0.941925 0.000000 0.000000
0.999420 0.000000 0.000000
1.000000 0.000000 0.000000
0.020660 0.123749 0.006042
0.057617 0.124176 0.005646
0.103668 0.124268 0.004944
0.157349 0.123413 0.004639
0.217621 0.120605 0.004425
0.283752 0.114716 0.003510
0.354553 0.104370 0.002441
0.428711 0.087372 0.000824
0.504425 0.059967 0.000000
0.580566 0.023773 0.000000
0.656219 0.002136 0.000000
0.730835 0.000000 0.000000
0.803894 0.000000 0.000000
0.874878 0.000000 0.000000
0.943115 0.000000 0.000000
0.999451 0.000000 0.000000
1.000000 0.000000 0.000000
0.029755 0.178528 0.007751
0.067108 0.179138 0.007263
0.112579 0.179871 0.006042
0.166870 0.179932 0.004852
0.227264 0.178833 0.004242
0.293091 0.176300 0.002808
0.363220 0.171753 0.000946
0.436340 0.164673 0.000122
0.511108 0.154816 0.000000
0.586182 0.142639 0.000000
0.660828 0.127899 0.000000
0.734497 0.110229 0.000000
0.806671 0.092041 0.000000
0.876801 0.082428 0.000000
0.944275 0.077271 0.000000
0.999481 0.078491 0.000000
1.000000 0.088318 0.000000
0.026794 0.243317 0.005402
0.068939 0.243896 0.004425
0.117126 0.245087 0.002655
0.173309 0.246216 0.001038
0.234985 0.246674 0.000610
0.300995 0.246460 0.000275
0.370575 0.245331 0.000000
0.442871 0.243073 0.000000
0.516479 0.239899 0.000000
0.590424 0.235870 0.000000
0.664032 0.231384 0.000000
0.736755 0.226837 0.000000
0.808167 0.222809 0.000000
0.877502 0.220184 0.000000
0.944275 0.219818 0.000000
0.999481 0.222809 0.000000
1.000000 0.230164 0.000000
0.004028 0.318420 0.000092
0.051270 0.318817 0.000000
0.110809 0.320007 0.000000
0.172546 0.321747 0.000000
0.237488 0.323303 0.000000
0.305450 0.324158 0.000000
0.375427 0.324493 0.000000
0.447388 0.324371 0.000000
0.520325 0.323822 0.000000
0.593414 0.322815 0.000000
0.666229 0.321625 0.000000
0.738159 0.320374 0.000000
0.808746 0.319489 0.000000
0.877289 0.319336 0.000000
0.943298 0.320526 0.000000
0.999359 0.323883 0.000000
1.000000 0.329987 0.000000
0.000000 0.398163 0.000000
0.011688 0.398438 0.000000
0.095428 0.399078 0.000000
0.166870 0.400879 0.000000
0.236420 0.402771 0.000000
0.306946 0.404358 0.000000
0.378448 0.405304 0.000000
0.450623 0.405731 0.000000
0.523163 0.406067 0.000000
0.595673 0.406189 0.000000
0.667786 0.406128 0.000000
0.739075 0.406067 0.000000
0.808838 0.406250 0.000000
0.876617 0.407043 0.000000
0.941742 0.408783 0.000000
0.999237 0.412079 0.000000
1.000000 0.417419 0.000000
0.000000 0.477509 0.000000
0.000000 0.477753 0.000000
0.076660 0.478088 0.000000
0.160980 0.479462 0.000000
0.235168 0.481384 0.000000
0.308014 0.483154 0.000000
0.380737 0.484528 0.000000
0.453491 0.485382 0.000000
0.525696 0.485840 0.000000
0.597687 0.486267 0.000000
0.669159 0.486725 0.000000
0.739655 0.487183 0.000000
0.808624 0.487854 0.000000
0.875488 0.489014 0.000000
0.939636 0.490875 0.000000
0.998383 0.493927 0.000000
1.000000 0.498596 0.000000
0.000000 0.555054 0.000000
0.000000 0.555206 0.000000
0.064056 0.555481 0.000000
0.159180 0.556366 0.000000
0.236206 0.558167 0.000000
0.310272 0.559937 0.000000
0.383453 0.561462 0.000000
0.456207 0.562622 0.000000
0.528473 0.563293 0.000000
0.599884 0.563721 0.000000
0.670563 0.564209 0.000000
0.740204 0.564819 0.000000
0.808228 0.565643 0.000000
0.874084 0.566833 0.000000
0.937134 0.568634 0.000000
0.995148 0.571320 0.000000
1.000000 0.575287 0.000000
0.000000 0.630157 0.000000
0.000000 0.630249 0.000000
0.069183 0.630432 0.000000
0.164581 0.631073 0.000000
0.241516 0.632660 0.000000
0.315216 0.634277 0.000000
0.387848 0.635803 0.000000
0.460022 0.636993 0.000000
0.531830 0.637878 0.000000
0.602783 0.638397 0.000000
0.672577 0.638672 0.000000
0.741150 0.639130 0.000000
0.808044 0.639862 0.000000
0.872681 0.640869 0.000000
0.934509 0.642395 0.000000
0.991547 0.644684 0.000000
1.000000 0.647888 0.000000
0.000000 0.701996 0.000000
0.006104 0.702057 0.000000
0.097137 0.702148 0.000000
0.180176 0.702728 0.000000
0.253265 0.704102 0.000000
0.324646 0.705505 0.000000
0.395691 0.706848 0.000000
0.466522 0.707977 0.000000
0.537079 0.708832 0.000000
0.607025 0.709351 0.000000
0.675842 0.709625 0.000000
0.743134 0.709717 0.000000
0.808655 0.710114 0.000000
0.871826 0.710815 0.000000
0.932129 0.712006 0.000000
0.988007 0.713745 0.000000
1.000000 0.716125 0.000000
0.015778 0.769714 0.000000
0.076355 0.769714 0.000000
0.142853 0.769775 0.000000
0.207855 0.770508 0.000000
0.273651 0.771606 0.000000
0.340881 0.772766 0.000000
0.408783 0.773834 0.000000
0.477203 0.774750 0.000000
0.545685 0.775421 0.000000
0.613861 0.775848 0.000000
0.681091 0.776001 0.000000
0.746887 0.775909 0.000000
0.810699 0.775848 0.000000
0.872101 0.776123 0.000000
0.930664 0.776733 0.000000
0.985138 0.777863 0.000000
1.000000 0.779480 0.000000
0.128418 0.832275 0.000000
0.157715 0.832306 0.000000
0.197571 0.832672 0.000000
0.247833 0.833374 0.000000
0.304688 0.834198 0.000000
0.365570 0.835022 0.000000
0.428955 0.835785 0.000000
0.493713 0.836395 0.000000
0.559204 0.836792 0.000000
0.624725 0.836945 0.000000
0.689636 0.836884 0.000000
0.753296 0.836609 0.000000
0.815063 0.836212 0.000000
0.874329 0.835907 0.000000
0.930756 0.836029 0.000000
0.983704 0.836548 0.000000
1.000000 0.837372 0.000000
0.212982 0.889648 0.000885
0.230865 0.889832 0.000702
0.258698 0.890137 0.000336
0.298096 0.890564 0.000000
0.345947 0.891083 0.000000
0.399567 0.891602 0.000000
0.457062 0.892059 0.000000
0.517090 0.892365 0.000000
0.578491 0.892487 0.000000
0.640442 0.892395 0.000000
0.702209 0.892120 0.000000
0.762939 0.891663 0.000000
0.821960 0.891083 0.000000
0.878662 0.890564 0.000000
0.932709 0.890289 0.000000
0.983826 0.890350 0.000305
1.000000 0.890656 0.001617
0.288147 0.942230 0.046692
0.300964 0.942352 0.045258
0.322205 0.942505 0.042450
0.353516 0.942749 0.038513
0.393402 0.943085 0.033569
0.439972 0.943329 0.027588
0.491180 0.943542 0.021362
0.545746 0.943665 0.016205
0.602356 0.943604 0.011505
0.660034 0.943359 0.008392
0.717926 0.942963 0.007355
0.775085 0.942413 0.008850
0.830750 0.941864 0.013458
0.884460 0.941284 0.021637
0.936066 0.940857 0.033081
0.985260 0.940674 0.046814
1.000000 0.940704 0.060944
0.356720 0.991394 0.105865
0.366638 0.991425 0.105469
0.383423 0.991547 0.104340
0.409027 0.991699 0.102753
0.442474 0.991852 0.100922
0.482605 0.991974 0.098450
0.527863 0.992035 0.096161
0.576965 0.991974 0.093964
0.628571 0.991791 0.092102
0.681610 0.991516 0.091125
0.735138 0.991119 0.091248
0.788269 0.990631 0.092621
0.840302 0.990173 0.095673
0.890930 0.989746 0.100098
0.940216 0.989380 0.106354
0.987457 0.989136 0.113617
1.000000 0.989075 0.121552
0.000000 0.000000 0.037018
0.037018 0.000000 0.037842
0.087341 0.000000 0.038208
0.141571 0.000000 0.038574
0.201324 0.000000 0.039215
0.267700 0.000000 0.039673
0.339233 0.000000 0.039856
0.414673 0.000000 0.039948
0.492096 0.000000 0.039551
0.570221 0.000000 0.038879
0.647705 0.000000 0.037354
0.724030 0.000000 0.035583
0.798767 0.000000 0.032684
0.871185 0.000000 0.028412
0.940826 0.000000 0.022797
0.999359 0.000000 0.016235
1.000000 0.000000 0.008148
0.003845 0.030365 0.038574
0.040924 0.029938 0.039337
0.090759 0.028076 0.039368
0.144928 0.024261 0.040039
0.204956 0.015717 0.040222
0.271179 0.002136 0.040680
0.342499 0.000000 0.040649
0.417603 0.000000 0.040710
0.494690 0.000000 0.040222
0.572449 0.000000 0.039276
0.649567 0.000000 0.037811
0.725555 0.000000 0.035461
0.799927 0.000000 0.031891
0.872070 0.000000 0.027222
0.941406 0.000000 0.021484
0.999390 0.000000 0.013977
1.000000 0.000000 0.005859
0.011505 0.075195 0.041504
0.047974 0.075378 0.041870
0.096191 0.074890 0.041565
0.150391 0.072266 0.041595
0.210815 0.066589 0.042053
0.277039 0.054474 0.042175
0.348022 0.031708 0.041962
0.422577 0.004181 0.041931
0.499084 0.000000 0.041077
0.576080 0.000000 0.039795
0.652588 0.000000 0.037598
0.728027 0.000000 0.034637
0.801849 0.000000 0.030548
0.873474 0.000000 0.024902
0.942322 0.000000 0.018158
0.999420 0.000000 0.009888
1.000000 0.000000 0.001892
0.021606 0.124115 0.045380
0.058838 0.124359 0.045410
0.104492 0.124512 0.045013
0.158630 0.123444 0.044495
0.219177 0.120453 0.044159
0.285370 0.114288 0.043976
0.356018 0.103882 0.043396
0.429901 0.086792 0.042480
0.505371 0.059387 0.041138
0.581421 0.023132 0.039093
0.656921 0.002045 0.035889
0.731415 0.000000 0.031616
0.804443 0.000000 0.026001
0.875305 0.000000 0.019257
0.943512 0.000000 0.011627
0.999481 0.000000 0.003235
1.000000 0.000000 0.000580
0.031616 0.178864 0.048615
0.069336 0.179169 0.048615
0.114136 0.179932 0.047546
0.168182 0.179993 0.046783
0.228546 0.178986 0.045929
0.294464 0.176392 0.044830
0.364655 0.171631 0.043243
0.437653 0.164429 0.041138
0.512177 0.154602 0.038391
0.587128 0.142273 0.034698
0.661591 0.127533 0.029633
0.735107 0.110046 0.023682
0.807190 0.091919 0.016876
0.877197 0.082489 0.009155
0.944641 0.077179 0.002136
0.999512 0.078644 0.000427
1.000000 0.088593 0.000031
0.029205 0.243774 0.048737
0.071259 0.244171 0.048431
0.118774 0.245239 0.047058
0.174591 0.246399 0.044678
0.236145 0.246857 0.042969
0.302185 0.246582 0.041199
0.371796 0.245422 0.038300
0.444000 0.243103 0.034668
0.517426 0.239838 0.030182
0.591217 0.235901 0.025085
0.664673 0.231384 0.018890
0.737305 0.226868 0.011993
0.808594 0.222931 0.004913
0.877869 0.220276 0.001160
0.944550 0.219879 0.000183
0.999481 0.222900 0.000000
1.000000 0.230347 0.000000
0.004944 0.318848 0.040985
0.054016 0.319214 0.041138
0.112946 0.320343 0.039246
0.174072 0.322021 0.035248
0.238708 0.323517 0.030884
0.306702 0.324310 0.027924
0.376465 0.324615 0.025116
0.448334 0.324554 0.020752
0.521118 0.323944 0.015564
0.594147 0.322937 0.009735
0.666779 0.321686 0.004608
0.738678 0.320465 0.001556
0.809143 0.319580 0.000244
0.877655 0.319397 0.000061
0.943573 0.320679 0.000000
0.999390 0.323975 0.000000
1.000000 0.330139 0.000000
0.000000 0.398529 0.025482
0.015076 0.398773 0.025635
0.097839 0.399475 0.024963
0.168518 0.401215 0.020264
0.237610 0.403046 0.014374
0.307983 0.404541 0.008911
0.379456 0.405457 0.005829
0.451447 0.405853 0.004303
0.523834 0.406189 0.002136
0.596283 0.406281 0.000427
0.668335 0.406219 0.000153
0.739502 0.406189 0.000000
0.809265 0.406372 0.000000
0.876923 0.407135 0.000000
0.941986 0.408905 0.000000
0.999268 0.412201 0.000000
1.000000 0.417542 0.000000
0.000000 0.477844 0.007599
0.000092 0.478027 0.007721
0.079895 0.478424 0.007874
0.162811 0.479797 0.004700
0.236389 0.481659 0.001709
0.308960 0.483368 0.000305
0.381622 0.484741 0.000153
0.454193 0.485504 0.000031
0.526306 0.485931 0.000000
0.598236 0.486389 0.000000
0.669617 0.486847 0.000000
0.740051 0.487305 0.000000
0.808929 0.487976 0.000000
0.875732 0.489105 0.000000
0.939850 0.490997 0.000000
0.998474 0.494080 0.000000
1.000000 0.498718 0.000000
0.000000 0.555359 0.000580
0.000000 0.555511 0.000580
0.067383 0.555756 0.000610
0.160797 0.556671 0.000336
0.237274 0.558441 0.000061
0.311218 0.560150 0.000000
0.384155 0.561646 0.000000
0.456818 0.562775 0.000000
0.529022 0.563446 0.000000
0.600342 0.563843 0.000000
0.670990 0.564331 0.000000
0.740540 0.564941 0.000000
0.808472 0.565765 0.000000
0.874268 0.566925 0.000000
0.937286 0.568726 0.000000
0.995209 0.571472 0.000000
1.000000 0.575409 0.000000
0.000000 0.630402 0.000000
0.000000 0.630524 0.000000
0.072205 0.630676 0.000031
0.165985 0.631348 0.000000
0.242493 0.632904 0.000000
0.316071 0.634491 0.000000
0.388489 0.635956 0.000000
0.460663 0.637146 0.000000
0.532288 0.638031 0.000000
0.603210 0.638489 0.000000
0.672913 0.638794 0.000000
0.741394 0.639282 0.000000
0.808258 0.639954 0.000000
0.872833 0.640991 0.000000
0.934570 0.642517 0.000000
0.991547 0.644775 0.000000
1.000000 0.648010 0.000000
0.000000 0.702209 0.000000
0.007690 0.702240 0.000000
0.099670 0.702362 0.000000
0.181488 0.702972 0.000000
0.254120 0.704315 0.000000
0.325439 0.705688 0.000000
0.396271 0.707001 0.000000
0.467010 0.708130 0.000000
0.537476 0.708954 0.000000
0.607330 0.709442 0.000000
0.676117 0.709717 0.000000
0.743317 0.709839 0.000000
0.808777 0.710236 0.000000
0.871918 0.710938 0.000000
0.932159 0.712097 0.000000
0.987976 0.713837 0.000000
1.000000 0.716217 0.000000
0.018921 0.769897 0.000427
0.079163 0.769928 0.000458
0.144287 0.769989 0.000488
0.208893 0.770691 0.000122
0.274475 0.771790 0.000000
0.341431 0.772919 0.000000
0.409302 0.773987 0.000000
0.477631 0.774872 0.000000
0.546021 0.775543 0.000000
0.614075 0.775940 0.000000
0.681305 0.776062 0.000000
0.747040 0.776001 0.000000
0.810791 0.775940 0.000000
0.872192 0.776184 0.000000
0.930664 0.776825 0.000000
0.985107 0.777985 0.000000
1.000000 0.779572 0.000000
0.130157 0.832458 0.010742
0.159058 0.832489 0.010803
0.198486 0.832855 0.007660
0.248596 0.833557 0.004211
0.305267 0.834351 0.002411
0.366119 0.835175 0.000702
0.429352 0.835907 0.000244
0.494080 0.836517 0.000122
0.559479 0.836914 0.000031
0.624908 0.837067 0.000000
0.689758 0.837006 0.000000
0.753387 0.836700 0.000000
0.815094 0.836304 0.000061
0.874329 0.836029 0.000183
0.930725 0.836121 0.000244
0.983643 0.836639 0.000671
1.000000 0.837463 0.002899
0.213989 0.889771 0.053375
0.231415 0.889984 0.051788
0.259399 0.890259 0.048645
0.298676 0.890686 0.044373
0.346344 0.891205 0.038086
0.399963 0.891724 0.031555
0.457397 0.892151 0.024567
0.517365 0.892456 0.018158
0.578705 0.892578 0.012817
0.640625 0.892487 0.009094
0.702271 0.892212 0.007294
0.762970 0.891724 0.007904
0.821960 0.891174 0.011597
0.878601 0.890656 0.019012
0.932587 0.890381 0.027679
0.983734 0.890411 0.037537
1.000000 0.890747 0.050690
0.288757 0.942322 0.098083
0.301453 0.942444 0.097229
0.322540 0.942657 0.095734
0.353943 0.942871 0.093506
0.393768 0.943176 0.090881
0.440216 0.943451 0.087524
0.491394 0.943634 0.084045
0.545898 0.943726 0.080536
0.602478 0.943665 0.077545
0.660126 0.943420 0.075439
0.717926 0.943024 0.074554
0.775055 0.942505 0.075684
0.830750 0.941895 0.078979
0.884369 0.941376 0.084503
0.935974 0.940948 0.091675
0.985107 0.940765 0.099182
1.000000 0.940796 0.107452
0.357025 0.991455 0.138885
0.366852 0.991547 0.138336
0.383698 0.991638 0.137787
0.409302 0.991760 0.136383
0.442688 0.991913 0.135040
0.482819 0.992035 0.133392
0.528015 0.992065 0.131592
0.577087 0.992035 0.130035
0.628601 0.991852 0.128662
0.681610 0.991577 0.128052
0.735107 0.991180 0.128204
0.788208 0.990662 0.129395
0.840179 0.990204 0.131683
0.890839 0.989777 0.135040
0.940063 0.989441 0.139648
0.987244 0.989227 0.145325
1.000000 0.989166 0.151672
0.000000 0.000000 0.088623
0.035797 0.000000 0.089264
0.086945 0.000000 0.090302
0.142120 0.000000 0.091064
0.202576 0.000000 0.091675
0.269165 0.000000 0.092407
0.340881 0.000000 0.093018
0.416290 0.000000 0.093628
0.493591 0.000000 0.094086
0.571503 0.000000 0.094330
0.648834 0.000000 0.094604
0.725037 0.000000 0.094452
0.799561 0.000000 0.094177
0.871857 0.000000 0.093201
0.941315 0.000000 0.091583
0.999390 0.000000 0.089081
1.000000 0.000000 0.085876
0.002411 0.030762 0.090149
0.040802 0.030670 0.090576
0.090546 0.028107 0.091553
0.145752 0.023926 0.092194
0.206116 0.015259 0.092926
0.272614 0.001923 0.093414
0.344116 0.000000 0.093994
0.419128 0.000000 0.094452
0.496185 0.000000 0.094757
0.573700 0.000000 0.095093
0.650696 0.000000 0.095123
0.726501 0.000000 0.094879
0.800720 0.000000 0.094299
0.872742 0.000000 0.093018
0.941925 0.000000 0.091095
0.999420 0.000000 0.088257
1.000000 0.000000 0.084930
0.009705 0.076141 0.092529
0.048462 0.075745 0.092957
0.096649 0.074738 0.093750
0.151611 0.071838 0.094299
0.212341 0.066040 0.094421
0.278595 0.053833 0.095032
0.349548 0.030518 0.095490
0.424103 0.003662 0.095795
0.500458 0.000000 0.096039
0.577332 0.000000 0.096161
0.653656 0.000000 0.095978
0.728943 0.000000 0.095276
0.802612 0.000000 0.094208
0.874054 0.000000 0.092499
0.942810 0.000000 0.089905
0.999451 0.000000 0.086853
1.000000 0.000000 0.082947
0.021301 0.125031 0.095978
0.059601 0.124908 0.096344
0.105713 0.124786 0.096588
0.160431 0.123352 0.096497
0.221283 0.120026 0.096771
0.287415 0.113800 0.097015
0.357880 0.103058 0.097229
0.431427 0.086121 0.097351
0.506714 0.058624 0.097351
0.582520 0.022339 0.096985
0.657928 0.001984 0.096222
0.732300 0.000000 0.095032
0.805115 0.000000 0.093140
0.875885 0.000000 0.090759
0.943970 0.000000 0.087433
0.999481 0.000000 0.083588
1.000000 0.000000 0.079193
0.032318 0.179779 0.099640
0.070465 0.179779 0.099945
0.115601 0.179962 0.100342
0.169769 0.180237 0.099518
0.230591 0.179108 0.099243
0.296814 0.176208 0.098969
0.366913 0.171204 0.098572
0.439697 0.163849 0.098114
0.513977 0.154053 0.097290
0.588593 0.141815 0.096161
0.662750 0.127167 0.094604
0.735992 0.109894 0.092590
0.807861 0.092010 0.089905
0.877747 0.082733 0.086548
0.945068 0.077545 0.082672
0.999512 0.079163 0.078064
1.000000 0.089111 0.073090
0.030975 0.244568 0.102173
0.073700 0.244751 0.102417
0.121338 0.245270 0.102600
0.176514 0.246613 0.101318
0.238007 0.247192 0.100311
0.304138 0.246796 0.099518
0.373871 0.245514 0.098297
0.445984 0.243073 0.096863
0.519348 0.239685 0.095154
0.592957 0.235596 0.093109
0.666260 0.231049 0.090637
0.738708 0.226532 0.087524
0.809753 0.222595 0.084167
0.878815 0.220062 0.079956
0.945282 0.219757 0.075500
0.999512 0.222839 0.070862
1.000000 0.230408 0.066223
0.006134 0.319702 0.101105
0.057465 0.319977 0.101318
0.116211 0.320435 0.101715
0.176605 0.322021 0.100250
0.240662 0.323700 0.097778
0.308197 0.324646 0.095947
0.378143 0.324982 0.094696
0.449951 0.324799 0.092682
0.522736 0.324127 0.090210
0.595612 0.322998 0.087524
0.668152 0.321716 0.084259
0.739838 0.320435 0.080658
0.810150 0.319550 0.076691
0.878448 0.319427 0.072144
0.944153 0.320740 0.067505
0.999420 0.324127 0.063141
1.000000 0.330353 0.059052
0.000000 0.399200 0.096741
0.019470 0.399475 0.096863
0.101685 0.399872 0.097290
0.171417 0.401276 0.095734
0.239746 0.403107 0.092773
0.309631 0.404755 0.089233
0.380890 0.405731 0.086639
0.452759 0.406158 0.085236
0.525055 0.406433 0.082703
0.597382 0.406494 0.079346
0.669342 0.406403 0.075714
0.740356 0.406311 0.071655
0.809906 0.406525 0.067444
0.877411 0.407318 0.062714
0.942322 0.409088 0.058105
0.999268 0.412445 0.054352
1.000000 0.417847 0.051422
0.000000 0.478424 0.090454
0.000275 0.478638 0.090637
0.084106 0.478973 0.090973
0.165588 0.480103 0.089417
0.238403 0.481903 0.085480
0.310608 0.483643 0.080963
0.382904 0.484985 0.076630
0.455353 0.485748 0.073700
0.527313 0.486206 0.072174
0.599091 0.486633 0.069214
0.670380 0.487061 0.065582
0.740662 0.487488 0.061401
0.809418 0.488159 0.057007
0.876129 0.489288 0.052917
0.940094 0.491211 0.049072
0.998566 0.494293 0.046295
1.000000 0.498993 0.044373
0.000000 0.555847 0.083679
0.000000 0.555969 0.084045
0.072266 0.556213 0.084412
0.163300 0.557159 0.082825
0.239197 0.558838 0.078003
0.312653 0.560516 0.072601
0.385376 0.561951 0.067047
0.457855 0.563019 0.062073
0.529846 0.563690 0.058899
0.601074 0.564056 0.057617
0.671600 0.564575 0.055084
0.741028 0.565155 0.052032
0.808868 0.565948 0.048706
0.874573 0.567139 0.044952
0.937469 0.568939 0.041718
0.995300 0.571655 0.039764
1.000000 0.575623 0.039703
0.000000 0.630829 0.078949
0.000000 0.630920 0.079224
0.076935 0.631104 0.079681
0.168427 0.631775 0.078522
0.244232 0.633301 0.073059
0.317352 0.634857 0.066986
0.389587 0.636261 0.060425
0.461517 0.637421 0.054840
0.533020 0.638245 0.050446
0.603790 0.638702 0.047821
0.673431 0.638977 0.047455
0.741852 0.639465 0.045685
0.808594 0.640167 0.043152
0.873047 0.641174 0.040741
0.934692 0.642700 0.038483
0.991577 0.644989 0.037994
1.000000 0.648224 0.040131
0.000000 0.702576 0.079163
0.010437 0.702667 0.079376
0.103455 0.702759 0.080048
0.183563 0.703339 0.078461
0.255585 0.704681 0.072968
0.326569 0.706024 0.066650
0.397186 0.707275 0.060120
0.467773 0.708344 0.054260
0.538086 0.709167 0.049011
0.607849 0.709656 0.044952
0.676544 0.709900 0.043488
0.743683 0.710022 0.044434
0.809052 0.710388 0.044159
0.872070 0.711121 0.043518
0.932220 0.712280 0.043274
0.987946 0.714020 0.044647
1.000000 0.716431 0.048798
0.023712 0.770233 0.087250
0.083527 0.770264 0.087524
0.146942 0.770325 0.087891
0.210602 0.771027 0.085022
0.275726 0.772095 0.079926
0.342468 0.773193 0.074158
0.410065 0.774231 0.067902
0.478302 0.775085 0.062073
0.546539 0.775726 0.057251
0.614532 0.776123 0.053284
0.681641 0.776245 0.051208
0.747284 0.776184 0.051636
0.810974 0.776093 0.054077
0.872253 0.776367 0.055908
0.930634 0.777008 0.057770
0.985046 0.778137 0.060669
1.000000 0.779724 0.065948
0.132812 0.832733 0.104767
0.161285 0.832794 0.104889
0.200165 0.833160 0.103302
0.249817 0.833832 0.100037
0.306335 0.834625 0.096130
0.366913 0.835388 0.091370
0.429993 0.836121 0.086395
0.494598 0.836700 0.081451
0.559906 0.837067 0.076752
0.625244 0.837219 0.073090
0.690002 0.837128 0.071106
0.753540 0.836823 0.071411
0.815186 0.836426 0.074127
0.874298 0.836151 0.078674
0.930634 0.836273 0.082855
0.983490 0.836792 0.087616
1.000000 0.837616 0.094391
0.215332 0.890045 0.127228
0.232758 0.890228 0.126434
0.260559 0.890503 0.124969
0.299622 0.890930 0.122894
0.347198 0.891418 0.120209
0.400604 0.891907 0.117188
0.457916 0.892334 0.113892
0.517761 0.892609 0.110748
0.579041 0.892731 0.107849
0.640808 0.892639 0.105621
0.702423 0.892303 0.104523
0.763062 0.891846 0.104889
0.821960 0.891296 0.107300
0.878540 0.890747 0.111450
0.932465 0.890472 0.116425
0.983521 0.890564 0.121521
1.000000 0.890869 0.127594
0.289886 0.942413 0.154388
0.302673 0.942535 0.153900
0.323578 0.942719 0.152924
0.354889 0.942932 0.151794
0.394592 0.943176 0.150024
0.440857 0.943451 0.148193
0.491882 0.943634 0.146027
0.546265 0.943756 0.144135
0.602783 0.943665 0.142426
0.660278 0.943451 0.141235
0.717987 0.943054 0.140778
0.775024 0.942535 0.141266
0.830627 0.941986 0.143097
0.884216 0.941467 0.146179
0.935760 0.941040 0.150696
0.984863 0.940887 0.155548
1.000000 0.940918 0.161163
0.359161 0.990845 0.186218
0.368927 0.990936 0.186005
0.385559 0.991028 0.185394
0.410950 0.991150 0.184662
0.444153 0.991302 0.183502
0.483948 0.991455 0.182343
0.528839 0.991577 0.180786
0.577515 0.991638 0.179413
0.628906 0.991547 0.178162
0.681732 0.991364 0.177338
0.735077 0.991028 0.176971
0.788055 0.990662 0.177338
0.839996 0.990234 0.178650
0.890564 0.989868 0.180969
0.939758 0.989563 0.184448
0.987000 0.989319 0.188751
1.000000 0.989258 0.193634
0.000000 0.000000 0.147644
0.030640 0.000000 0.147949
0.084625 0.000000 0.149170
0.141907 0.000000 0.150452
0.203400 0.000000 0.151215
0.270813 0.000000 0.152222
0.342743 0.000000 0.153198
0.418213 0.000000 0.154144
0.495422 0.000000 0.155151
0.573120 0.000000 0.156128
0.650208 0.000000 0.157135
0.726196 0.000000 0.158112
0.800507 0.000000 0.158813
0.872589 0.000000 0.159393
0.941864 0.000000 0.159515
0.999420 0.000000 0.159271
1.000000 0.000000 0.158875
0.000031 0.031464 0.149109
0.035522 0.030487 0.149475
0.088348 0.028778 0.150391
