luts/Classic Noir 50 BW.CUBE
# kravix mobile - LUTs Pack
LUT_3D_SIZE 9
0.000000 0.000000 0.000000
0.000000 0.000000 0.000000
0.003922 0.003922 0.003922
0.007843 0.007843 0.007843
0.023529 0.023529 0.023529
0.050980 0.050980 0.050980
0.098039 0.098039 0.098039
0.164706 0.164706 0.164706
0.266667 0.266667 0.266667
0.050980 0.050980 0.050980
0.062745 0.062745 0.062745
0.078431 0.078431 0.078431
0.098039 0.098039 0.098039
0.121569 0.121569 0.121569
0.160784 0.160784 0.160784
0.207843 0.207843 0.207843
0.282353 0.282353 0.282353
0.380392 0.380392 0.380392
0.149020 0.149020 0.149020
0.160784 0.160784 0.160784
0.176471 0.176471 0.176471
0.188235 0.188235 0.188235
0.219608 0.219608 0.219608
0.262745 0.262745 0.262745
0.313725 0.313725 0.313725
0.372549 0.372549 0.372549
0.450980 0.450980 0.450980
0.278431 0.278431 0.278431
0.282353 0.282353 0.282353
0.305882 0.305882 0.305882
0.313725 0.313725 0.313725
0.345098 0.345098 0.345098
0.380392 0.380392 0.380392
0.415686 0.415686 0.415686
0.466667 0.466667 0.466667
0.529412 0.529412 0.529412
0.427451 0.427451 0.427451
0.431373 0.431373 0.431373
0.439216 0.439216 0.439216
0.458824 0.458824 0.458824
0.470588 0.470588 0.470588
0.494118 0.494118 0.494118
0.525490 0.525490 0.525490
0.564706 0.564706 0.564706
0.615686 0.615686 0.615686
0.568627 0.568627 0.568627
0.572549 0.572549 0.572549
0.584314 0.584314 0.584314
0.588235 0.588235 0.588235
0.600000 0.600000 0.600000
0.615686 0.615686 0.615686
0.639216 0.639216 0.639216
0.670588 0.670588 0.670588
0.701961 0.701961 0.701961
0.698039 0.698039 0.698039
0.698039 0.698039 0.698039
0.701961 0.701961 0.701961
0.705882 0.705882 0.705882
0.713725 0.713725 0.713725
0.725490 0.725490 0.725490
0.737255 0.737255 0.737255
0.756863 0.756863 0.756863
0.780392 0.780392 0.780392
0.800000 0.800000 0.800000
0.800000 0.800000 0.800000
0.803922 0.803922 0.803922
0.803922 0.803922 0.803922
0.811765 0.811765 0.811765
0.815686 0.815686 0.815686
0.823529 0.823529 0.823529
0.835294 0.835294 0.835294
0.850980 0.850980 0.850980
0.894118 0.894118 0.894118
0.894118 0.894118 0.894118
0.898039 0.898039 0.898039
0.898039 0.898039 0.898039
0.901961 0.901961 0.901961
0.901961 0.901961 0.901961
0.909804 0.909804 0.909804
0.913725 0.913725 0.913725
0.925490 0.925490 0.925490
0.003922 0.003922 0.003922
0.011765 0.011765 0.011765
0.019608 0.019608 0.019608
0.031373 0.031373 0.031373
0.054902 0.054902 0.054902
0.090196 0.090196 0.090196
0.141176 0.141176 0.141176
0.211765 0.211765 0.211765
0.317647 0.317647 0.317647
0.082353 0.082353 0.082353
0.090196 0.090196 0.090196
0.113725 0.113725 0.113725
0.133333 0.133333 0.133333
0.156863 0.156863 0.156863
0.192157 0.192157 0.192157
0.247059 0.247059 0.247059
0.321569 0.321569 0.321569
0.407843 0.407843 0.407843
0.176471 0.176471 0.176471
0.188235 0.188235 0.188235
0.196078 0.196078 0.196078
0.215686 0.215686 0.215686
0.243137 0.243137 0.243137
0.294118 0.294118 0.294118
0.341176 0.341176 0.341176
0.396078 0.396078 0.396078
0.466667 0.466667 0.466667
0.301961 0.301961 0.301961
0.313725 0.313725 0.313725
0.317647 0.317647 0.317647
0.337255 0.337255 0.337255
0.360784 0.360784 0.360784
0.400000 0.400000 0.400000
0.439216 0.439216 0.439216
0.478431 0.478431 0.478431
0.541176 0.541176 0.541176
0.450980 0.450980 0.450980
0.443137 0.443137 0.443137
0.450980 0.450980 0.450980
0.462745 0.462745 0.462745
0.482353 0.482353 0.482353
0.513725 0.513725 0.513725
0.537255 0.537255 0.537255
0.580392 0.580392 0.580392
0.627451 0.627451 0.627451
0.580392 0.580392 0.580392
0.580392 0.580392 0.580392
0.588235 0.588235 0.588235
0.596078 0.596078 0.596078
0.607843 0.607843 0.607843
0.623529 0.623529 0.623529
0.654902 0.654902 0.654902
0.674510 0.674510 0.674510
0.709804 0.709804 0.709804
0.701961 0.701961 0.701961
0.701961 0.701961 0.701961
0.705882 0.705882 0.705882
0.713725 0.713725 0.713725
0.721569 0.721569 0.721569
0.729412 0.729412 0.729412
0.745098 0.745098 0.745098
0.760784 0.760784 0.760784
0.784314 0.784314 0.784314
0.803922 0.803922 0.803922
0.803922 0.803922 0.803922
0.803922 0.803922 0.803922
0.807843 0.807843 0.807843
0.811765 0.811765 0.811765
0.819608 0.819608 0.819608
0.831373 0.831373 0.831373
0.835294 0.835294 0.835294
0.850980 0.850980 0.850980
0.898039 0.898039 0.898039
0.898039 0.898039 0.898039
0.898039 0.898039 0.898039
0.901961 0.901961 0.901961
0.901961 0.901961 0.901961
0.905882 0.905882 0.905882
0.909804 0.909804 0.909804
0.917647 0.917647 0.917647
0.925490 0.925490 0.925490
0.015686 0.015686 0.015686
0.027451 0.027451 0.027451
0.039216 0.039216 0.039216
0.054902 0.054902 0.054902
0.086275 0.086275 0.086275
0.121569 0.121569 0.121569
0.172549 0.172549 0.172549
0.243137 0.243137 0.243137
0.349020 0.349020 0.349020
0.117647 0.117647 0.117647
0.121569 0.121569 0.121569
0.141176 0.141176 0.141176
0.160784 0.160784 0.160784
0.188235 0.188235 0.188235
0.231373 0.231373 0.231373
0.282353 0.282353 0.282353
0.349020 0.349020 0.349020
0.435294 0.435294 0.435294
0.211765 0.211765 0.211765
0.211765 0.211765 0.211765
0.227451 0.227451 0.227451
0.258824 0.258824 0.258824
0.278431 0.278431 0.278431
0.321569 0.321569 0.321569
0.364706 0.364706 0.364706
0.427451 0.427451 0.427451
0.494118 0.494118 0.494118
0.333333 0.333333 0.333333
0.337255 0.337255 0.337255
0.356863 0.356863 0.356863
0.372549 0.372549 0.372549
0.392157 0.392157 0.392157
0.419608 0.419608 0.419608
0.454902 0.454902 0.454902
0.498039 0.498039 0.498039
0.560784 0.560784 0.560784
0.470588 0.470588 0.470588
0.466667 0.466667 0.466667
0.482353 0.482353 0.482353
0.494118 0.494118 0.494118
0.505882 0.505882 0.505882
0.529412 0.529412 0.529412
0.560784 0.560784 0.560784
0.592157 0.592157 0.592157
0.643137 0.643137 0.643137
0.596078 0.596078 0.596078
0.600000 0.600000 0.600000
0.603922 0.603922 0.603922
0.611765 0.611765 0.611765
0.631373 0.631373 0.631373
0.647059 0.647059 0.647059
0.662745 0.662745 0.662745
0.690196 0.690196 0.690196
0.721569 0.721569 0.721569
0.713725 0.713725 0.713725
0.713725 0.713725 0.713725
0.721569 0.721569 0.721569
0.729412 0.729412 0.729412
0.729412 0.729412 0.729412
0.741176 0.741176 0.741176
0.752941 0.752941 0.752941
0.768627 0.768627 0.768627
0.792157 0.792157 0.792157
0.811765 0.811765 0.811765
0.811765 0.811765 0.811765
0.811765 0.811765 0.811765
0.815686 0.815686 0.815686
0.819608 0.819608 0.819608
0.823529 0.823529 0.823529
0.831373 0.831373 0.831373
0.847059 0.847059 0.847059
0.858824 0.858824 0.858824
0.901961 0.901961 0.901961
0.901961 0.901961 0.901961
0.901961 0.901961 0.901961
0.905882 0.905882 0.905882
0.905882 0.905882 0.905882
0.909804 0.909804 0.909804
0.913725 0.913725 0.913725
0.921569 0.921569 0.921569
0.929412 0.929412 0.929412
0.035294 0.035294 0.035294
0.054902 0.054902 0.054902
0.066667 0.066667 0.066667
0.094118 0.094118 0.094118
0.117647 0.117647 0.117647
0.160784 0.160784 0.160784
0.211765 0.211765 0.211765
0.286275 0.286275 0.286275
0.384314 0.384314 0.384314
0.149020 0.149020 0.149020
0.164706 0.164706 0.164706
0.176471 0.176471 0.176471
0.196078 0.196078 0.196078
0.223529 0.223529 0.223529
0.274510 0.274510 0.274510
0.329412 0.329412 0.329412
0.384314 0.384314 0.384314
0.462745 0.462745 0.462745
0.247059 0.247059 0.247059
0.254902 0.254902 0.254902
0.274510 0.274510 0.274510
0.294118 0.294118 0.294118
0.329412 0.329412 0.329412
0.356863 0.356863 0.356863
0.403922 0.403922 0.403922
0.454902 0.454902 0.454902
0.521569 0.521569 0.521569
0.368627 0.368627 0.368627
0.380392 0.380392 0.380392
0.384314 0.384314 0.384314
0.400000 0.400000 0.400000
0.423529 0.423529 0.423529
0.450980 0.450980 0.450980
0.482353 0.482353 0.482353
0.529412 0.529412 0.529412
0.584314 0.584314 0.584314
0.494118 0.494118 0.494118
0.498039 0.498039 0.498039
0.505882 0.505882 0.505882
0.513725 0.513725 0.513725
0.537255 0.537255 0.537255
0.552941 0.552941 0.552941
0.580392 0.580392 0.580392
0.623529 0.623529 0.623529
0.666667 0.666667 0.666667
0.619608 0.619608 0.619608
0.623529 0.623529 0.623529
0.627451 0.627451 0.627451
0.635294 0.635294 0.635294
0.647059 0.647059 0.647059
0.662745 0.662745 0.662745
0.682353 0.682353 0.682353
0.709804 0.709804 0.709804
0.737255 0.737255 0.737255
0.729412 0.729412 0.729412
0.729412 0.729412 0.729412
0.733333 0.733333 0.733333
0.745098 0.745098 0.745098
0.745098 0.745098 0.745098
0.756863 0.756863 0.756863
0.772549 0.772549 0.772549
0.784314 0.784314 0.784314
0.803922 0.803922 0.803922
0.819608 0.819608 0.819608
0.819608 0.819608 0.819608
0.823529 0.823529 0.823529
0.823529 0.823529 0.823529
0.827451 0.827451 0.827451
0.835294 0.835294 0.835294
0.843137 0.843137 0.843137
0.850980 0.850980 0.850980
0.866667 0.866667 0.866667
0.905882 0.905882 0.905882
0.909804 0.909804 0.909804
0.909804 0.909804 0.909804
0.909804 0.909804 0.909804
0.913725 0.913725 0.913725
0.917647 0.917647 0.917647
0.921569 0.921569 0.921569
0.925490 0.925490 0.925490
0.937255 0.937255 0.937255
0.070588 0.070588 0.070588
0.090196 0.090196 0.090196
0.109804 0.109804 0.109804
0.137255 0.137255 0.137255
0.164706 0.164706 0.164706
0.203922 0.203922 0.203922
0.258824 0.258824 0.258824
0.337255 0.337255 0.337255
0.423529 0.423529 0.423529
0.192157 0.192157 0.192157
0.211765 0.211765 0.211765
0.227451 0.227451 0.227451
0.247059 0.247059 0.247059
0.278431 0.278431 0.278431
0.325490 0.325490 0.325490
0.376471 0.376471 0.376471
0.427451 0.427451 0.427451
0.494118 0.494118 0.494118
0.298039 0.298039 0.298039
0.317647 0.317647 0.317647
0.329412 0.329412 0.329412
0.341176 0.341176 0.341176
0.372549 0.372549 0.372549
0.403922 0.403922 0.403922
0.439216 0.439216 0.439216
0.486275 0.486275 0.486275
0.549020 0.549020 0.549020
0.415686 0.415686 0.415686
0.419608 0.419608 0.419608
0.431373 0.431373 0.431373
0.447059 0.447059 0.447059
0.470588 0.470588 0.470588
0.490196 0.490196 0.490196
0.521569 0.521569 0.521569
0.560784 0.560784 0.560784
0.615686 0.615686 0.615686
0.533333 0.533333 0.533333
0.533333 0.533333 0.533333
0.549020 0.549020 0.549020
0.552941 0.552941 0.552941
0.568627 0.568627 0.568627
0.596078 0.596078 0.596078
0.615686 0.615686 0.615686
0.650980 0.650980 0.650980
0.686275 0.686275 0.686275
0.650980 0.650980 0.650980
0.650980 0.650980 0.650980
0.654902 0.654902 0.654902
0.662745 0.662745 0.662745
0.674510 0.674510 0.674510
0.686275 0.686275 0.686275
0.709804 0.709804 0.709804
0.725490 0.725490 0.725490
0.752941 0.752941 0.752941
0.749020 0.749020 0.749020
0.752941 0.752941 0.752941
0.752941 0.752941 0.752941
0.756863 0.756863 0.756863
0.760784 0.760784 0.760784
0.772549 0.772549 0.772549
0.784314 0.784314 0.784314
0.800000 0.800000 0.800000
0.815686 0.815686 0.815686
0.831373 0.831373 0.831373
0.831373 0.831373 0.831373
0.831373 0.831373 0.831373
0.835294 0.835294 0.835294
0.839216 0.839216 0.839216
0.843137 0.843137 0.843137
0.850980 0.850980 0.850980
0.862745 0.862745 0.862745
0.874510 0.874510 0.874510
0.913725 0.913725 0.913725
0.917647 0.917647 0.917647
0.917647 0.917647 0.917647
0.917647 0.917647 0.917647
0.921569 0.921569 0.921569
0.921569 0.921569 0.921569
0.929412 0.929412 0.929412
0.933333 0.933333 0.933333
0.945098 0.945098 0.945098
0.125490 0.125490 0.125490
0.149020 0.149020 0.149020
0.172549 0.172549 0.172549
0.192157 0.192157 0.192157
0.219608 0.219608 0.219608
0.270588 0.270588 0.270588
0.329412 0.329412 0.329412
0.392157 0.392157 0.392157
0.470588 0.470588 0.470588
0.262745 0.262745 0.262745
0.274510 0.274510 0.274510
0.294118 0.294118 0.294118
0.317647 0.317647 0.317647
0.345098 0.345098 0.345098
0.384314 0.384314 0.384314
0.423529 0.423529 0.423529
0.474510 0.474510 0.474510
0.537255 0.537255 0.537255
0.364706 0.364706 0.364706
0.368627 0.368627 0.368627
0.388235 0.388235 0.388235
0.407843 0.407843 0.407843
0.423529 0.423529 0.423529
0.458824 0.458824 0.458824
0.490196 0.490196 0.490196
0.533333 0.533333 0.533333
0.592157 0.592157 0.592157
0.466667 0.466667 0.466667
0.474510 0.474510 0.474510
0.478431 0.478431 0.478431
0.498039 0.498039 0.498039
0.509804 0.509804 0.509804
0.541176 0.541176 0.541176
0.564706 0.564706 0.564706
0.603922 0.603922 0.603922
0.650980 0.650980 0.650980
0.580392 0.580392 0.580392
0.576471 0.576471 0.576471
0.584314 0.584314 0.584314
0.592157 0.592157 0.592157
0.611765 0.611765 0.611765
0.627451 0.627451 0.627451
0.650980 0.650980 0.650980
0.678431 0.678431 0.678431
0.717647 0.717647 0.717647
0.678431 0.678431 0.678431
0.682353 0.682353 0.682353
0.686275 0.686275 0.686275
0.698039 0.698039 0.698039
0.701961 0.701961 0.701961
0.713725 0.713725 0.713725
0.733333 0.733333 0.733333
0.749020 0.749020 0.749020
0.772549 0.772549 0.772549
0.768627 0.768627 0.768627
0.776471 0.776471 0.776471
0.772549 0.772549 0.772549
0.776471 0.776471 0.776471
0.780392 0.780392 0.780392
0.788235 0.788235 0.788235
0.800000 0.800000 0.800000
0.811765 0.811765 0.811765
0.831373 0.831373 0.831373
0.843137 0.843137 0.843137
0.843137 0.843137 0.843137
0.847059 0.847059 0.847059
0.850980 0.850980 0.850980
0.850980 0.850980 0.850980
0.854902 0.854902 0.854902
0.862745 0.862745 0.862745
0.870588 0.870588 0.870588
0.886275 0.886275 0.886275
0.925490 0.925490 0.925490
0.925490 0.925490 0.925490
0.925490 0.925490 0.925490
0.925490 0.925490 0.925490
0.929412 0.929412 0.929412
0.933333 0.933333 0.933333
0.937255 0.937255 0.937255
0.941176 0.941176 0.941176
0.952941 0.952941 0.952941
0.196078 0.196078 0.196078
0.219608 0.219608 0.219608
0.243137 0.243137 0.243137
0.270588 0.270588 0.270588
0.305882 0.305882 0.305882
0.345098 0.345098 0.345098
0.396078 0.396078 0.396078
0.450980 0.450980 0.450980
0.521569 0.521569 0.521569
0.349020 0.349020 0.349020
0.349020 0.349020 0.349020
0.364706 0.364706 0.364706
0.392157 0.392157 0.392157
0.419608 0.419608 0.419608
0.443137 0.443137 0.443137
0.482353 0.482353 0.482353
0.529412 0.529412 0.529412
0.584314 0.584314 0.584314
0.431373 0.431373 0.431373
0.435294 0.435294 0.435294
0.447059 0.447059 0.447059
0.462745 0.462745 0.462745
0.486275 0.486275 0.486275
0.513725 0.513725 0.513725
0.541176 0.541176 0.541176
0.580392 0.580392 0.580392
0.635294 0.635294 0.635294
0.521569 0.521569 0.521569
0.525490 0.525490 0.525490
0.533333 0.533333 0.533333
0.552941 0.552941 0.552941
0.564706 0.564706 0.564706
0.588235 0.588235 0.588235
0.611765 0.611765 0.611765
0.643137 0.643137 0.643137
0.686275 0.686275 0.686275
0.623529 0.623529 0.623529
0.623529 0.623529 0.623529
0.631373 0.631373 0.631373
0.643137 0.643137 0.643137
0.650980 0.650980 0.650980
0.670588 0.670588 0.670588
0.686275 0.686275 0.686275
0.713725 0.713725 0.713725
0.741176 0.741176 0.741176
0.717647 0.717647 0.717647
0.713725 0.713725 0.713725
0.721569 0.721569 0.721569
0.725490 0.725490 0.725490
0.737255 0.737255 0.737255
0.741176 0.741176 0.741176
0.756863 0.756863 0.756863
0.772549 0.772549 0.772549
0.796078 0.796078 0.796078
0.796078 0.796078 0.796078
0.792157 0.792157 0.792157
0.792157 0.792157 0.792157
0.800000 0.800000 0.800000
0.803922 0.803922 0.803922
0.811765 0.811765 0.811765
0.819608 0.819608 0.819608
0.831373 0.831373 0.831373
0.847059 0.847059 0.847059
0.858824 0.858824 0.858824
0.858824 0.858824 0.858824
0.862745 0.862745 0.862745
0.862745 0.862745 0.862745
0.866667 0.866667 0.866667
0.870588 0.870588 0.870588
0.874510 0.874510 0.874510
0.886275 0.886275 0.886275
0.898039 0.898039 0.898039
0.933333 0.933333 0.933333
0.937255 0.937255 0.937255
0.937255 0.937255 0.937255
0.937255 0.937255 0.937255
0.941176 0.941176 0.941176
0.941176 0.941176 0.941176
0.945098 0.945098 0.945098
0.952941 0.952941 0.952941
0.960784 0.960784 0.960784
0.290196 0.290196 0.290196
0.321569 0.321569 0.321569
0.341176 0.341176 0.341176
0.364706 0.364706 0.364706
0.392157 0.392157 0.392157
0.427451 0.427451 0.427451
0.466667 0.466667 0.466667
0.513725 0.513725 0.513725
0.576471 0.576471 0.576471
0.423529 0.423529 0.423529
0.435294 0.435294 0.435294
0.447059 0.447059 0.447059
0.462745 0.462745 0.462745
0.482353 0.482353 0.482353
0.509804 0.509804 0.509804
0.545098 0.545098 0.545098
0.584314 0.584314 0.584314
0.635294 0.635294 0.635294
0.498039 0.498039 0.498039
0.505882 0.505882 0.505882
0.513725 0.513725 0.513725
0.533333 0.533333 0.533333
0.552941 0.552941 0.552941
0.576471 0.576471 0.576471
0.600000 0.600000 0.600000
0.635294 0.635294 0.635294
0.678431 0.678431 0.678431
0.584314 0.584314 0.584314
0.588235 0.588235 0.588235
0.596078 0.596078 0.596078
0.607843 0.607843 0.607843
0.627451 0.627451 0.627451
0.639216 0.639216 0.639216
0.662745 0.662745 0.662745
0.690196 0.690196 0.690196
0.725490 0.725490 0.725490
0.670588 0.670588 0.670588
0.678431 0.678431 0.678431
0.678431 0.678431 0.678431
0.686275 0.686275 0.686275
0.698039 0.698039 0.698039
0.713725 0.713725 0.713725
0.725490 0.725490 0.725490
0.745098 0.745098 0.745098
0.772549 0.772549 0.772549
0.749020 0.749020 0.749020
0.752941 0.752941 0.752941
0.756863 0.756863 0.756863
0.760784 0.760784 0.760784
0.764706 0.764706 0.764706
0.776471 0.776471 0.776471
0.788235 0.788235 0.788235
0.800000 0.800000 0.800000
0.819608 0.819608 0.819608
0.815686 0.815686 0.815686
0.815686 0.815686 0.815686
0.819608 0.819608 0.819608
0.823529 0.823529 0.823529
0.827451 0.827451 0.827451
0.831373 0.831373 0.831373
0.843137 0.843137 0.843137
0.850980 0.850980 0.850980
0.866667 0.866667 0.866667
0.878431 0.878431 0.878431
0.878431 0.878431 0.878431
0.878431 0.878431 0.878431
0.882353 0.882353 0.882353
0.882353 0.882353 0.882353
0.886275 0.886275 0.886275
0.894118 0.894118 0.894118
0.901961 0.901961 0.901961
0.909804 0.909804 0.909804
0.949020 0.949020 0.949020
0.949020 0.949020 0.949020
0.949020 0.949020 0.949020
0.949020 0.949020 0.949020
0.952941 0.952941 0.952941
0.956863 0.956863 0.956863
0.960784 0.960784 0.960784
0.964706 0.964706 0.964706
0.976471 0.976471 0.976471
0.400000 0.400000 0.400000
0.423529 0.423529 0.423529
0.435294 0.435294 0.435294
0.454902 0.454902 0.454902
0.482353 0.482353 0.482353
0.509804 0.509804 0.509804
0.541176 0.541176 0.541176
0.584314 0.584314 0.584314
0.639216 0.639216 0.639216
0.505882 0.505882 0.505882
0.513725 0.513725 0.513725
0.529412 0.529412 0.529412
0.541176 0.541176 0.541176
0.560784 0.560784 0.560784
0.588235 0.588235 0.588235
0.615686 0.615686 0.615686
0.650980 0.650980 0.650980
0.690196 0.690196 0.690196
0.580392 0.580392 0.580392
0.584314 0.584314 0.584314
0.592157 0.592157 0.592157
0.603922 0.603922 0.603922
0.623529 0.623529 0.623529
0.643137 0.643137 0.643137
0.666667 0.666667 0.666667
0.694118 0.694118 0.694118
0.725490 0.725490 0.725490
0.654902 0.654902 0.654902
0.658824 0.658824 0.658824
0.662745 0.662745 0.662745
0.670588 0.670588 0.670588
0.686275 0.686275 0.686275
0.701961 0.701961 0.701961
0.717647 0.717647 0.717647
0.741176 0.741176 0.741176
0.764706 0.764706 0.764706
0.729412 0.729412 0.729412
0.733333 0.733333 0.733333
0.737255 0.737255 0.737255
0.737255 0.737255 0.737255
0.745098 0.745098 0.745098
0.756863 0.756863 0.756863
0.772549 0.772549 0.772549
0.788235 0.788235 0.788235
0.811765 0.811765 0.811765
0.788235 0.788235 0.788235
0.792157 0.792157 0.792157
0.792157 0.792157 0.792157
0.796078 0.796078 0.796078
0.803922 0.803922 0.803922
0.811765 0.811765 0.811765
0.819608 0.819608 0.819608
0.831373 0.831373 0.831373
0.850980 0.850980 0.850980
0.847059 0.847059 0.847059
0.850980 0.850980 0.850980
0.847059 0.847059 0.847059
0.850980 0.850980 0.850980
0.854902 0.854902 0.854902
0.862745 0.862745 0.862745
0.866667 0.866667 0.866667
0.878431 0.878431 0.878431
0.890196 0.890196 0.890196
0.901961 0.901961 0.901961
0.901961 0.901961 0.901961
0.901961 0.901961 0.901961
0.905882 0.905882 0.905882
0.905882 0.905882 0.905882
0.909804 0.909804 0.909804
0.913725 0.913725 0.913725
0.921569 0.921569 0.921569
0.933333 0.933333 0.933333
0.968627 0.968627 0.968627
0.968627 0.968627 0.968627
0.968627 0.968627 0.968627
0.972549 0.972549 0.972549
0.972549 0.972549 0.972549
0.976471 0.976471 0.976471
0.980392 0.980392 0.980392
0.988235 0.988235 0.988235
1.000000 1.000000 1.000000
