luts/Classic Noir 50 BW.CUBE
# kravix mobile - LUTs Pack
LUT_3D_SIZE 17
0.000000 0.000000 0.000000
0.000000 0.000000 0.000000
0.000000 0.000000 0.000000
0.001961 0.001961 0.001961
0.003922 0.003922 0.003922
0.005882 0.005882 0.005882
0.007843 0.007843 0.007843
0.013725 0.013725 0.013725
0.023529 0.023529 0.023529
0.035294 0.035294 0.035294
0.050980 0.050980 0.050980
0.070588 0.070588 0.070588
0.098039 0.098039 0.098039
0.129412 0.129412 0.129412
0.164706 0.164706 0.164706
0.211764 0.211764 0.211764
0.266667 0.266667 0.266667
0.019608 0.019608 0.019608
0.020588 0.020588 0.020588
0.029412 0.029412 0.029412
0.033333 0.033333 0.033333
0.035294 0.035294 0.035294
0.044118 0.044118 0.044118
0.054902 0.054902 0.054902
0.068628 0.068628 0.068628
0.080393 0.080393 0.080393
0.099020 0.099020 0.099020
0.117647 0.117647 0.117647
0.141176 0.141176 0.141176
0.166666 0.166666 0.166666
0.200981 0.200981 0.200981
0.239216 0.239216 0.239216
0.287255 0.287255 0.287255
0.335294 0.335294 0.335294
0.050980 0.050980 0.050980
0.060784 0.060784 0.060784
0.062745 0.062745 0.062745
0.070588 0.070588 0.070588
0.078431 0.078431 0.078431
0.088235 0.088235 0.088235
0.098039 0.098039 0.098039
0.111765 0.111765 0.111765
0.121569 0.121569 0.121569
0.141177 0.141177 0.141177
0.160784 0.160784 0.160784
0.186275 0.186275 0.186275
0.207843 0.207843 0.207843
0.245098 0.245098 0.245098
0.282353 0.282353 0.282353
0.327451 0.327451 0.327451
0.380392 0.380392 0.380392
0.101961 0.101961 0.101961
0.103922 0.103922 0.103922
0.109804 0.109804 0.109804
0.117647 0.117647 0.117647
0.123529 0.123529 0.123529
0.137255 0.137255 0.137255
0.143138 0.143138 0.143138
0.158824 0.158824 0.158824
0.170589 0.170589 0.170589
0.190196 0.190196 0.190196
0.205882 0.205882 0.205882
0.236274 0.236274 0.236274
0.262745 0.262745 0.262745
0.299020 0.299020 0.299020
0.331372 0.331372 0.331372
0.372549 0.372549 0.372549
0.413726 0.413726 0.413726
0.149020 0.149020 0.149020
0.152941 0.152941 0.152941
0.160784 0.160784 0.160784
0.162745 0.162745 0.162745
0.176471 0.176471 0.176471
0.180393 0.180393 0.180393
0.188235 0.188235 0.188235
0.207843 0.207843 0.207843
0.219608 0.219608 0.219608
0.239216 0.239216 0.239216
0.262745 0.262745 0.262745
0.286274 0.286274 0.286274
0.313725 0.313725 0.313725
0.345098 0.345098 0.345098
0.372549 0.372549 0.372549
0.409803 0.409803 0.409803
0.450980 0.450980 0.450980
0.215687 0.215687 0.215687
0.217647 0.217647 0.217647
0.221569 0.221569 0.221569
0.225490 0.225490 0.225490
0.235294 0.235294 0.235294
0.243137 0.243137 0.243137
0.252941 0.252941 0.252941
0.262745 0.262745 0.262745
0.284313 0.284313 0.284313
0.300000 0.300000 0.300000
0.319607 0.319607 0.319607
0.343137 0.343137 0.343137
0.366667 0.366667 0.366667
0.394118 0.394118 0.394118
0.421569 0.421569 0.421569
0.453922 0.453922 0.453922
0.490196 0.490196 0.490196
0.278431 0.278431 0.278431
0.284313 0.284313 0.284313
0.282353 0.282353 0.282353
0.288235 0.288235 0.288235
0.305882 0.305882 0.305882
0.305883 0.305883 0.305883
0.313725 0.313725 0.313725
0.333333 0.333333 0.333333
0.345098 0.345098 0.345098
0.362745 0.362745 0.362745
0.380392 0.380392 0.380392
0.396079 0.396079 0.396079
0.415686 0.415686 0.415686
0.439216 0.439216 0.439216
0.466667 0.466667 0.466667
0.496079 0.496079 0.496079
0.529412 0.529412 0.529412
0.358823 0.358823 0.358823
0.359804 0.359804 0.359804
0.366667 0.366667 0.366667
0.367647 0.367647 0.367647
0.372549 0.372549 0.372549
0.379412 0.379412 0.379412
0.384313 0.384313 0.384313
0.401961 0.401961 0.401961
0.413725 0.413725 0.413725
0.424510 0.424510 0.424510
0.435294 0.435294 0.435294
0.453922 0.453922 0.453922
0.472549 0.472549 0.472549
0.492157 0.492157 0.492157
0.511765 0.511765 0.511765
0.541176 0.541176 0.541176
0.570588 0.570588 0.570588
0.427451 0.427451 0.427451
0.431373 0.431373 0.431373
0.431373 0.431373 0.431373
0.437255 0.437255 0.437255
0.439216 0.439216 0.439216
0.449020 0.449020 0.449020
0.458824 0.458824 0.458824
0.464706 0.464706 0.464706
0.470588 0.470588 0.470588
0.482353 0.482353 0.482353
0.494118 0.494118 0.494118
0.511765 0.511765 0.511765
0.525490 0.525490 0.525490
0.549019 0.549019 0.549019
0.564706 0.564706 0.564706
0.588235 0.588235 0.588235
0.615686 0.615686 0.615686
0.505882 0.505882 0.505882
0.505882 0.505882 0.505882
0.505883 0.505883 0.505883
0.507843 0.507843 0.507843
0.513725 0.513725 0.513725
0.515686 0.515686 0.515686
0.523529 0.523529 0.523529
0.529412 0.529412 0.529412
0.539216 0.539216 0.539216
0.551961 0.551961 0.551961
0.562745 0.562745 0.562745
0.571569 0.571569 0.571569
0.586275 0.586275 0.586275
0.603921 0.603921 0.603921
0.617647 0.617647 0.617647
0.641177 0.641177 0.641177
0.662745 0.662745 0.662745
0.568627 0.568627 0.568627
0.572549 0.572549 0.572549
0.572549 0.572549 0.572549
0.578431 0.578431 0.578431
0.584314 0.584314 0.584314
0.586275 0.586275 0.586275
0.588235 0.588235 0.588235
0.594118 0.594118 0.594118
0.600000 0.600000 0.600000
0.607843 0.607843 0.607843
0.615686 0.615686 0.615686
0.635294 0.635294 0.635294
0.639216 0.639216 0.639216
0.656863 0.656863 0.656863
0.670588 0.670588 0.670588
0.684314 0.684314 0.684314
0.701961 0.701961 0.701961
0.641177 0.641177 0.641177
0.642157 0.642157 0.642157
0.641177 0.641177 0.641177
0.642157 0.642157 0.642157
0.645098 0.645098 0.645098
0.650000 0.650000 0.650000
0.652941 0.652941 0.652941
0.656863 0.656863 0.656863
0.666667 0.666667 0.666667
0.670588 0.670588 0.670588
0.672549 0.672549 0.672549
0.685294 0.685294 0.685294
0.694118 0.694118 0.694118
0.702941 0.702941 0.702941
0.715686 0.715686 0.715686
0.727451 0.727451 0.727451
0.747059 0.747059 0.747059
0.698039 0.698039 0.698039
0.698039 0.698039 0.698039
0.698039 0.698039 0.698039
0.700000 0.700000 0.700000
0.701961 0.701961 0.701961
0.703921 0.703921 0.703921
0.705882 0.705882 0.705882
0.711765 0.711765 0.711765
0.713725 0.713725 0.713725
0.719608 0.719608 0.719608
0.725490 0.725490 0.725490
0.731372 0.731372 0.731372
0.737255 0.737255 0.737255
0.749019 0.749019 0.749019
0.756863 0.756863 0.756863
0.768628 0.768628 0.768628
0.780392 0.780392 0.780392
0.752941 0.752941 0.752941
0.753921 0.753921 0.753921
0.758823 0.758823 0.758823
0.753921 0.753921 0.753921
0.758824 0.758824 0.758824
0.756863 0.756863 0.756863
0.762746 0.762746 0.762746
0.762745 0.762745 0.762745
0.766667 0.766667 0.766667
0.769608 0.769608 0.769608
0.772549 0.772549 0.772549
0.779412 0.779412 0.779412
0.782353 0.782353 0.782353
0.788236 0.788236 0.788236
0.796078 0.796078 0.796078
0.807843 0.807843 0.807843
0.819608 0.819608 0.819608
0.800000 0.800000 0.800000
0.801961 0.801961 0.801961
0.800000 0.800000 0.800000
0.801961 0.801961 0.801961
0.803922 0.803922 0.803922
0.803922 0.803922 0.803922
0.803922 0.803922 0.803922
0.807843 0.807843 0.807843
0.811765 0.811765 0.811765
0.813725 0.813725 0.813725
0.815686 0.815686 0.815686
0.819608 0.819608 0.819608
0.823529 0.823529 0.823529
0.829412 0.829412 0.829412
0.835294 0.835294 0.835294
0.841176 0.841176 0.841176
0.850980 0.850980 0.850980
0.847059 0.847059 0.847059
0.847059 0.847059 0.847059
0.849020 0.849020 0.849020
0.849020 0.849020 0.849020
0.850981 0.850981 0.850981
0.849020 0.849020 0.849020
0.850980 0.850980 0.850980
0.856863 0.856863 0.856863
0.852942 0.852942 0.852942
0.859804 0.859804 0.859804
0.856863 0.856863 0.856863
0.862745 0.862745 0.862745
0.866667 0.866667 0.866667
0.871569 0.871569 0.871569
0.874510 0.874510 0.874510
0.879412 0.879412 0.879412
0.888235 0.888235 0.888235
0.894118 0.894118 0.894118
0.894118 0.894118 0.894118
0.894118 0.894118 0.894118
0.894118 0.894118 0.894118
0.898039 0.898039 0.898039
0.898039 0.898039 0.898039
0.898039 0.898039 0.898039
0.898039 0.898039 0.898039
0.901961 0.901961 0.901961
0.901961 0.901961 0.901961
0.901961 0.901961 0.901961
0.905882 0.905882 0.905882
0.909804 0.909804 0.909804
0.911764 0.911764 0.911764
0.913725 0.913725 0.913725
0.919608 0.919608 0.919608
0.925490 0.925490 0.925490
0.000000 0.000000 0.000000
0.002942 0.002942 0.002942
0.005882 0.005882 0.005882
0.007843 0.007843 0.007843
0.013725 0.013725 0.013725
0.015686 0.015686 0.015686
0.023530 0.023530 0.023530
0.030392 0.030392 0.030392
0.043137 0.043137 0.043137
0.057843 0.057843 0.057843
0.076470 0.076470 0.076470
0.099020 0.099020 0.099020
0.125491 0.125491 0.125491
0.158824 0.158824 0.158824
0.196078 0.196078 0.196078
0.243138 0.243138 0.243138
0.300000 0.300000 0.300000
0.034314 0.034314 0.034314
0.038726 0.038726 0.038726
0.045098 0.045098 0.045098
0.051471 0.051471 0.051471
0.058824 0.058824 0.058824
0.068627 0.068627 0.068627
0.076471 0.076471 0.076471
0.089216 0.089216 0.089216
0.102941 0.102941 0.102941
0.123039 0.123039 0.123039
0.143137 0.143137 0.143137
0.167157 0.167157 0.167157
0.192157 0.192157 0.192157
0.225980 0.225980 0.225980
0.262745 0.262745 0.262745
0.311765 0.311765 0.311765
0.361764 0.361764 0.361764
0.070588 0.070588 0.070588
0.078432 0.078432 0.078432
0.078432 0.078432 0.078432
0.091177 0.091177 0.091177
0.098039 0.098039 0.098039
0.105882 0.105882 0.105882
0.119608 0.119608 0.119608
0.131373 0.131373 0.131373
0.143138 0.143138 0.143138
0.159804 0.159804 0.159804
0.180393 0.180393 0.180393
0.205882 0.205882 0.205882
0.233333 0.233333 0.233333
0.267647 0.267647 0.267647
0.307843 0.307843 0.307843
0.350000 0.350000 0.350000
0.396078 0.396078 0.396078
0.116667 0.116667 0.116667
0.120098 0.120098 0.120098
0.126470 0.126470 0.126470
0.130882 0.130882 0.130882
0.140196 0.140196 0.140196
0.150000 0.150000 0.150000
0.157843 0.157843 0.157843
0.172549 0.172549 0.172549
0.186275 0.186275 0.186275
0.205882 0.205882 0.205882
0.225490 0.225490 0.225490
0.250000 0.250000 0.250000
0.277451 0.277451 0.277451
0.311275 0.311275 0.311275
0.346078 0.346078 0.346078
0.387745 0.387745 0.387745
0.427451 0.427451 0.427451
0.166666 0.166666 0.166666
0.165686 0.165686 0.165686
0.172549 0.172549 0.172549
0.178432 0.178432 0.178432
0.184314 0.184314 0.184314
0.195098 0.195098 0.195098
0.205882 0.205882 0.205882
0.219608 0.219608 0.219608
0.231372 0.231372 0.231372
0.252941 0.252941 0.252941
0.272549 0.272549 0.272549
0.300000 0.300000 0.300000
0.327451 0.327451 0.327451
0.356862 0.356862 0.356862
0.386274 0.386274 0.386274
0.423530 0.423530 0.423530
0.460784 0.460784 0.460784
0.226471 0.226471 0.226471
0.225981 0.225981 0.225981
0.233333 0.233333 0.233333
0.238235 0.238235 0.238235
0.245098 0.245098 0.245098
0.255392 0.255392 0.255392
0.265686 0.265686 0.265686
0.277941 0.277941 0.277941
0.291176 0.291176 0.291176
0.312255 0.312255 0.312255
0.329412 0.329412 0.329412
0.354412 0.354412 0.354412
0.376470 0.376470 0.376470
0.403431 0.403431 0.403431
0.428431 0.428431 0.428431
0.458333 0.458333 0.458333
0.493137 0.493137 0.493137
0.294118 0.294118 0.294118
0.296079 0.296079 0.296079
0.298039 0.298039 0.298039
0.303921 0.303921 0.303921
0.305883 0.305883 0.305883
0.319608 0.319608 0.319608
0.329412 0.329412 0.329412
0.339216 0.339216 0.339216
0.354902 0.354902 0.354902
0.372549 0.372549 0.372549
0.386274 0.386274 0.386274
0.404902 0.404902 0.404902
0.425490 0.425490 0.425490
0.447059 0.447059 0.447059
0.468627 0.468627 0.468627
0.500981 0.500981 0.500981
0.533333 0.533333 0.533333
0.368627 0.368627 0.368627
0.369608 0.369608 0.369608
0.370588 0.370588 0.370588
0.375000 0.375000 0.375000
0.378432 0.378432 0.378432
0.386274 0.386274 0.386274
0.391176 0.391176 0.391176
0.405392 0.405392 0.405392
0.416666 0.416666 0.416666
0.428922 0.428922 0.428922
0.443137 0.443137 0.443137
0.460784 0.460784 0.460784
0.476471 0.476471 0.476471
0.498039 0.498039 0.498039
0.516667 0.516667 0.516667
0.547059 0.547059 0.547059
0.576470 0.576470 0.576470
0.439216 0.439216 0.439216
0.441176 0.441176 0.441176
0.441176 0.441176 0.441176
0.443137 0.443137 0.443137
0.445098 0.445098 0.445098
0.450980 0.450980 0.450980
0.460784 0.460784 0.460784
0.471569 0.471569 0.471569
0.476471 0.476471 0.476471
0.492157 0.492157 0.492157
0.500000 0.500000 0.500000
0.513725 0.513725 0.513725
0.533333 0.533333 0.533333
0.550000 0.550000 0.550000
0.566666 0.566666 0.566666
0.592157 0.592157 0.592157
0.619607 0.619607 0.619607
0.505882 0.505882 0.505882
0.508333 0.508333 0.508333
0.507843 0.507843 0.507843
0.512255 0.512255 0.512255
0.515686 0.515686 0.515686
0.521078 0.521078 0.521078
0.527451 0.527451 0.527451
0.535294 0.535294 0.535294
0.542157 0.542157 0.542157
0.553921 0.553921 0.553921
0.563725 0.563725 0.563725
0.575980 0.575980 0.575980
0.589216 0.589216 0.589216
0.604412 0.604412 0.604412
0.621569 0.621569 0.621569
0.643627 0.643627 0.643627
0.665686 0.665686 0.665686
0.574510 0.574510 0.574510
0.574510 0.574510 0.574510
0.578431 0.578431 0.578431
0.580392 0.580392 0.580392
0.582353 0.582353 0.582353
0.588235 0.588235 0.588235
0.594118 0.594118 0.594118
0.598039 0.598039 0.598039
0.603922 0.603922 0.603922
0.613725 0.613725 0.613725
0.625490 0.625490 0.625490
0.633333 0.633333 0.633333
0.643137 0.643137 0.643137
0.658824 0.658824 0.658824
0.668627 0.668627 0.668627
0.688235 0.688235 0.688235
0.707843 0.707843 0.707843
0.640196 0.640196 0.640196
0.643628 0.643628 0.643628
0.646079 0.646079 0.646079
0.645588 0.645588 0.645588
0.646079 0.646079 0.646079
0.651471 0.651471 0.651471
0.655882 0.655882 0.655882
0.660294 0.660294 0.660294
0.664706 0.664706 0.664706
0.670588 0.670588 0.670588
0.677451 0.677451 0.677451
0.687255 0.687255 0.687255
0.693137 0.693137 0.693137
0.708334 0.708334 0.708334
0.716666 0.716666 0.716666
0.732843 0.732843 0.732843
0.745098 0.745098 0.745098
0.700000 0.700000 0.700000
0.700000 0.700000 0.700000
0.703921 0.703921 0.703921
0.701961 0.701961 0.701961
0.703921 0.703921 0.703921
0.706862 0.706862 0.706862
0.711765 0.711765 0.711765
0.714705 0.714705 0.714705
0.719608 0.719608 0.719608
0.722549 0.722549 0.722549
0.727451 0.727451 0.727451
0.734314 0.734314 0.734314
0.745098 0.745098 0.745098
0.750980 0.750980 0.750980
0.758823 0.758823 0.758823
0.770588 0.770588 0.770588
0.782353 0.782353 0.782353
0.755883 0.755883 0.755883
0.755392 0.755392 0.755392
0.754902 0.754902 0.754902
0.756863 0.756863 0.756863
0.760784 0.760784 0.760784
0.760784 0.760784 0.760784
0.762745 0.762745 0.762745
0.764706 0.764706 0.764706
0.768628 0.768628 0.768628
0.770588 0.770588 0.770588
0.776470 0.776470 0.776470
0.782843 0.782843 0.782843
0.787255 0.787255 0.787255
0.792647 0.792647 0.792647
0.800000 0.800000 0.800000
0.808333 0.808333 0.808333
0.817647 0.817647 0.817647
0.801961 0.801961 0.801961
0.802941 0.802941 0.802941
0.801961 0.801961 0.801961
0.803922 0.803922 0.803922
0.803922 0.803922 0.803922
0.804902 0.804902 0.804902
0.807843 0.807843 0.807843
0.808823 0.808823 0.808823
0.811765 0.811765 0.811765
0.813725 0.813725 0.813725
0.815686 0.815686 0.815686
0.821568 0.821568 0.821568
0.823529 0.823529 0.823529
0.829412 0.829412 0.829412
0.835294 0.835294 0.835294
0.842157 0.842157 0.842157
0.850980 0.850980 0.850980
0.847059 0.847059 0.847059
0.850490 0.850490 0.850490
0.850000 0.850000 0.850000
0.848039 0.848039 0.848039
0.853921 0.853921 0.853921
0.851961 0.851961 0.851961
0.850980 0.850980 0.850980
0.853922 0.853922 0.853922
0.855882 0.855882 0.855882
0.856863 0.856863 0.856863
0.861765 0.861765 0.861765
0.864216 0.864216 0.864216
0.865686 0.865686 0.865686
0.869608 0.869608 0.869608
0.873530 0.873530 0.873530
0.879902 0.879902 0.879902
0.888235 0.888235 0.888235
0.896079 0.896079 0.896079
0.896079 0.896079 0.896079
0.896079 0.896079 0.896079
0.898039 0.898039 0.898039
0.898039 0.898039 0.898039
0.898039 0.898039 0.898039
0.898039 0.898039 0.898039
0.900980 0.900980 0.900980
0.901961 0.901961 0.901961
0.902941 0.902941 0.902941
0.905882 0.905882 0.905882
0.906862 0.906862 0.906862
0.909804 0.909804 0.909804
0.911764 0.911764 0.911764
0.915686 0.915686 0.915686
0.919608 0.919608 0.919608
0.925490 0.925490 0.925490
0.003922 0.003922 0.003922
0.007843 0.007843 0.007843
0.011765 0.011765 0.011765
0.013725 0.013725 0.013725
0.019608 0.019608 0.019608
0.025490 0.025490 0.025490
0.031373 0.031373 0.031373
0.041177 0.041177 0.041177
0.054902 0.054902 0.054902
0.072549 0.072549 0.072549
0.090196 0.090196 0.090196
0.113726 0.113726 0.113726
0.141176 0.141176 0.141176
0.174510 0.174510 0.174510
0.211765 0.211765 0.211765
0.258823 0.258823 0.258823
0.317647 0.317647 0.317647
0.043138 0.043138 0.043138
0.050000 0.050000 0.050000
0.058824 0.058824 0.058824
0.065686 0.065686 0.065686
0.068627 0.068627 0.068627
0.083334 0.083334 0.083334
0.090196 0.090196 0.090196
0.105882 0.105882 0.105882
0.117647 0.117647 0.117647
0.136274 0.136274 0.136274
0.156863 0.156863 0.156863
0.182353 0.182353 0.182353
0.209804 0.209804 0.209804
0.241177 0.241177 0.241177
0.276471 0.276471 0.276471
0.329412 0.329412 0.329412
0.374510 0.374510 0.374510
0.082353 0.082353 0.082353
0.092157 0.092157 0.092157
0.090196 0.090196 0.090196
0.100000 0.100000 0.100000
0.113725 0.113725 0.113725
0.121568 0.121568 0.121568
0.133333 0.133333 0.133333
0.145098 0.145098 0.145098
0.156863 0.156863 0.156863
0.174509 0.174509 0.174509
0.192157 0.192157 0.192157
0.223529 0.223529 0.223529
0.247059 0.247059 0.247059
0.280392 0.280392 0.280392
0.321569 0.321569 0.321569
0.364706 0.364706 0.364706
0.407843 0.407843 0.407843
0.133333 0.133333 0.133333
0.134314 0.134314 0.134314
0.137255 0.137255 0.137255
0.146078 0.146078 0.146078
0.152941 0.152941 0.152941
0.162745 0.162745 0.162745
0.172549 0.172549 0.172549
0.185294 0.185294 0.185294
0.200000 0.200000 0.200000
0.218627 0.218627 0.218627
0.235294 0.235294 0.235294
0.264706 0.264706 0.264706
0.296079 0.296079 0.296079
0.327451 0.327451 0.327451
0.358824 0.358824 0.358824
0.397058 0.397058 0.397058
0.437254 0.437254 0.437254
0.176471 0.176471 0.176471
0.184314 0.184314 0.184314
0.188235 0.188235 0.188235
0.190196 0.190196 0.190196
0.196078 0.196078 0.196078
0.207843 0.207843 0.207843
0.215686 0.215686 0.215686
0.229412 0.229412 0.229412
0.243137 0.243137 0.243137
0.262745 0.262745 0.262745
0.294118 0.294118 0.294118
0.315686 0.315686 0.315686
0.341176 0.341176 0.341176
0.364706 0.364706 0.364706
0.396078 0.396078 0.396078
0.429412 0.429412 0.429412
0.466667 0.466667 0.466667
0.237255 0.237255 0.237255
0.241176 0.241176 0.241176
0.245098 0.245098 0.245098
0.250000 0.250000 0.250000
0.256863 0.256863 0.256863
0.266667 0.266667 0.266667
0.274510 0.274510 0.274510
0.289216 0.289216 0.289216
0.301961 0.301961 0.301961
0.326470 0.326470 0.326470
0.343137 0.343137 0.343137
0.365686 0.365686 0.365686
0.384313 0.384313 0.384313
0.412745 0.412745 0.412745
0.439215 0.439215 0.439215
0.469608 0.469608 0.469608
0.505883 0.505883 0.505883
0.301961 0.301961 0.301961
0.305883 0.305883 0.305883
0.313725 0.313725 0.313725
0.311764 0.311764 0.311764
0.317647 0.317647 0.317647
0.327451 0.327451 0.327451
0.337255 0.337255 0.337255
0.349020 0.349020 0.349020
0.360784 0.360784 0.360784
0.378432 0.378432 0.378432
0.400000 0.400000 0.400000
0.413725 0.413725 0.413725
0.439216 0.439216 0.439216
0.454902 0.454902 0.454902
0.478431 0.478431 0.478431
0.505883 0.505883 0.505883
0.541176 0.541176 0.541176
0.372549 0.372549 0.372549
0.378432 0.378432 0.378432
0.380392 0.380392 0.380392
0.382353 0.382353 0.382353
0.394118 0.394118 0.394118
0.394118 0.394118 0.394118
0.403921 0.403921 0.403921
0.414706 0.414706 0.414706
0.423530 0.423530 0.423530
0.439216 0.439216 0.439216
0.450981 0.450981 0.450981
0.466667 0.466667 0.466667
0.482353 0.482353 0.482353
0.500000 0.500000 0.500000
0.525490 0.525490 0.525490
0.553921 0.553921 0.553921
0.580392 0.580392 0.580392
0.450980 0.450980 0.450980
0.447059 0.447059 0.447059
0.443137 0.443137 0.443137
0.452941 0.452941 0.452941
0.450980 0.450980 0.450980
0.464706 0.464706 0.464706
0.462745 0.462745 0.462745
0.476471 0.476471 0.476471
0.482353 0.482353 0.482353
0.494117 0.494117 0.494117
0.513725 0.513725 0.513725
0.521568 0.521568 0.521568
0.537255 0.537255 0.537255
0.558823 0.558823 0.558823
0.580392 0.580392 0.580392
0.598039 0.598039 0.598039
0.627451 0.627451 0.627451
0.515686 0.515686 0.515686
0.515686 0.515686 0.515686
0.521568 0.521568 0.521568
0.517647 0.517647 0.517647
0.519607 0.519607 0.519607
0.525490 0.525490 0.525490
0.539215 0.539215 0.539215
0.541176 0.541176 0.541176
0.552941 0.552941 0.552941
0.557843 0.557843 0.557843
0.566666 0.566666 0.566666
0.581373 0.581373 0.581373
0.598039 0.598039 0.598039
0.611765 0.611765 0.611765
0.629412 0.629412 0.629412
0.649020 0.649020 0.649020
0.666667 0.666667 0.666667
0.580392 0.580392 0.580392
0.580392 0.580392 0.580392
0.580392 0.580392 0.580392
0.584314 0.584314 0.584314
0.588235 0.588235 0.588235
0.590196 0.590196 0.590196
0.596078 0.596078 0.596078
0.601961 0.601961 0.601961
0.607843 0.607843 0.607843
0.619608 0.619608 0.619608
0.623529 0.623529 0.623529
0.637255 0.637255 0.637255
0.654902 0.654902 0.654902
0.660784 0.660784 0.660784
0.674510 0.674510 0.674510
0.692157 0.692157 0.692157
0.709804 0.709804 0.709804
0.650980 0.650980 0.650980
0.645098 0.645098 0.645098
0.645098 0.645098 0.645098
0.649020 0.649020 0.649020
0.650980 0.650980 0.650980
0.653922 0.653922 0.653922
0.654902 0.654902 0.654902
0.665686 0.665686 0.665686
0.672549 0.672549 0.672549
0.675490 0.675490 0.675490
0.680392 0.680392 0.680392
0.690196 0.690196 0.690196
0.700000 0.700000 0.700000
0.708824 0.708824 0.708824
0.723529 0.723529 0.723529
0.733333 0.733333 0.733333
0.747059 0.747059 0.747059
0.701961 0.701961 0.701961
0.701961 0.701961 0.701961
0.701961 0.701961 0.701961
0.705882 0.705882 0.705882
0.705882 0.705882 0.705882
0.713726 0.713726 0.713726
0.713725 0.713725 0.713725
0.715686 0.715686 0.715686
0.721569 0.721569 0.721569
0.725490 0.725490 0.725490
0.729412 0.729412 0.729412
0.739216 0.739216 0.739216
0.745098 0.745098 0.745098
0.752941 0.752941 0.752941
0.760784 0.760784 0.760784
0.772549 0.772549 0.772549
0.784314 0.784314 0.784314
0.760784 0.760784 0.760784
0.759804 0.759804 0.759804
0.758823 0.758823 0.758823
0.757843 0.757843 0.757843
0.758823 0.758823 0.758823
0.760784 0.760784 0.760784
0.768628 0.768628 0.768628
0.768628 0.768628 0.768628
0.770588 0.770588 0.770588
0.775490 0.775490 0.775490
0.778431 0.778431 0.778431
0.781373 0.781373 0.781373
0.786274 0.786274 0.786274
0.794118 0.794118 0.794118
0.800000 0.800000 0.800000
0.809804 0.809804 0.809804
0.823530 0.823530 0.823530
0.803922 0.803922 0.803922
0.803922 0.803922 0.803922
0.803922 0.803922 0.803922
0.803922 0.803922 0.803922
0.803922 0.803922 0.803922
0.809804 0.809804 0.809804
0.807843 0.807843 0.807843
0.811765 0.811765 0.811765
0.811765 0.811765 0.811765
0.815686 0.815686 0.815686
0.819608 0.819608 0.819608
0.821568 0.821568 0.821568
0.831373 0.831373 0.831373
0.833333 0.833333 0.833333
0.835294 0.835294 0.835294
0.845098 0.845098 0.845098
0.850980 0.850980 0.850980
0.849020 0.849020 0.849020
0.851961 0.851961 0.851961
0.849020 0.849020 0.849020
0.852941 0.852941 0.852941
0.850980 0.850980 0.850980
0.851961 0.851961 0.851961
0.852942 0.852942 0.852942
0.853922 0.853922 0.853922
0.858823 0.858823 0.858823
0.860784 0.860784 0.860784
0.860785 0.860785 0.860785
0.865686 0.865686 0.865686
0.872550 0.872550 0.872550
0.870588 0.870588 0.870588
0.876470 0.876470 0.876470
0.880392 0.880392 0.880392
0.888235 0.888235 0.888235
0.898039 0.898039 0.898039
0.898039 0.898039 0.898039
0.898039 0.898039 0.898039
0.898039 0.898039 0.898039
0.898039 0.898039 0.898039
0.898039 0.898039 0.898039
0.901961 0.901961 0.901961
0.901961 0.901961 0.901961
0.901961 0.901961 0.901961
0.903922 0.903922 0.903922
0.905882 0.905882 0.905882
0.907843 0.907843 0.907843
0.909804 0.909804 0.909804
0.913725 0.913725 0.913725
0.917647 0.917647 0.917647
0.921569 0.921569 0.921569
0.925490 0.925490 0.925490
0.007843 0.007843 0.007843
0.013725 0.013725 0.013725
0.017647 0.017647 0.017647
0.023529 0.023529 0.023529
0.029412 0.029412 0.029412
0.037255 0.037255 0.037255
0.043137 0.043137 0.043137
0.054902 0.054902 0.054902
0.068628 0.068628 0.068628
0.086275 0.086275 0.086275
0.107843 0.107843 0.107843
0.130392 0.130392 0.130392
0.154902 0.154902 0.154902
0.191176 0.191176 0.191176
0.225490 0.225490 0.225490
0.278431 0.278431 0.278431
0.335294 0.335294 0.335294
0.057843 0.057843 0.057843
0.064216 0.064216 0.064216
0.070588 0.070588 0.070588
