luts/Classic Noir 50 BW.CUBE
# kravix mobile - LUTs Pack
LUT_3D_SIZE 5
0.000000 0.000000 0.000000
0.003922 0.003922 0.003922
0.023529 0.023529 0.023529
0.098039 0.098039 0.098039
0.266667 0.266667 0.266667
0.149020 0.149020 0.149020
0.176471 0.176471 0.176471
0.219608 0.219608 0.219608
0.313725 0.313725 0.313725
0.450980 0.450980 0.450980
0.427451 0.427451 0.427451
0.439216 0.439216 0.439216
0.470588 0.470588 0.470588
0.525490 0.525490 0.525490
0.615686 0.615686 0.615686
0.698039 0.698039 0.698039
0.701961 0.701961 0.701961
0.713725 0.713725 0.713725
0.737255 0.737255 0.737255
0.780392 0.780392 0.780392
0.894118 0.894118 0.894118
0.898039 0.898039 0.898039
0.901961 0.901961 0.901961
0.909804 0.909804 0.909804
0.925490 0.925490 0.925490
0.015686 0.015686 0.015686
0.039216 0.039216 0.039216
0.086275 0.086275 0.086275
0.172549 0.172549 0.172549
0.349020 0.349020 0.349020
0.211765 0.211765 0.211765
0.227451 0.227451 0.227451
0.278431 0.278431 0.278431
0.364706 0.364706 0.364706
0.494118 0.494118 0.494118
0.470588 0.470588 0.470588
0.482353 0.482353 0.482353
0.505882 0.505882 0.505882
0.560784 0.560784 0.560784
0.643137 0.643137 0.643137
0.713725 0.713725 0.713725
0.721569 0.721569 0.721569
0.729412 0.729412 0.729412
0.752941 0.752941 0.752941
0.792157 0.792157 0.792157
0.901961 0.901961 0.901961
0.901961 0.901961 0.901961
0.905882 0.905882 0.905882
0.913725 0.913725 0.913725
0.929412 0.929412 0.929412
0.070588 0.070588 0.070588
0.109804 0.109804 0.109804
0.164706 0.164706 0.164706
0.258824 0.258824 0.258824
0.423529 0.423529 0.423529
0.298039 0.298039 0.298039
0.329412 0.329412 0.329412
0.372549 0.372549 0.372549
0.439216 0.439216 0.439216
0.549020 0.549020 0.549020
0.533333 0.533333 0.533333
0.549020 0.549020 0.549020
0.568627 0.568627 0.568627
0.615686 0.615686 0.615686
0.686275 0.686275 0.686275
0.749020 0.749020 0.749020
0.752941 0.752941 0.752941
0.760784 0.760784 0.760784
0.784314 0.784314 0.784314
0.815686 0.815686 0.815686
0.913725 0.913725 0.913725
0.917647 0.917647 0.917647
0.921569 0.921569 0.921569
0.929412 0.929412 0.929412
0.945098 0.945098 0.945098
0.196078 0.196078 0.196078
0.243137 0.243137 0.243137
0.305882 0.305882 0.305882
0.396078 0.396078 0.396078
0.521569 0.521569 0.521569
0.431373 0.431373 0.431373
0.447059 0.447059 0.447059
0.486275 0.486275 0.486275
0.541176 0.541176 0.541176
0.635294 0.635294 0.635294
0.623529 0.623529 0.623529
0.631373 0.631373 0.631373
0.650980 0.650980 0.650980
0.686275 0.686275 0.686275
0.741176 0.741176 0.741176
0.796078 0.796078 0.796078
0.792157 0.792157 0.792157
0.803922 0.803922 0.803922
0.819608 0.819608 0.819608
0.847059 0.847059 0.847059
0.933333 0.933333 0.933333
0.937255 0.937255 0.937255
0.941176 0.941176 0.941176
0.945098 0.945098 0.945098
0.960784 0.960784 0.960784
0.400000 0.400000 0.400000
0.435294 0.435294 0.435294
0.482353 0.482353 0.482353
0.541176 0.541176 0.541176
0.639216 0.639216 0.639216
0.580392 0.580392 0.580392
0.592157 0.592157 0.592157
0.623529 0.623529 0.623529
0.666667 0.666667 0.666667
0.725490 0.725490 0.725490
0.729412 0.729412 0.729412
0.737255 0.737255 0.737255
0.745098 0.745098 0.745098
0.772549 0.772549 0.772549
0.811765 0.811765 0.811765
0.847059 0.847059 0.847059
0.847059 0.847059 0.847059
0.854902 0.854902 0.854902
0.866667 0.866667 0.866667
0.890196 0.890196 0.890196
0.968627 0.968627 0.968627
0.968627 0.968627 0.968627
0.972549 0.972549 0.972549
0.980392 0.980392 0.980392
1.000000 1.000000 1.000000
