luts/Deep_Onyx_BW.CUBE
# kravix mobile - LUTs Pack
LUT_3D_SIZE 17
0.000000 0.000000 0.000000
0.008484 0.008484 0.008484
0.017944 0.017944 0.017944
0.030579 0.030579 0.030579
0.048462 0.048462 0.048462
0.068451 0.068451 0.068451
0.090332 0.090332 0.090332
0.113770 0.113770 0.113770
0.138916 0.138916 0.138916
0.165283 0.165283 0.165283
0.192993 0.192993 0.192993
0.221832 0.221832 0.221832
0.251617 0.251617 0.251617
0.282257 0.282257 0.282227
0.313629 0.313629 0.313568
0.345490 0.345520 0.345428
0.377655 0.377747 0.377655
0.010895 0.010895 0.010895
0.021027 0.021027 0.021027
0.034973 0.034973 0.034973
0.053406 0.053406 0.053406
0.073975 0.073975 0.073975
0.096375 0.096375 0.096375
0.120178 0.120178 0.120178
0.145599 0.145599 0.145599
0.172394 0.172394 0.172394
0.200348 0.200348 0.200348
0.229492 0.229492 0.229492
0.259552 0.259552 0.259552
0.290344 0.290344 0.290314
0.321808 0.321838 0.321747
0.353638 0.353729 0.353638
0.386047 0.386139 0.386047
0.418304 0.418396 0.418304
0.024048 0.024048 0.024048
0.039551 0.039551 0.039551
0.058594 0.058594 0.058594
0.079651 0.079651 0.079651
0.102295 0.102295 0.102295
0.126648 0.126648 0.126648
0.152374 0.152374 0.152374
0.179443 0.179443 0.179443
0.207733 0.207733 0.207733
0.237061 0.237061 0.237061
0.267334 0.267334 0.267334
0.298340 0.298340 0.298309
0.329987 0.330048 0.329926
0.362000 0.362091 0.361969
0.394287 0.394348 0.394287
0.426636 0.426727 0.426636
0.458923 0.459015 0.458923
0.044067 0.044067 0.044067
0.063904 0.063904 0.063904
0.085297 0.085297 0.085297
0.108551 0.108551 0.108551
0.133148 0.133148 0.133148
0.159241 0.159241 0.159241
0.186676 0.186676 0.186676
0.215271 0.215271 0.215271
0.244812 0.244812 0.244812
0.275330 0.275330 0.275330
0.306488 0.306488 0.306427
0.338257 0.338287 0.338196
0.370331 0.370422 0.370331
0.402679 0.402771 0.402679
0.435028 0.435120 0.435028
0.467255 0.467316 0.467255
0.499176 0.499237 0.499146
0.069092 0.069092 0.069092
0.091034 0.091034 0.091034
0.114624 0.114624 0.114624
0.139740 0.139740 0.139740
0.166168 0.166168 0.166168
0.193878 0.193878 0.193878
0.222809 0.222809 0.222809
0.252594 0.252594 0.252594
0.283295 0.283295 0.283264
0.314575 0.314606 0.314545
0.346436 0.346527 0.346405
0.378601 0.378693 0.378601
0.411011 0.411102 0.411011
0.443298 0.443390 0.443298
0.475525 0.475586 0.475525
0.507263 0.507324 0.507233
0.538330 0.538391 0.538300
0.096954 0.096954 0.096954
0.121033 0.121033 0.121033
0.146393 0.146393 0.146393
0.173248 0.173248 0.173248
0.201263 0.201263 0.201263
0.230469 0.230469 0.230469
0.260437 0.260437 0.260437
0.291321 0.291321 0.291290
0.322784 0.322845 0.322754
0.354706 0.354767 0.354675
0.386963 0.387054 0.386963
0.419342 0.419434 0.419342
0.451691 0.451752 0.451691
0.483704 0.483795 0.483704
0.515320 0.515381 0.515289
0.546265 0.546356 0.546234
0.576355 0.576447 0.576355
0.127380 0.127380 0.127380
0.153229 0.153229 0.153229
0.180298 0.180298 0.180298
0.208679 0.208679 0.208679
0.238007 0.238007 0.238007
0.268311 0.268311 0.268311
0.299377 0.299408 0.299347
0.330933 0.330994 0.330902
0.362976 0.363068 0.362976
0.395264 0.395355 0.395264
0.427643 0.427734 0.427643
0.459900 0.459991 0.459900
0.491882 0.491943 0.491852
0.523315 0.523376 0.523285
0.554047 0.554138 0.554016
0.583954 0.584045 0.583954
0.613037 0.613129 0.613037
0.159973 0.159973 0.159973
0.187561 0.187561 0.187561
0.216095 0.216095 0.216095
0.245758 0.245758 0.245758
0.276215 0.276215 0.276215
0.307434 0.307465 0.307404
0.339172 0.339233 0.339142
0.371277 0.371368 0.371277
0.403625 0.403717 0.403625
0.435974 0.436035 0.435974
0.468201 0.468262 0.468201
0.500000 0.500061 0.500000
0.531342 0.531403 0.531311
0.561798 0.561890 0.561798
0.591553 0.591675 0.591553
0.620331 0.620453 0.620331
0.648285 0.648376 0.648254
0.194885 0.194885 0.194885
0.223724 0.223724 0.223724
0.253510 0.253510 0.253510
0.284210 0.284210 0.284180
0.315552 0.315582 0.315521
0.347443 0.347534 0.347443
0.379608 0.379700 0.379608
0.411957 0.412048 0.411957
0.444305 0.444366 0.444305
0.476379 0.476440 0.476349
0.508087 0.508148 0.508087
0.539215 0.539276 0.539185
0.569550 0.569611 0.569519
0.598969 0.599060 0.598969
0.627625 0.627716 0.627625
0.655365 0.655457 0.655334
0.682220 0.682343 0.682190
0.231445 0.231445 0.231445
0.261505 0.261505 0.261505
0.292267 0.292267 0.292236
0.323761 0.323792 0.323700
0.355682 0.355743 0.355652
0.387909 0.388000 0.387909
0.420319 0.420410 0.420319
0.452606 0.452667 0.452606
0.484589 0.484650 0.484589
0.516144 0.516235 0.516113
0.547089 0.547180 0.547058
0.577148 0.577240 0.577118
0.606415 0.606506 0.606415
0.634796 0.634888 0.634796
0.662323 0.662415 0.662292
0.688934 0.689056 0.688934
0.714661 0.714783 0.714630
0.269501 0.269501 0.269501
0.300568 0.300568 0.300537
0.332001 0.332062 0.331970
0.364044 0.364136 0.364044
0.396301 0.396393 0.396301
0.428650 0.428711 0.428650
0.460876 0.460938 0.460876
0.492798 0.492859 0.492798
0.524231 0.524323 0.524200
0.554901 0.554993 0.554871
0.584747 0.584839 0.584747
0.613770 0.613861 0.613770
0.641968 0.642059 0.641937
0.669281 0.669373 0.669250
0.695679 0.695770 0.695648
0.721130 0.721222 0.721130
0.745667 0.745789 0.745636
0.308655 0.308655 0.308594
0.340485 0.340576 0.340454
0.372406 0.372498 0.372406
0.404694 0.404785 0.404694
0.437012 0.437103 0.437012
0.469208 0.469269 0.469208
0.500977 0.501068 0.500977
0.532227 0.532288 0.532166
0.562714 0.562805 0.562683
0.592316 0.592438 0.592316
0.621094 0.621216 0.621094
0.649078 0.649170 0.649078
0.676117 0.676208 0.676086
0.702209 0.702332 0.702209
0.727509 0.727631 0.727478
0.751801 0.751923 0.751770
0.775116 0.775208 0.775085
0.348877 0.348907 0.348816
0.380951 0.381042 0.380951
0.413147 0.413239 0.413147
0.445374 0.445465 0.445374
0.477448 0.477539 0.477448
0.509186 0.509277 0.509186
0.540222 0.540314 0.540192
0.570465 0.570557 0.570435
0.599854 0.599945 0.599823
0.628418 0.628510 0.628418
0.656128 0.656219 0.656097
0.682953 0.683044 0.682922
0.708801 0.708923 0.708801
0.733826 0.733917 0.733795
0.757874 0.757996 0.757874
0.780975 0.781097 0.780945
0.803070 0.803192 0.803040
0.389343 0.389435 0.389343
0.421783 0.421875 0.421783
0.453888 0.453979 0.453888
0.485840 0.485901 0.485840
0.517303 0.517365 0.517273
0.548126 0.548218 0.548096
0.578125 0.578217 0.578094
0.607361 0.607452 0.607361
0.635681 0.635773 0.635681
0.663147 0.663239 0.663116
0.689728 0.689850 0.689697
0.715424 0.715546 0.715424
0.740082 0.740204 0.740082
0.763855 0.763977 0.763824
0.786743 0.786835 0.786713
0.808533 0.808655 0.808533
0.829376 0.829498 0.829346
0.430328 0.430420 0.430328
0.462708 0.462799 0.462708
0.494110 0.494171 0.494110
0.525421 0.525482 0.525391
0.556030 0.556122 0.556000
0.585846 0.585968 0.585846
0.614716 0.614838 0.614716
0.642914 0.643005 0.642883
0.670135 0.670227 0.670105
0.696442 0.696564 0.696442
0.721893 0.721985 0.721863
0.746368 0.746460 0.746338
0.769928 0.770050 0.769897
0.792450 0.792572 0.792450
0.814026 0.814148 0.813995
0.834564 0.834686 0.834534
0.853973 0.854065 0.853943
0.471161 0.471222 0.471161
0.502808 0.502869 0.502777
0.533539 0.533600 0.533508
0.563904 0.563995 0.563873
0.593475 0.593567 0.593475
0.622192 0.622284 0.622192
0.649994 0.650085 0.649994
0.677032 0.677124 0.677002
0.703125 0.703247 0.703125
0.728333 0.728424 0.728302
0.752563 0.752686 0.752563
0.775818 0.775940 0.775787
0.798126 0.798248 0.798096
0.819397 0.819550 0.819397
0.839600 0.839722 0.839569
0.858765 0.858887 0.858734
0.876831 0.876953 0.876831
0.511444 0.511505 0.511414
0.542206 0.542328 0.542206
0.571869 0.571960 0.571869
0.601135 0.601257 0.601135
0.629578 0.629669 0.629547
0.657166 0.657257 0.657135
0.683899 0.683990 0.683868
0.709778 0.709900 0.709778
0.734711 0.734833 0.734711
0.758698 0.758789 0.758667
0.781738 0.781860 0.781738
0.803741 0.803864 0.803711
0.824768 0.824890 0.824738
0.844727 0.844849 0.844666
0.863556 0.863708 0.863556
0.881256 0.881409 0.881226
0.897858 0.898010 0.897858
0.005035 0.005035 0.005035
0.014099 0.014099 0.014099
0.025177 0.025177 0.025177
0.040863 0.040863 0.040863
0.060211 0.060211 0.060211
0.081390 0.081390 0.081390
0.104248 0.104248 0.104248
0.128723 0.128723 0.128723
0.154572 0.154572 0.154572
0.181824 0.181824 0.181824
0.210144 0.210144 0.210144
0.239624 0.239624 0.239624
0.269958 0.269958 0.269958
0.301117 0.301117 0.301056
0.332794 0.332825 0.332733
0.364746 0.364868 0.364746
0.397156 0.397247 0.397156
0.016785 0.016785 0.016785
0.028870 0.028870 0.028870
0.046051 0.046051 0.046051
0.065643 0.065643 0.065643
0.087250 0.087250 0.087250
0.110626 0.110626 0.110626
0.135284 0.135284 0.135284
0.161530 0.161530 0.161530
0.189117 0.189117 0.189117
0.217712 0.217712 0.217712
0.247467 0.247467 0.247467
0.277954 0.277954 0.277954
0.309296 0.309296 0.309235
0.341003 0.341064 0.340973
0.373016 0.373108 0.373016
0.405518 0.405609 0.405518
0.437775 0.437866 0.437775
0.032593 0.032593 0.032593
0.050690 0.050690 0.050690
0.071136 0.071136 0.071136
0.093109 0.093109 0.093109
0.116791 0.116791 0.116791
0.141998 0.141998 0.141998
0.168518 0.168518 0.168518
0.196320 0.196320 0.196320
0.225281 0.225281 0.225281
0.255219 0.255219 0.255219
0.285919 0.285919 0.285889
0.317322 0.317352 0.317291
0.349213 0.349274 0.349152
0.381470 0.381561 0.381470
0.413757 0.413849 0.413757
0.446106 0.446198 0.446106
0.478271 0.478333 0.478271
0.055603 0.055603 0.055603
0.076630 0.076630 0.076630
0.099091 0.099091 0.099091
0.123199 0.123199 0.123199
0.148712 0.148712 0.148712
0.175629 0.175629 0.175629
0.203766 0.203766 0.203766
0.232971 0.232971 0.232971
0.263062 0.263062 0.263062
0.294006 0.294006 0.293976
0.325531 0.325592 0.325500
0.357544 0.357605 0.357513
0.389771 0.389862 0.389771
0.422089 0.422211 0.422089
0.454437 0.454529 0.454437
0.486511 0.486572 0.486511
0.518005 0.518066 0.517975
0.082001 0.082001 0.082001
0.105194 0.105194 0.105194
0.129547 0.129547 0.129547
0.155518 0.155518 0.155518
0.182770 0.182770 0.182770
0.211182 0.211182 0.211182
0.240601 0.240601 0.240601
0.270966 0.270966 0.270966
0.302063 0.302063 0.302032
0.333710 0.333771 0.333679
0.365784 0.365845 0.365753
0.398071 0.398163 0.398071
0.430481 0.430542 0.430481
0.462708 0.462769 0.462708
0.494629 0.494720 0.494629
0.526031 0.526093 0.526001
0.556671 0.556763 0.556641
0.111237 0.111237 0.111237
0.136139 0.136139 0.136139
0.162445 0.162445 0.162445
0.190002 0.190002 0.190002
0.218658 0.218658 0.218658
0.248383 0.248383 0.248383
0.278900 0.278900 0.278900
0.310211 0.310211 0.310150
0.341919 0.342010 0.341888
0.374084 0.374176 0.374084
0.406403 0.406525 0.406403
0.438782 0.438873 0.438782
0.470978 0.471039 0.470978
0.502808 0.502869 0.502777
0.533997 0.534088 0.533966
0.564453 0.564545 0.564453
0.594055 0.594177 0.594055
0.142670 0.142670 0.142670
0.169403 0.169403 0.169403
0.197266 0.197266 0.197266
0.226257 0.226257 0.226257
0.256165 0.256165 0.256165
0.286926 0.286926 0.286926
0.318359 0.318390 0.318298
0.350189 0.350281 0.350159
0.382385 0.382477 0.382385
0.414734 0.414825 0.414734
0.447083 0.447174 0.447083
0.479187 0.479248 0.479187
0.510834 0.510895 0.510834
0.541870 0.541962 0.541840
0.572144 0.572205 0.572113
0.601532 0.601624 0.601532
0.630035 0.630127 0.630035
0.176483 0.176483 0.176483
0.204681 0.204681 0.204681
0.233856 0.233856 0.233856
0.264069 0.264069 0.264069
0.294983 0.294983 0.294952
0.326508 0.326538 0.326447
0.358490 0.358582 0.358459
0.390747 0.390839 0.390747
0.423096 0.423187 0.423096
0.455353 0.455444 0.455353
0.487366 0.487427 0.487366
0.518890 0.518982 0.518860
0.549713 0.549805 0.549683
0.579773 0.579865 0.579742
0.608917 0.609009 0.608917
0.637238 0.637329 0.637238
0.664673 0.664764 0.664642
0.212128 0.212128 0.212128
0.241730 0.241730 0.241730
0.271912 0.271912 0.271912
0.303070 0.303101 0.303040
0.334686 0.334747 0.334656
0.366730 0.366821 0.366730
0.399048 0.399139 0.399048
0.431427 0.431488 0.431427
0.463654 0.463715 0.463654
0.495544 0.495605 0.495514
0.526886 0.526978 0.526855
0.557526 0.557617 0.557495
0.587311 0.587402 0.587311
0.616302 0.616394 0.616272
0.644348 0.644470 0.644348
0.671600 0.671692 0.671570
0.697906 0.698029 0.697876
0.249390 0.249390 0.249390
0.280029 0.280029 0.280029
0.311218 0.311218 0.311157
0.342957 0.343018 0.342926
0.375031 0.375122 0.375031
0.407379 0.407471 0.407379
0.439697 0.439789 0.439697
0.471893 0.471985 0.471893
0.503662 0.503723 0.503632
0.534821 0.534912 0.534821
0.565216 0.565308 0.565216
0.594818 0.594910 0.594818
0.623566 0.623688 0.623566
0.651459 0.651550 0.651428
0.678436 0.678528 0.678406
0.704498 0.704620 0.704498
0.729675 0.729797 0.729645
0.287994 0.287994 0.287964
0.319550 0.319580 0.319519
0.351257 0.351318 0.351196
0.383423 0.383514 0.383423
0.415771 0.415833 0.415771
0.448090 0.448151 0.448090
0.480133 0.480225 0.480133
0.511780 0.511841 0.511749
0.542755 0.542816 0.542725
0.572937 0.573029 0.572937
0.602295 0.602386 0.602295
0.630798 0.630890 0.630768
0.658447 0.658539 0.658417
0.685211 0.685303 0.685181
0.711060 0.711151 0.711029
0.735962 0.736084 0.735962
0.759949 0.760071 0.759918
0.327698 0.327728 0.327637
0.359833 0.359924 0.359833
0.391785 0.391876 0.391785
0.424164 0.424255 0.424164
0.456421 0.456482 0.456421
0.488373 0.488464 0.488373
0.519836 0.519897 0.519806
0.550659 0.550720 0.550629
0.580627 0.580719 0.580597
0.609741 0.609833 0.609741
0.638031 0.638123 0.638000
0.665344 0.665466 0.665344
0.691956 0.692047 0.691925
0.717529 0.717621 0.717499
0.742218 0.742340 0.742188
0.765961 0.766083 0.765930
0.788666 0.788788 0.788635
0.368256 0.368347 0.368256
0.400391 0.400482 0.400391
0.432556 0.432648 0.432556
0.464783 0.464844 0.464783
0.496582 0.496643 0.496582
0.527893 0.527954 0.527863
0.558502 0.558594 0.558472
0.588226 0.588318 0.588226
0.617157 0.617249 0.617157
0.645172 0.645264 0.645142
0.672333 0.672424 0.672333
0.698608 0.698730 0.698608
0.723969 0.724060 0.723938
0.748383 0.748505 0.748352
0.771881 0.772003 0.771851
0.794342 0.794464 0.794342
0.815796 0.815918 0.815765
0.408905 0.408997 0.408905
0.441193 0.441254 0.441193
0.473114 0.473175 0.473114
0.504822 0.504883 0.504791
0.535919 0.535980 0.535889
0.566315 0.566406 0.566284
0.595825 0.595947 0.595825
0.624481 0.624573 0.624481
0.652313 0.652405 0.652283
0.679199 0.679321 0.679199
0.705231 0.705353 0.705231
0.730347 0.730469 0.730347
0.754517 0.754608 0.754486
0.777679 0.777802 0.777649
0.799957 0.800079 0.799957
0.821167 0.821320 0.821167
0.841309 0.841431 0.841278
0.449738 0.449829 0.449738
0.481628 0.481689 0.481628
0.513092 0.513153 0.513062
0.543976 0.544067 0.543945
0.574066 0.574158 0.574036
0.603333 0.603455 0.603333
0.631744 0.631866 0.631744
0.659363 0.659454 0.659363
0.686066 0.686157 0.686035
0.711884 0.711975 0.711853
0.736725 0.736816 0.736694
0.760590 0.760712 0.760590
0.783539 0.783661 0.783508
0.805542 0.805664 0.805511
0.826447 0.826569 0.826385
0.846313 0.846436 0.846283
0.865112 0.865234 0.865082
0.490448 0.490509 0.490448
0.521515 0.521576 0.521484
0.551971 0.552063 0.551941
0.581757 0.581848 0.581726
0.610779 0.610901 0.610779
0.639038 0.639130 0.639008
0.666382 0.666473 0.666351
0.692841 0.692963 0.692810
0.718384 0.718506 0.718384
0.743011 0.743134 0.742981
0.766602 0.766724 0.766602
0.789337 0.789459 0.789337
0.811035 0.811157 0.811005
0.831696 0.831818 0.831665
0.851257 0.851379 0.851227
0.869720 0.869843 0.869720
0.887085 0.887238 0.887054
0.529724 0.529785 0.529694
0.560394 0.560486 0.560364
0.589600 0.589722 0.589600
0.618286 0.618408 0.618286
0.646240 0.646332 0.646240
0.673370 0.673462 0.673340
0.699585 0.699677 0.699554
0.724915 0.725006 0.724884
0.749207 0.749329 0.749207
0.772644 0.772766 0.772614
0.795044 0.795197 0.795044
0.816528 0.816650 0.816498
0.836884 0.837006 0.836853
0.856171 0.856323 0.856171
0.874359 0.874481 0.874329
0.891357 0.891510 0.891357
0.907227 0.907349 0.907196
0.010437 0.010437 0.010437
0.020294 0.020294 0.020294
0.034088 0.034088 0.034088
0.052338 0.052338 0.052338
0.072693 0.072693 0.072693
0.094940 0.094940 0.094940
0.118713 0.118713 0.118713
0.144104 0.144104 0.144104
0.170746 0.170746 0.170746
0.198669 0.198669 0.198669
0.227722 0.227722 0.227722
0.257721 0.257721 0.257721
0.288544 0.288544 0.288513
0.320007 0.320007 0.319946
0.351898 0.351990 0.351898
0.384155 0.384247 0.384155
0.416534 0.416626 0.416534
0.023315 0.023315 0.023315
0.038818 0.038818 0.038818
0.057434 0.057434 0.057434
0.078369 0.078369 0.078369
0.101135 0.101135 0.101135
0.125244 0.125244 0.125244
0.150909 0.150909 0.150909
0.177887 0.177887 0.177887
0.206146 0.206146 0.206146
0.235443 0.235443 0.235443
0.265625 0.265625 0.265625
0.296631 0.296631 0.296600
0.328156 0.328217 0.328125
0.360229 0.360321 0.360229
0.392456 0.392548 0.392456
0.424866 0.424957 0.424866
0.457153 0.457214 0.457153
0.043091 0.043091 0.043091
0.062653 0.062653 0.062653
0.084076 0.084076 0.084076
0.107178 0.107178 0.107178
0.131744 0.131744 0.131744
0.157745 0.157745 0.157745
0.185089 0.185089 0.185089
0.213562 0.213562 0.213562
0.243103 0.243103 0.243103
0.273560 0.273560 0.273560
0.304657 0.304688 0.304626
0.336365 0.336426 0.336304
0.368469 0.368561 0.368469
0.400787 0.400879 0.400787
0.433167 0.433228 0.433167
0.465393 0.465454 0.465393
0.497192 0.497253 0.497192
0.067963 0.067963 0.067963
0.089966 0.089966 0.089966
0.113373 0.113373 0.113373
0.138397 0.138397 0.138397
0.164703 0.164703 0.164703
0.192383 0.192383 0.192383
0.221130 0.221130 0.221130
0.250916 0.250916 0.250916
0.281525 0.281525 0.281525
0.312805 0.312836 0.312775
0.344604 0.344696 0.344604
0.376801 0.376892 0.376801
0.409149 0.409210 0.409149
0.441528 0.441620 0.441528
0.473663 0.473755 0.473663
0.505432 0.505493 0.505402
0.536621 0.536713 0.536591
0.095612 0.095612 0.095612
0.119598 0.119598 0.119598
0.144897 0.144897 0.144897
0.171692 0.171692 0.171692
0.199677 0.199677 0.199677
0.228729 0.228729 0.228729
0.258728 0.258728 0.258728
0.289490 0.289490 0.289459
0.320953 0.320984 0.320892
0.352844 0.352936 0.352844
0.385101 0.385193 0.385101
0.417450 0.417542 0.417450
0.449799 0.449860 0.449799
0.481873 0.481934 0.481873
0.513489 0.513550 0.513458
0.544464 0.544556 0.544434
0.574646 0.574738 0.574615
0.125946 0.125946 0.125946
0.151794 0.151794 0.151794
0.178741 0.178741 0.178741
0.207062 0.207062 0.207062
0.236389 0.236389 0.236389
0.266602 0.266602 0.266602
0.297577 0.297607 0.297546
0.329163 0.329224 0.329132
0.361145 0.361237 0.361145
0.393433 0.393524 0.393433
0.425812 0.425903 0.425812
0.458099 0.458160 0.458099
0.490051 0.490112 0.490051
0.521515 0.521576 0.521484
0.552338 0.552399 0.552307
0.582275 0.582367 0.582245
0.611328 0.611450 0.611328
0.158508 0.158508 0.158508
0.185913 0.185913 0.185913
0.214478 0.214478 0.214478
0.244080 0.244080 0.244080
0.274506 0.274506 0.274506
0.305664 0.305695 0.305634
0.337341 0.337402 0.337311
0.369415 0.369507 0.369415
0.401733 0.401825 0.401733
0.434113 0.434204 0.434113
0.466309 0.466400 0.466309
0.498169 0.498260 0.498169
0.529510 0.529572 0.529480
0.560089 0.560150 0.560059
0.589813 0.589905 0.589783
0.618683 0.618774 0.618683
0.646698 0.646790 0.646698
0.193207 0.193207 0.193207
0.222107 0.222107 0.222107
0.251862 0.251862 0.251862
0.282471 0.282471 0.282471
0.313751 0.313812 0.313721
0.345581 0.345673 0.345581
0.377747 0.377838 0.377747
0.410126 0.410187 0.410126
0.442444 0.442535 0.442444
0.474548 0.474640 0.474548
0.506317 0.506378 0.506287
0.537415 0.537476 0.537384
0.567810 0.567902 0.567780
0.597290 0.597382 0.597260
0.625977 0.626068 0.625977
0.653778 0.653870 0.653748
0.680664 0.680786 0.680634
0.229706 0.229706 0.229706
0.259735 0.259735 0.259735
0.290466 0.290466 0.290405
0.321960 0.321991 0.321899
0.353821 0.353912 0.353790
0.386078 0.386169 0.386078
0.418427 0.418518 0.418427
0.450745 0.450806 0.450745
0.482758 0.482819 0.482758
0.514343 0.514435 0.514343
0.545288 0.545380 0.545258
0.575439 0.575531 0.575409
0.604736 0.604828 0.604736
0.633179 0.633270 0.633148
0.660767 0.660858 0.660736
0.687439 0.687561 0.687439
0.713196 0.713318 0.713196
0.267700 0.267700 0.267700
0.298737 0.298737 0.298706
0.330139 0.330200 0.330109
0.362122 0.362213 0.362122
0.394409 0.394501 0.394409
0.426788 0.426880 0.426788
0.459015 0.459106 0.459015
0.490967 0.491028 0.490936
0.522369 0.522461 0.522369
0.553101 0.553192 0.553070
0.583038 0.583130 0.583008
0.612122 0.612213 0.612122
0.640350 0.640442 0.640320
0.667664 0.667786 0.667633
0.694122 0.694244 0.694122
0.719666 0.719757 0.719666
0.744232 0.744324 0.744202
0.306854 0.306854 0.306824
0.338593 0.338623 0.338531
0.370483 0.370575 0.370483
0.402863 0.402924 0.402863
0.435120 0.435181 0.435120
0.467316 0.467377 0.467316
0.499115 0.499176 0.499115
0.530396 0.530487 0.530365
0.560944 0.561005 0.560913
0.590607 0.590698 0.590576
0.619415 0.619507 0.619415
0.647400 0.647491 0.647400
0.674561 0.674652 0.674530
0.700775 0.700867 0.700745
0.726044 0.726166 0.726013
0.750397 0.750519 0.750397
0.773773 0.773895 0.773773
0.346985 0.347046 0.346924
0.379028 0.379120 0.379028
0.411255 0.411346 0.411255
0.443512 0.443604 0.443512
0.475586 0.475677 0.475586
0.507294 0.507355 0.507263
0.538361 0.538452 0.538330
0.568665 0.568756 0.568634
0.598145 0.598236 0.598145
0.626740 0.626831 0.626709
0.654480 0.654572 0.654449
0.681366 0.681458 0.681335
0.707336 0.707458 0.707336
0.732391 0.732483 0.732361
0.756500 0.756622 0.756470
0.779633 0.779755 0.779602
0.801788 0.801910 0.801758
0.387390 0.387482 0.387390
0.419800 0.419861 0.419800
0.451904 0.451996 0.451904
0.483856 0.483917 0.483856
0.515381 0.515442 0.515381
0.546326 0.546387 0.546295
0.576385 0.576477 0.576355
0.605621 0.605743 0.605621
0.634003 0.634094 0.634003
0.661530 0.661621 0.661499
0.688141 0.688263 0.688141
0.713867 0.713989 0.713837
0.738647 0.738770 0.738647
0.762512 0.762634 0.762482
0.785400 0.785522 0.785400
0.807312 0.807434 0.807281
0.828156 0.828278 0.828125
0.428314 0.428375 0.428314
0.460541 0.460632 0.460541
0.492218 0.492310 0.492218
0.523529 0.523590 0.523499
0.554199 0.554291 0.554169
0.584045 0.584137 0.584045
0.613037 0.613129 0.613037
0.641205 0.641296 0.641205
0.668518 0.668610 0.668488
0.694885 0.694977 0.694855
0.720367 0.720459 0.720337
0.744934 0.745026 0.744904
0.768494 0.768616 0.768463
0.791138 0.791260 0.791107
0.812744 0.812866 0.812714
0.833313 0.833435 0.833282
0.852814 0.852936 0.852783
0.469116 0.469208 0.469116
0.500610 0.500671 0.500580
0.531677 0.531769 0.531647
0.562073 0.562164 0.562073
0.591675 0.591766 0.591675
0.620453 0.620544 0.620453
0.648346 0.648468 0.648346
0.675446 0.675537 0.675415
0.701599 0.701691 0.701569
0.726807 0.726929 0.726776
0.751099 0.751221 0.751099
0.774445 0.774536 0.774414
0.796814 0.796936 0.796814
0.818146 0.818237 0.818115
0.838470 0.838593 0.838440
0.857635 0.857758 0.857635
0.875732 0.875854 0.875732
0.509125 0.509186 0.509094
0.540131 0.540222 0.540100
0.569977 0.570068 0.569946
0.599335 0.599426 0.599335
0.627808 0.627899 0.627808
0.655487 0.655579 0.655457
0.682281 0.682373 0.682251
0.708221 0.708344 0.708191
0.733215 0.733307 0.733185
0.757233 0.757355 0.757233
0.780334 0.780457 0.780304
0.802429 0.802551 0.802399
0.823486 0.823608 0.823486
0.843506 0.843628 0.843475
0.862427 0.862549 0.862396
0.880219 0.880341 0.880219
0.896881 0.897034 0.896851
0.548126 0.548187 0.548096
0.578064 0.578125 0.578033
0.606934 0.607056 0.606934
0.635193 0.635284 0.635162
0.662598 0.662689 0.662567
0.689178 0.689270 0.689148
0.714813 0.714905 0.714783
0.739532 0.739655 0.739532
0.763336 0.763458 0.763306
0.786163 0.786285 0.786163
0.808014 0.808105 0.807983
0.828796 0.828918 0.828766
0.848541 0.848663 0.848511
0.867157 0.867279 0.867126
0.884674 0.884796 0.884644
0.901031 0.901154 0.901001
0.916107 0.916229 0.916077
0.016022 0.016022 0.016022
0.027802 0.027802 0.027802
0.044495 0.044495 0.044495
0.064453 0.064453 0.064453
0.085876 0.085876 0.085876
0.109039 0.109039 0.109039
0.133789 0.133789 0.133789
0.159973 0.159973 0.159973
0.187408 0.187408 0.187408
0.216003 0.216003 0.216003
0.245636 0.245636 0.245636
0.276123 0.276123 0.276123
0.307343 0.307373 0.307281
0.339142 0.339203 0.339081
0.371216 0.371307 0.371216
0.403595 0.403687 0.403595
0.436035 0.436096 0.436035
0.031708 0.031708 0.031708
0.049713 0.049713 0.049713
0.069824 0.069824 0.069824
