luts/Earthy_Heritage.CUBE
# kravix mobile - LUTs Pack
LUT_3D_SIZE 9
0.040436 0.043916 0.030091
0.100649 0.049058 0.030152
0.191592 0.049287 0.018601
0.286015 0.043244 0.007538
0.369345 0.036011 0.000000
0.466941 0.028733 0.000000
0.600687 0.019272 0.000000
0.781567 0.004044 0.000000
1.000000 0.000000 0.000000
0.051957 0.109422 0.040024
0.107973 0.111696 0.035737
0.199695 0.112230 0.016037
0.324254 0.109041 0.000000
0.452140 0.106111 0.000000
0.602655 0.101671 0.000000
0.784497 0.092409 0.000000
0.949996 0.074128 0.000000
1.000000 0.062272 0.000000
0.064210 0.185458 0.050675
0.132464 0.204227 0.057664
0.229648 0.221042 0.035554
0.390356 0.220890 0.000000
0.539742 0.217639 0.000000
0.693187 0.216098 0.000000
0.867231 0.211582 0.000000
0.949996 0.196002 0.000000
1.000000 0.185306 0.000000
0.093996 0.301396 0.073549
0.168566 0.323064 0.088655
0.253986 0.347372 0.067933
0.376883 0.359625 0.029450
0.524926 0.362509 0.000000
0.694667 0.359457 0.000000
0.883299 0.350256 0.000000
0.949996 0.330434 0.000000
1.000000 0.313588 0.000000
0.128145 0.422904 0.103029
0.202914 0.445487 0.119051
0.282765 0.469474 0.104112
0.381537 0.487343 0.052003
0.498314 0.494163 0.018341
0.641443 0.498451 0.000000
0.829938 0.493248 0.000000
0.949996 0.472724 0.000000
1.000000 0.448264 0.000000
0.157321 0.542336 0.128923
0.231678 0.561624 0.145632
0.311482 0.582895 0.135256
0.397910 0.602747 0.083635
0.501488 0.613718 0.037430
0.626261 0.620447 0.000000
0.780774 0.622858 0.000000
0.949996 0.609735 0.000000
1.000000 0.587793 0.000000
0.184741 0.653758 0.154849
0.259724 0.671427 0.173846
0.340337 0.690883 0.166506
0.421057 0.711009 0.119081
0.512505 0.725719 0.065705
0.627237 0.734981 0.027405
0.758190 0.738872 0.006561
0.914900 0.737423 0.000000
1.000000 0.727871 0.000000
0.211658 0.762036 0.183688
0.287510 0.778256 0.206012
0.370413 0.795834 0.204120
0.453162 0.812955 0.172366
0.538491 0.827222 0.135760
0.641016 0.838087 0.112398
0.755184 0.843793 0.116350
0.874281 0.846693 0.129793
1.000000 0.847593 0.133959
0.243015 0.865385 0.222568
0.327459 0.877150 0.259129
0.417426 0.889967 0.276692
0.500542 0.903655 0.270253
0.581689 0.916213 0.257801
0.673854 0.927428 0.257130
0.773831 0.934661 0.285710
0.873396 0.940185 0.332906
0.966934 0.948486 0.388861
0.042588 0.045808 0.087053
0.103151 0.051392 0.086702
0.192676 0.051057 0.080644
0.282032 0.044419 0.070405
0.366949 0.037278 0.059205
0.469825 0.030228 0.049989
0.611811 0.020768 0.049989
0.802365 0.004532 0.049989
1.000000 0.000000 0.049989
0.053315 0.109850 0.097185
0.109438 0.113603 0.093828
0.204974 0.115084 0.079545
0.327581 0.113817 0.071534
0.455741 0.111727 0.062104
0.605753 0.107622 0.049989
0.784497 0.099077 0.049989
0.949996 0.080827 0.049989
1.000000 0.067658 0.049989
0.071550 0.190875 0.113664
0.140810 0.210025 0.124926
0.236500 0.227039 0.107088
0.395499 0.226230 0.066178
0.538277 0.224430 0.059861
0.684932 0.225101 0.059358
0.856489 0.220966 0.051560
0.949996 0.205097 0.049989
1.000000 0.192050 0.049989
0.104768 0.307469 0.142306
0.180468 0.328954 0.160723
0.263645 0.353216 0.148730
0.382162 0.366140 0.112520
0.531456 0.368277 0.054612
0.697780 0.364721 0.049989
0.881712 0.356069 0.049989
0.949996 0.338064 0.049989
1.000000 0.320974 0.049989
0.139361 0.429160 0.173297
0.214740 0.450980 0.192126
0.294499 0.473610 0.185595
0.387915 0.492424 0.137804
0.503014 0.499336 0.105959
0.647166 0.503410 0.049989
0.835752 0.497276 0.049989
0.949996 0.476936 0.049989
1.000000 0.452049 0.049989
0.168521 0.547463 0.200763
0.243473 0.566049 0.220493
0.324193 0.585779 0.218433
0.407095 0.606012 0.173281
0.507485 0.617975 0.127291
0.631022 0.624765 0.091997
0.786511 0.626841 0.049989
0.949996 0.612879 0.049989
1.000000 0.593042 0.049989
0.196002 0.658091 0.229160
0.271580 0.674952 0.251972
0.353414 0.693248 0.253056
0.432609 0.713024 0.212146
0.520485 0.728786 0.159747
0.633265 0.738277 0.126650
0.761501 0.742565 0.108934
0.916182 0.741482 0.063188
1.000000 0.733120 0.049989
0.223087 0.765560 0.261006
0.299611 0.781415 0.286885
0.385397 0.796796 0.295949
0.467536 0.812985 0.274861
0.549874 0.828016 0.240223
0.649088 0.840085 0.216068
0.760098 0.846418 0.222629
0.875715 0.849821 0.240986
0.998840 0.851682 0.251789
0.257557 0.867460 0.305013
0.342489 0.879088 0.341588
0.432441 0.891264 0.362997
0.515129 0.904234 0.364691
0.594797 0.916640 0.358984
0.684382 0.928618 0.360265
0.781598 0.937118 0.384176
0.879118 0.944198 0.427314
0.969100 0.954253 0.481102
0.043153 0.048493 0.159060
0.105028 0.053391 0.167620
0.188952 0.052384 0.166400
0.275608 0.046006 0.157778
0.363500 0.038895 0.149981
0.470420 0.031922 0.143893
0.616083 0.022354 0.138369
0.808194 0.005509 0.128710
1.000000 0.000000 0.108919
0.048798 0.112322 0.168307
0.109163 0.115938 0.172198
0.206546 0.117968 0.174304
0.322408 0.120012 0.174975
0.451270 0.117769 0.174166
0.597848 0.114031 0.173220
0.768536 0.107134 0.170413
0.949996 0.089540 0.158984
1.000000 0.071626 0.147402
0.073899 0.198657 0.184588
0.146624 0.216709 0.201984
0.244755 0.232242 0.194827
0.384222 0.232990 0.199268
0.512505 0.235264 0.201755
0.656199 0.236820 0.202853
0.827939 0.232578 0.198398
0.949996 0.216373 0.181491
1.000000 0.198108 0.163684
0.115145 0.313771 0.222202
0.193042 0.334554 0.243427
0.277867 0.356329 0.251896
0.386694 0.371481 0.218997
0.535729 0.371695 0.176074
0.690837 0.369467 0.165484
0.856931 0.364157 0.158556
0.949996 0.350408 0.142245
1.000000 0.330983 0.117128
0.151125 0.435004 0.257527
0.227680 0.455680 0.278447
0.311391 0.474998 0.287984
0.395529 0.495216 0.248127
0.506600 0.503456 0.215412
0.652766 0.506813 0.158129
0.836408 0.499718 0.104417
0.949996 0.480827 0.099992
1.000000 0.457908 0.099992
0.180606 0.551568 0.290013
0.256550 0.569268 0.312032
0.340887 0.586313 0.322408
0.420157 0.605982 0.288884
0.513359 0.620493 0.238071
0.635035 0.628077 0.203357
0.791699 0.629633 0.135241
0.949996 0.615671 0.099992
1.000000 0.598856 0.099992
0.208682 0.660929 0.324804
0.284947 0.677333 0.347662
0.369940 0.693202 0.358633
0.448569 0.711559 0.332876
0.530327 0.729274 0.278660
0.638743 0.740398 0.242451
0.763684 0.745495 0.225574
0.915908 0.744869 0.181430
1.000000 0.737758 0.148119
0.236545 0.767529 0.361013
0.313634 0.783215 0.383749
0.403403 0.796368 0.400061
0.485252 0.810971 0.393118
0.563272 0.826459 0.365728
0.657191 0.840497 0.338262
0.764401 0.848005 0.343160
0.876066 0.852537 0.360998
0.994842 0.855985 0.368154
0.274342 0.868238 0.404654
0.358755 0.880354 0.432670
0.449363 0.892134 0.454765
0.531853 0.904356 0.462013
0.609216 0.917067 0.459525
0.695293 0.930266 0.459846
0.789868 0.940047 0.479576
0.885359 0.948867 0.519966
0.971466 0.960067 0.567758
0.044801 0.049912 0.242435
0.106050 0.054566 0.254520
0.184283 0.053086 0.257008
0.270588 0.047074 0.255985
0.359426 0.040879 0.257252
0.468681 0.034150 0.265049
0.613794 0.024476 0.280110
0.798138 0.008621 0.295781
1.000000 0.000000 0.300587
0.049805 0.112123 0.258244
0.111604 0.117021 0.267613
0.202197 0.122469 0.283116
0.318959 0.124376 0.301442
0.441611 0.122866 0.318410
0.579995 0.119707 0.334554
0.739895 0.114916 0.348516
0.939330 0.099962 0.355505
1.000000 0.075517 0.355581
0.057527 0.208240 0.302083
0.134340 0.224186 0.327657
0.243732 0.233860 0.348470
0.370306 0.238621 0.355642
0.492638 0.241993 0.365133
0.633173 0.243336 0.376883
0.796735 0.239948 0.384253
0.949996 0.224613 0.381170
1.000000 0.201328 0.370581
0.073701 0.333440 0.327688
0.157427 0.352178 0.349279
0.264530 0.366171 0.364401
0.393652 0.371054 0.369467
0.512062 0.375296 0.373938
0.641398 0.378866 0.377615
0.794888 0.376364 0.375341
0.949996 0.363241 0.362478
1.000000 0.342611 0.342702
0.120745 0.452186 0.352636
0.205844 0.469352 0.373953
0.315862 0.479118 0.394553
0.408087 0.491859 0.402960
0.508125 0.503441 0.369039
0.652766 0.504234 0.339879
0.809613 0.500175 0.330846
0.949996 0.490043 0.319936
1.000000 0.474556 0.299794
0.164767 0.562707 0.388876
0.248188 0.577737 0.410758
0.350179 0.588083 0.432197
0.441108 0.599756 0.443076
0.519432 0.616632 0.412650
0.633600 0.626612 0.374945
0.791501 0.626902 0.314443
0.949996 0.615381 0.287678
1.000000 0.604990 0.286397
0.201205 0.668788 0.426780
0.283268 0.683192 0.447105
0.381094 0.694118 0.466484
0.470558 0.705776 0.475944
0.546151 0.721401 0.460288
0.640925 0.736706 0.421759
0.759716 0.743572 0.404257
0.909117 0.743145 0.364797
1.000000 0.738277 0.365377
0.234302 0.773617 0.461784
0.317464 0.786923 0.481773
0.416754 0.796628 0.503471
0.506294 0.806989 0.516793
0.582574 0.820493 0.514305
0.665843 0.836759 0.495262
0.766049 0.846998 0.492805
0.873549 0.853635 0.501305
0.989868 0.858656 0.499886
0.280049 0.871916 0.502068
0.367346 0.882963 0.525902
0.463020 0.892775 0.550225
0.550378 0.902647 0.567346
0.627573 0.914366 0.575463
0.707897 0.929152 0.578042
0.797055 0.941711 0.588983
0.890074 0.952743 0.620325
0.973129 0.965042 0.656779
0.043580 0.049607 0.324910
0.104540 0.053391 0.341939
0.182834 0.050324 0.343664
0.270237 0.044755 0.346136
0.360632 0.039612 0.355123
0.470069 0.033570 0.375723
0.613230 0.024338 0.409491
0.787976 0.010101 0.443946
1.000000 0.000000 0.466056
0.046876 0.110979 0.349004
0.110170 0.116640 0.369329
0.204974 0.121584 0.397894
0.324483 0.122957 0.425269
0.443519 0.122347 0.448341
0.573938 0.121157 0.470726
0.724651 0.118441 0.493187
0.910002 0.106828 0.511833
1.000000 0.083543 0.523735
0.051789 0.209949 0.430625
0.130053 0.224979 0.461280
0.244846 0.234302 0.474784
0.370398 0.239643 0.483040
0.489708 0.243580 0.496544
0.622126 0.246876 0.514794
0.774731 0.245350 0.531899
0.949996 0.231968 0.541817
1.000000 0.209400 0.544686
0.055787 0.338964 0.465904
0.142916 0.356893 0.485420
0.262394 0.367803 0.494209
0.387915 0.372900 0.505180
0.503822 0.377478 0.509896
0.626932 0.381872 0.519356
0.773434 0.380316 0.528939
0.949996 0.368277 0.529595
1.000000 0.348592 0.523491
0.072267 0.467918 0.475303
0.159030 0.484504 0.491981
0.275959 0.493446 0.500603
0.390768 0.499474 0.507500
0.511604 0.500801 0.512779
0.630045 0.505837 0.515618
0.764233 0.507454 0.518135
0.935103 0.498726 0.511238
1.000000 0.483268 0.497948
0.111116 0.581628 0.488380
0.199023 0.595575 0.504814
0.317571 0.602060 0.516716
0.439185 0.604471 0.528389
0.527428 0.614450 0.536156
0.635401 0.624781 0.512184
0.779675 0.624094 0.501015
0.925765 0.621027 0.504051
1.000000 0.617639 0.503929
0.158755 0.685344 0.512200
0.247135 0.698238 0.529732
0.363073 0.704021 0.546426
0.475044 0.708186 0.563241
0.561120 0.717800 0.574777
0.643595 0.734752 0.554681
0.757763 0.742428 0.542397
0.901396 0.742031 0.520043
1.000000 0.741604 0.530861
0.204150 0.786862 0.542275
0.295750 0.797772 0.561807
0.410269 0.802930 0.583139
0.513451 0.808499 0.602106
0.596872 0.818311 0.615061
0.674952 0.834409 0.611887
0.768139 0.847227 0.604166
0.873060 0.854978 0.608789
0.985473 0.860914 0.610605
0.265202 0.880629 0.580270
0.358770 0.890013 0.603021
0.463798 0.897017 0.627146
0.558801 0.904265 0.647425
0.640284 0.913909 0.662608
0.719173 0.928389 0.672877
0.803326 0.943435 0.680186
0.893919 0.956039 0.703655
0.974945 0.968994 0.732555
0.041550 0.048768 0.424567
0.101839 0.051057 0.442863
0.181659 0.046952 0.442725
0.272312 0.041306 0.447639
0.366247 0.036240 0.463523
0.478492 0.030167 0.493431
0.620874 0.021637 0.536187
0.788861 0.009277 0.578790
0.988342 0.000000 0.608026
0.043275 0.109453 0.455879
0.108080 0.115908 0.488518
0.208255 0.120287 0.526421
0.332906 0.120684 0.557092
0.451820 0.119982 0.580804
0.578836 0.120470 0.603906
0.723125 0.119692 0.629923
0.896300 0.111421 0.655634
1.000000 0.090822 0.677287
0.045579 0.211475 0.568444
0.125963 0.225879 0.603784
0.245930 0.234302 0.616480
0.376349 0.238941 0.622339
0.496056 0.243122 0.633768
0.624552 0.247608 0.651881
0.767697 0.248493 0.671687
0.945754 0.238346 0.688838
1.000000 0.217975 0.702373
0.047135 0.342275 0.605661
0.135729 0.359991 0.626749
0.259037 0.369924 0.633249
0.389120 0.374426 0.633036
0.503944 0.379141 0.637064
0.624475 0.383841 0.648966
0.759701 0.385000 0.663951
0.929229 0.375830 0.675517
1.000000 0.357305 0.682048
0.049775 0.474952 0.614969
0.138888 0.490822 0.631174
0.262791 0.497917 0.635264
0.393179 0.500206 0.633021
0.506706 0.503502 0.638254
0.622202 0.509041 0.643977
0.748699 0.512200 0.653574
0.909758 0.505058 0.659724
1.000000 0.490547 0.658671
0.064118 0.596109 0.620523
0.153231 0.609857 0.636454
0.275227 0.615732 0.642420
0.404776 0.617060 0.641993
0.513588 0.620951 0.648585
0.637354 0.623148 0.657786
0.754635 0.629358 0.657481
0.892012 0.628901 0.658488
1.000000 0.626032 0.656809
0.094408 0.706355 0.628321
0.184237 0.719112 0.643961
0.306935 0.723873 0.651148
0.438285 0.723659 0.653437
0.550195 0.726101 0.659205
0.649683 0.734585 0.670237
0.765896 0.741466 0.659205
0.878874 0.746517 0.672999
0.993622 0.751522 0.680674
0.139742 0.809354 0.642634
0.240406 0.818051 0.658351
0.370413 0.819562 0.669825
0.496651 0.818967 0.680369
0.598856 0.822919 0.694865
0.686885 0.834180 0.710246
0.771527 0.849241 0.704952
0.875105 0.857404 0.709194
0.978836 0.865003 0.721157
0.224216 0.897429 0.666072
0.326558 0.904707 0.685222
0.445975 0.907973 0.703487
0.555474 0.911162 0.720851
0.646876 0.917662 0.737682
0.731487 0.929747 0.755642
0.812024 0.946288 0.766857
0.898955 0.960235 0.782437
0.977722 0.973678 0.804746
0.038697 0.047394 0.536171
0.098619 0.048280 0.549859
0.181170 0.043473 0.551812
0.277333 0.037476 0.563424
0.376852 0.031937 0.586755
0.493614 0.025284 0.625879
0.636637 0.016556 0.677791
0.798291 0.006058 0.725307
0.984131 0.000000 0.758068
0.039399 0.108278 0.575525
0.105913 0.115190 0.623026
0.211780 0.118288 0.674174
0.342443 0.117128 0.709102
0.462882 0.116274 0.731350
0.589334 0.117403 0.753307
0.731716 0.117601 0.780438
0.896361 0.111757 0.807050
1.000000 0.094057 0.832959
0.038071 0.212390 0.726162
0.121386 0.226337 0.763241
0.246662 0.233814 0.774121
0.382254 0.237217 0.776623
0.504646 0.241138 0.785214
0.632929 0.245686 0.800412
0.772839 0.247578 0.819120
0.940490 0.239918 0.836835
1.000000 0.222416 0.855039
0.036942 0.345083 0.762539
0.127245 0.362402 0.783185
0.254963 0.371298 0.786328
0.390082 0.374334 0.781521
0.508721 0.377935 0.781659
0.630091 0.382712 0.789899
0.761059 0.385214 0.803082
0.918212 0.379232 0.816266
1.000000 0.363851 0.829602
0.035660 0.478950 0.767269
0.126390 0.494240 0.781598
0.253773 0.500420 0.781476
0.389288 0.501656 0.774502
0.506935 0.504326 0.771710
0.623438 0.509819 0.774899
0.746670 0.513878 0.784497
0.893080 0.510613 0.794736
1.000000 0.500023 0.801923
0.037446 0.603311 0.772122
0.129870 0.616175 0.785962
0.258839 0.620386 0.786068
0.396399 0.620035 0.778714
0.515312 0.621851 0.775448
0.630991 0.627115 0.777417
0.746288 0.633478 0.780148
0.872084 0.636103 0.784894
1.000000 0.635081 0.787091
0.048875 0.719280 0.775845
0.141772 0.731106 0.789288
0.270817 0.734600 0.791119
0.411978 0.732296 0.783337
0.532723 0.733028 0.778897
0.644373 0.738582 0.784054
0.758785 0.744183 0.789929
0.863478 0.752926 0.789929
0.976577 0.758709 0.794507
0.080156 0.827512 0.777356
0.188678 0.834485 0.786374
0.326528 0.834699 0.786816
0.460807 0.833021 0.784283
0.571572 0.835508 0.786068
0.674540 0.843015 0.793439
0.773770 0.852262 0.803311
0.877409 0.860136 0.810788
0.965194 0.872572 0.823056
0.171359 0.915969 0.775082
0.283009 0.921111 0.787228
0.413031 0.922225 0.794736
0.532357 0.923568 0.801434
0.634165 0.927825 0.810636
0.733135 0.936294 0.825071
0.822171 0.950164 0.842847
0.905257 0.964920 0.853925
0.980438 0.978241 0.871900
0.035218 0.045533 0.653193
0.094835 0.045182 0.661845
0.180529 0.039643 0.667933
0.282612 0.032700 0.690013
0.389105 0.026108 0.725994
0.511620 0.018296 0.777081
0.656123 0.009216 0.837018
0.812818 0.000168 0.884855
0.991302 0.000000 0.918730
0.035081 0.107012 0.709560
0.102892 0.113878 0.775479
0.214572 0.115145 0.838315
0.351339 0.112306 0.874754
0.474052 0.111635 0.893431
0.602121 0.112749 0.913878
0.744610 0.113344 0.940764
0.906752 0.108354 0.949996
1.000000 0.092821 0.949996
0.029465 0.212345 0.897719
0.116106 0.225986 0.933318
0.246571 0.232441 0.943084
0.387610 0.234714 0.942489
0.513481 0.237934 0.947662
0.643320 0.242222 0.949996
0.782834 0.244099 0.949996
0.946914 0.237354 0.949996
1.000000 0.222004 0.949996
0.026017 0.347189 0.930098
0.118029 0.364065 0.949996
0.249866 0.371649 0.949584
0.390265 0.373327 0.940352
0.512917 0.375753 0.936660
0.637034 0.380072 0.941054
0.768109 0.382742 0.949996
0.921248 0.377981 0.949996
1.000000 0.365209 0.949996
0.020859 0.482139 0.928664
0.112810 0.496895 0.941756
0.243961 0.502205 0.937652
0.384619 0.502205 0.925795
0.506645 0.503853 0.919249
0.627070 0.508507 0.918868
0.751415 0.512596 0.924056
0.893294 0.510872 0.931701
1.000000 0.505318 0.935210
0.019394 0.607294 0.929366
0.113542 0.619715 0.941268
0.246067 0.623224 0.937011
0.388434 0.621912 0.924361
0.511543 0.622858 0.916487
0.631144 0.627451 0.911772
0.747921 0.634104 0.906050
0.867597 0.639261 0.903441
0.994202 0.642084 0.902083
0.021408 0.725826 0.932601
0.117723 0.736812 0.943740
0.254337 0.738735 0.938094
0.404501 0.734874 0.917586
0.529198 0.735256 0.904631
0.645624 0.740627 0.896742
0.754772 0.748837 0.891844
0.859297 0.757687 0.890745
0.964218 0.766049 0.892088
0.046906 0.836423 0.925582
0.162142 0.842161 0.926299
0.308049 0.841016 0.915496
0.449638 0.838163 0.902113
0.565988 0.839918 0.894987
0.675593 0.846220 0.892592
0.777203 0.855528 0.895171
0.873793 0.865965 0.898924
0.960647 0.879728 0.904295
0.138643 0.926848 0.899977
0.258534 0.930449 0.902434
0.395499 0.930495 0.899413
0.519677 0.931319 0.896590
0.624186 0.935668 0.897932
0.726635 0.944625 0.903975
0.822995 0.957015 0.914015
0.910719 0.969650 0.925505
0.982956 0.982437 0.934829
0.032654 0.043977 0.751080
0.092378 0.042969 0.757778
0.181201 0.037018 0.771740
0.289189 0.029236 0.806287
0.401450 0.021653 0.852735
0.528649 0.013123 0.911299
0.674281 0.004242 0.972580
0.827268 0.000000 1.000000
1.000000 0.000000 1.000000
0.031708 0.106355 0.835294
0.100801 0.112978 0.919631
0.218128 0.112886 0.991028
0.359243 0.109087 1.000000
0.484367 0.108659 1.000000
0.614801 0.109712 1.000000
0.758312 0.110399 1.000000
0.920439 0.105745 1.000000
1.000000 0.090898 1.000000
0.023850 0.213077 1.000000
0.112551 0.226398 1.000000
0.247135 0.231846 1.000000
0.392599 0.232929 1.000000
0.521462 0.235264 1.000000
0.653880 0.239155 1.000000
0.794095 0.240726 1.000000
0.949996 0.234180 1.000000
1.000000 0.219806 1.000000
0.018113 0.349660 1.000000
0.110414 0.365850 1.000000
0.245609 0.372045 1.000000
0.390249 0.372198 1.000000
0.516701 0.373495 1.000000
0.643961 0.377081 1.000000
0.776699 0.379370 1.000000
0.929732 0.374990 1.000000
1.000000 0.363394 1.000000
0.008850 0.485206 1.000000
0.100710 0.499245 1.000000
0.234577 0.503502 1.000000
0.379583 0.502129 1.000000
0.505730 0.502815 1.000000
0.630060 0.506539 1.000000
0.757427 0.510079 1.000000
0.898863 0.508949 1.000000
1.000000 0.506798 1.000000
0.004456 0.610803 1.000000
0.098497 0.622675 1.000000
0.233326 0.625422 1.000000
0.379950 0.623072 1.000000
0.507073 0.623087 1.000000
0.630884 0.627253 1.000000
0.749981 0.634104 1.000000
0.868421 0.640589 1.000000
0.989242 0.645960 1.000000
0.004227 0.729961 1.000000
0.100847 0.740414 1.000000
0.243977 0.740993 1.000000
0.398108 0.736736 1.000000
0.525734 0.736996 1.000000
0.644846 0.742412 1.000000
0.755779 0.751003 1.000000
0.860182 0.760830 0.992050
0.960601 0.771298 0.984817
0.032059 0.840589 1.000000
0.150942 0.845533 1.000000
0.301869 0.843763 1.000000
0.447837 0.840650 1.000000
0.566064 0.842557 1.000000
0.677348 0.849363 0.991760
0.780072 0.859174 0.984024
0.874891 0.871229 0.979034
0.961059 0.886442 0.978897
0.127062 0.931823 1.000000
0.251179 0.934691 1.000000
0.392660 0.934325 1.000000
0.520348 0.935103 0.992248
0.627787 0.939513 0.985672
0.733318 0.949203 0.983001
0.831128 0.961486 0.983505
0.915450 0.974975 0.987411
0.985046 0.986999 0.992920
