luts/Earthy_Heritage.CUBE
# kravix mobile - LUTs Pack
LUT_3D_SIZE 17
0.040436 0.043916 0.030091
0.070558 0.046479 0.029541
0.100649 0.049058 0.030152
0.143023 0.050233 0.022980
0.191592 0.049287 0.018601
0.241566 0.047135 0.013413
0.286015 0.043244 0.007538
0.327245 0.039597 0.002152
0.369345 0.036011 0.000000
0.413931 0.032334 0.000000
0.466941 0.028733 0.000000
0.526940 0.024369 0.000000
0.600687 0.019272 0.000000
0.683574 0.012940 0.000000
0.781567 0.004044 0.000000
0.908919 0.000000 0.000000
1.000000 0.000000 0.000000
0.047593 0.078706 0.036332
0.077516 0.081697 0.034882
0.106508 0.083513 0.034394
0.143526 0.082597 0.026139
0.190906 0.079545 0.015259
0.240604 0.075731 0.007202
0.290883 0.072282 0.000381
0.339651 0.069520 0.000000
0.392081 0.067048 0.000000
0.451331 0.064576 0.000000
0.519722 0.061479 0.000000
0.599359 0.057710 0.000000
0.690196 0.052277 0.000000
0.791943 0.044602 0.000000
0.911101 0.032380 0.000000
0.975006 0.024994 0.000000
1.000000 0.024994 0.000000
0.051957 0.109422 0.040024
0.079957 0.110475 0.036881
0.107973 0.111696 0.035737
0.146334 0.112978 0.029465
0.199695 0.112230 0.016037
0.260868 0.110903 0.006836
0.324254 0.109041 0.000000
0.386847 0.107698 0.000000
0.452140 0.106111 0.000000
0.524590 0.104173 0.000000
0.602655 0.101671 0.000000
0.690486 0.097917 0.000000
0.784497 0.092409 0.000000
0.889189 0.084306 0.000000
0.949996 0.074128 0.000000
0.975006 0.067567 0.000000
1.000000 0.062272 0.000000
0.053819 0.140078 0.042420
0.084337 0.144793 0.041550
0.116106 0.150927 0.043137
0.157717 0.157076 0.038163
0.219532 0.160830 0.018906
0.294835 0.160372 0.002304
0.371633 0.158450 0.000000
0.441978 0.156756 0.000000
0.511757 0.155306 0.000000
0.583749 0.154376 0.000000
0.659632 0.153460 0.000000
0.742367 0.151629 0.000000
0.833555 0.147875 0.000000
0.925002 0.140185 0.000000
0.949996 0.130877 0.000000
0.975006 0.125353 0.000000
1.000000 0.120302 0.000000
0.064210 0.185458 0.050675
0.098161 0.194568 0.053132
0.132464 0.204227 0.057664
0.173083 0.214298 0.050050
0.229648 0.221042 0.035554
0.306447 0.222950 0.001633
0.390356 0.220890 0.000000
0.465919 0.218814 0.000000
0.539742 0.217639 0.000000
0.614389 0.216861 0.000000
0.693187 0.216098 0.000000
0.776608 0.214710 0.000000
0.867231 0.211582 0.000000
0.925002 0.204685 0.000000
0.949996 0.196002 0.000000
0.975006 0.190311 0.000000
1.000000 0.185306 0.000000
0.079072 0.242145 0.061875
0.114748 0.252430 0.065889
0.149966 0.262608 0.072267
0.189563 0.273793 0.066941
0.241047 0.283619 0.048646
0.305684 0.288777 0.031922
0.384527 0.290440 0.000000
0.464408 0.289479 0.000000
0.543053 0.288090 0.000000
0.622538 0.286946 0.000000
0.707240 0.285313 0.000000
0.795178 0.282750 0.000000
0.888701 0.278416 0.000000
0.925002 0.270970 0.000000
0.949996 0.262104 0.000000
0.975006 0.255024 0.000000
1.000000 0.249363 0.000000
0.093996 0.301396 0.073549
0.131777 0.312154 0.079911
0.168566 0.323064 0.088655
0.208026 0.335012 0.086488
0.253986 0.347372 0.067933
0.311513 0.355474 0.046662
0.376883 0.359625 0.029450
0.446326 0.362142 0.000977
0.524926 0.362509 0.000000
0.607279 0.361517 0.000000
0.694667 0.359457 0.000000
0.785779 0.355917 0.000000
0.883299 0.350256 0.000000
0.925002 0.341115 0.000000
0.949996 0.330434 0.000000
0.975006 0.320516 0.000000
1.000000 0.313588 0.000000
0.110948 0.361151 0.088090
0.149401 0.372595 0.095247
0.186175 0.384039 0.104204
0.225330 0.396216 0.103380
0.268269 0.409323 0.086915
0.318669 0.419638 0.061387
0.378027 0.425177 0.040940
0.438422 0.428138 0.025559
0.504204 0.430594 0.001419
0.580133 0.431968 0.000000
0.667765 0.430961 0.000000
0.760723 0.427741 0.000000
0.859525 0.422354 0.000000
0.925002 0.412970 0.000000
0.949996 0.401068 0.000000
0.975006 0.388952 0.000000
1.000000 0.379416 0.000000
0.128145 0.422904 0.103029
0.166415 0.434318 0.110170
0.202914 0.445487 0.119051
0.241764 0.457069 0.119005
0.282765 0.469474 0.104112
0.328206 0.480339 0.078340
0.381537 0.487343 0.052003
0.438102 0.491127 0.034394
0.498314 0.494163 0.018341
0.563989 0.496742 0.000000
0.641443 0.498451 0.000000
0.731075 0.497505 0.000000
0.829938 0.493248 0.000000
0.925002 0.484718 0.000000
0.949996 0.472724 0.000000
0.975006 0.459953 0.000000
1.000000 0.448264 0.000000
0.143618 0.483909 0.116625
0.181613 0.494392 0.123705
0.217762 0.504631 0.132586
0.256474 0.515236 0.132921
0.296849 0.527016 0.119600
0.339513 0.537987 0.095201
0.388281 0.546365 0.066728
0.441032 0.551446 0.044404
0.498604 0.554864 0.027573
0.560204 0.558068 0.010101
0.629526 0.560662 0.000000
0.708812 0.561807 0.000000
0.801648 0.560220 0.000000
0.912123 0.553491 0.000000
0.949996 0.542290 0.000000
0.975006 0.529915 0.000000
1.000000 0.517021 0.000000
0.157321 0.542336 0.128923
0.195361 0.552087 0.136248
0.231678 0.561624 0.145632
0.270817 0.571633 0.146914
0.311482 0.582895 0.135256
0.352728 0.593759 0.112505
0.397910 0.602747 0.083635
0.446937 0.609018 0.058518
0.501488 0.613718 0.037430
0.560632 0.617212 0.020066
0.626261 0.620447 0.000000
0.698177 0.622538 0.000000
0.780774 0.622858 0.000000
0.882643 0.619074 0.000000
0.949996 0.609735 0.000000
0.975006 0.599237 0.000000
1.000000 0.587793 0.000000
0.171084 0.598733 0.141604
0.209369 0.607904 0.149554
0.245777 0.616922 0.159411
0.285222 0.626398 0.161212
0.325917 0.637125 0.150576
0.366323 0.647929 0.129442
0.408972 0.657420 0.101061
0.454643 0.664546 0.074357
0.506157 0.670420 0.050278
0.562799 0.674876 0.029496
0.625834 0.678462 0.010620
0.693812 0.681102 0.000000
0.768414 0.682292 0.000000
0.854200 0.680980 0.000000
0.949996 0.675837 0.000000
0.975006 0.668513 0.000000
1.000000 0.659510 0.000000
0.184741 0.653758 0.154849
0.223133 0.662577 0.163210
0.259724 0.671427 0.173846
0.299474 0.680537 0.176287
0.340337 0.690883 0.166506
0.380118 0.701427 0.146227
0.421057 0.711009 0.119081
0.464256 0.718944 0.092119
0.512505 0.725719 0.065705
0.566476 0.731304 0.042512
0.627237 0.734981 0.027405
0.691188 0.737499 0.017410
0.758190 0.738872 0.006561
0.831022 0.739300 0.000000
0.914900 0.737423 0.000000
0.975006 0.733501 0.000000
1.000000 0.727871 0.000000
0.198154 0.708232 0.168795
0.236805 0.716701 0.177905
0.273457 0.725093 0.189227
0.313451 0.733928 0.192157
0.354757 0.744045 0.183413
0.394400 0.754330 0.164218
0.434211 0.763867 0.138354
0.476387 0.771618 0.114580
0.522866 0.778271 0.093355
0.574380 0.783886 0.075929
0.631907 0.788067 0.064012
0.692012 0.790951 0.059739
0.753918 0.792874 0.056733
0.818463 0.794125 0.053925
0.888594 0.794141 0.043824
0.964706 0.793256 0.026612
1.000000 0.790951 0.006165
0.211658 0.762036 0.183688
0.250568 0.770184 0.193835
0.287510 0.778256 0.206012
0.327733 0.786770 0.209796
0.370413 0.795834 0.204120
0.412451 0.804623 0.191516
0.453162 0.812955 0.172366
0.494285 0.820356 0.153643
0.538491 0.827222 0.135760
0.587152 0.833219 0.121614
0.641016 0.838087 0.112398
0.697749 0.841459 0.111772
0.755184 0.843793 0.116350
0.813672 0.845685 0.123201
0.874281 0.846693 0.129793
0.936873 0.847532 0.133867
1.000000 0.847593 0.133959
0.225254 0.815045 0.199924
0.264973 0.822766 0.211551
0.304509 0.829435 0.228122
0.348241 0.836133 0.237934
0.392782 0.843732 0.238239
0.435264 0.851682 0.231342
0.475624 0.859281 0.218006
0.515831 0.866285 0.204211
0.558373 0.873121 0.190707
0.604471 0.879377 0.180606
0.655207 0.884596 0.175906
0.708232 0.888411 0.180072
0.761746 0.890959 0.192569
0.815579 0.893019 0.210468
0.869032 0.894682 0.230396
0.922332 0.896422 0.252476
0.975891 0.898634 0.271580
0.243015 0.865385 0.222568
0.286442 0.871321 0.240116
0.327459 0.877150 0.259129
0.372091 0.883192 0.271519
0.417426 0.889967 0.276692
0.460227 0.896941 0.276097
0.500542 0.903655 0.270253
0.540154 0.909972 0.263630
0.581689 0.916213 0.257801
0.626047 0.922148 0.254932
0.673854 0.927428 0.257130
0.723720 0.931472 0.267643
0.773831 0.934661 0.285710
0.823880 0.937301 0.308461
0.873396 0.940185 0.332906
0.921096 0.943725 0.359579
0.966934 0.948486 0.388861
0.041504 0.044907 0.059632
0.071504 0.047623 0.058732
0.101854 0.050233 0.059388
0.145663 0.050935 0.053132
0.191852 0.050187 0.052033
0.238804 0.047791 0.047654
0.282856 0.044022 0.042084
0.324376 0.040436 0.036637
0.366812 0.036835 0.030961
0.412741 0.033280 0.024994
0.467170 0.029648 0.024994
0.528908 0.025330 0.024994
0.604776 0.020188 0.024994
0.689143 0.013718 0.024994
0.789960 0.004547 0.024994
0.919966 0.000000 0.024994
1.000000 0.000000 0.024994
0.048905 0.079713 0.066575
0.078386 0.082765 0.064942
0.106477 0.083879 0.063783
0.144533 0.082734 0.054795
0.190967 0.079728 0.047761
0.239506 0.076326 0.041855
0.289540 0.073503 0.036332
0.338384 0.071015 0.030976
0.392447 0.068894 0.025055
0.452338 0.066499 0.024994
0.522454 0.063584 0.024994
0.602274 0.059785 0.024994
0.693675 0.054353 0.024994
0.795346 0.046647 0.024994
0.914168 0.034394 0.024994
0.975006 0.024994 0.024994
1.000000 0.024994 0.024994
0.052720 0.109590 0.070008
0.080308 0.110887 0.066819
0.108522 0.112566 0.065889
0.147799 0.114031 0.059098
0.202014 0.113512 0.049775
0.262089 0.112612 0.044099
0.324727 0.111421 0.038758
0.386587 0.110491 0.033860
0.451896 0.109178 0.028244
0.524254 0.107454 0.024994
0.601877 0.105013 0.024994
0.688884 0.101259 0.024994
0.781506 0.096071 0.024994
0.884810 0.088396 0.024994
0.949996 0.077653 0.024994
0.975006 0.070680 0.024994
1.000000 0.065034 0.024994
0.055817 0.141192 0.073045
0.086686 0.146715 0.073457
0.118410 0.153063 0.075700
0.160464 0.159869 0.070878
0.223987 0.163043 0.054215
0.298131 0.162661 0.043916
0.372122 0.161166 0.037110
0.439872 0.160037 0.032990
0.507530 0.159258 0.029633
0.577890 0.158709 0.026566
0.652857 0.158129 0.024994
0.735775 0.156374 0.024994
0.827283 0.152575 0.024994
0.925002 0.144747 0.024994
0.949996 0.134997 0.024994
0.975006 0.128710 0.024994
1.000000 0.123369 0.024994
0.068406 0.188037 0.084001
0.102617 0.197269 0.087770
0.136934 0.206882 0.093431
0.176471 0.217166 0.087465
0.232746 0.223865 0.074296
0.310369 0.225376 0.043229
0.392691 0.223270 0.027390
0.466545 0.221653 0.024994
0.537835 0.220935 0.024994
0.609766 0.220813 0.024994
0.686351 0.220706 0.024994
0.768109 0.219913 0.024994
0.857939 0.216785 0.024994
0.925002 0.209842 0.024994
0.949996 0.201190 0.024994
0.975006 0.194430 0.024994
1.000000 0.188922 0.024994
0.084169 0.244800 0.096971
0.120241 0.254856 0.102510
0.155917 0.264988 0.110155
0.195087 0.276112 0.108003
0.244846 0.286427 0.091203
0.308644 0.291798 0.074647
0.388052 0.293233 0.039719
0.467079 0.292073 0.024994
0.544579 0.290959 0.024994
0.622477 0.289982 0.024994
0.704982 0.288655 0.024994
0.790219 0.286580 0.024994
0.881361 0.282918 0.024994
0.925002 0.275761 0.024994
0.949996 0.267323 0.024994
0.975006 0.259327 0.024994
1.000000 0.253468 0.024994
0.100053 0.304128 0.110292
0.138415 0.314855 0.118120
0.175189 0.325673 0.127230
0.214801 0.337530 0.127855
0.259129 0.350027 0.112001
0.315022 0.358587 0.091295
0.379355 0.362783 0.074632
0.449348 0.364996 0.045655
0.528054 0.365118 0.024994
0.609751 0.364034 0.024994
0.695689 0.361837 0.024994
0.785428 0.358389 0.024994
0.881086 0.353170 0.024994
0.925002 0.344335 0.024994
0.949996 0.334356 0.024994
0.975006 0.324224 0.024994
1.000000 0.317525 0.024994
0.117586 0.364141 0.125628
0.156130 0.375479 0.133669
0.193042 0.386831 0.143130
0.232563 0.398642 0.144839
0.274189 0.411566 0.131090
0.322667 0.422156 0.107057
0.380789 0.427817 0.086824
0.440635 0.430823 0.072068
0.506645 0.433433 0.048005
0.582666 0.434501 0.024994
0.670268 0.433173 0.024994
0.762280 0.430014 0.024994
0.859739 0.424460 0.024994
0.925002 0.415106 0.024994
0.949996 0.403861 0.024994
0.975006 0.392096 0.024994
1.000000 0.382162 0.024994
0.134478 0.425757 0.140551
0.173022 0.436896 0.148669
0.209567 0.447929 0.158160
0.248829 0.459007 0.160296
0.289403 0.471138 0.148363
0.332982 0.482200 0.124529
0.384634 0.489601 0.098558
0.440711 0.493645 0.081498
0.500526 0.496529 0.066239
0.566140 0.499153 0.043198
0.644160 0.500771 0.024994
0.734432 0.499367 0.024994
0.833021 0.494987 0.024994
0.925002 0.486244 0.024994
0.949996 0.474662 0.024994
0.975006 0.462303 0.024994
1.000000 0.449912 0.024994
0.149859 0.486427 0.154467
0.188128 0.496635 0.162509
0.224338 0.506706 0.171908
0.263310 0.516930 0.174380
0.303853 0.528511 0.164263
0.345373 0.539498 0.142214
0.392279 0.548104 0.114366
0.444099 0.553399 0.092119
0.501152 0.557183 0.075792
0.562417 0.560220 0.058961
0.631724 0.562844 0.033570
0.711360 0.564050 0.024994
0.804639 0.562005 0.024994
0.914961 0.555016 0.024994
0.949996 0.543755 0.024994
0.975006 0.531670 0.024994
1.000000 0.518257 0.024994
0.163943 0.544610 0.167636
0.202243 0.554147 0.175952
0.238483 0.563577 0.185763
0.277867 0.573159 0.188968
0.318624 0.583917 0.180117
0.359060 0.594720 0.159792
0.402731 0.604059 0.132082
0.450645 0.610697 0.106996
0.504479 0.615518 0.086046
0.563241 0.619303 0.069505
0.628443 0.622385 0.049683
0.700282 0.624521 0.024994
0.783261 0.624720 0.024994
0.886503 0.620432 0.024994
0.949996 0.611093 0.024994
0.975006 0.601114 0.024994
1.000000 0.590173 0.024994
0.177508 0.600641 0.180713
0.216098 0.609583 0.189670
0.252537 0.618479 0.200244
0.292149 0.627680 0.203967
0.333318 0.638086 0.196262
0.373144 0.648692 0.177386
0.414603 0.658274 0.150362
0.459266 0.665873 0.123873
0.509544 0.671977 0.099550
0.565530 0.676631 0.079148
0.628367 0.680369 0.061128
0.695842 0.682872 0.040299
0.770077 0.684031 0.024994
0.855375 0.682612 0.024994
0.949996 0.677592 0.024994
0.975006 0.670375 0.024994
1.000000 0.662043 0.024994
0.191196 0.655680 0.194858
0.230015 0.664225 0.204501
0.266529 0.672801 0.215839
0.306386 0.681651 0.220142
0.347570 0.691600 0.212924
0.387381 0.701915 0.195285
0.427482 0.711696 0.169406
0.469337 0.719783 0.142504
0.516655 0.727077 0.116335
0.569741 0.732723 0.093553
0.630259 0.736477 0.080903
0.693446 0.738933 0.071305
0.759594 0.740642 0.061524
0.831601 0.741054 0.044343
0.915206 0.739437 0.024994
0.975006 0.735546 0.024994
1.000000 0.730404 0.024994
0.204685 0.709758 0.209751
0.243626 0.718044 0.220020
0.280385 0.726467 0.232273
0.320577 0.734997 0.237247
0.362173 0.744533 0.231144
0.401953 0.754437 0.214694
0.441321 0.764126 0.190387
0.482734 0.771725 0.168215
0.528359 0.778881 0.147066
0.578668 0.784710 0.129168
0.635401 0.789303 0.117311
0.694759 0.792203 0.113497
0.755932 0.794461 0.111315
0.819471 0.795758 0.108644
0.888853 0.796078 0.099764
0.963790 0.795270 0.082872
1.000000 0.793454 0.066346
0.218372 0.763348 0.225788
0.257420 0.771374 0.236683
0.294209 0.779385 0.249561
0.335241 0.787610 0.255726
0.378912 0.795819 0.254047
0.420798 0.804181 0.244480
0.461173 0.812543 0.227817
0.501244 0.820005 0.209232
0.544656 0.827390 0.191226
0.592126 0.833661 0.176211
0.645350 0.838941 0.167239
0.700755 0.842512 0.166110
0.757488 0.845106 0.172030
0.815366 0.846967 0.179065
0.874846 0.848280 0.187884
0.936141 0.849149 0.193103
1.000000 0.849607 0.196277
0.232166 0.816266 0.242969
0.272587 0.823468 0.256214
0.312413 0.829984 0.273411
0.356390 0.836561 0.284611
0.401419 0.843748 0.287694
0.443641 0.851225 0.283696
0.483696 0.858732 0.273411
0.522988 0.865736 0.260990
0.564965 0.872847 0.248768
0.609979 0.879301 0.238148
0.659937 0.884932 0.233982
0.711864 0.888899 0.237797
0.764569 0.891798 0.251118
0.817365 0.893980 0.268467
0.870344 0.895979 0.288731
0.922423 0.898146 0.308461
0.975067 0.900908 0.325139
0.251362 0.865995 0.267659
0.294774 0.871748 0.285084
0.335576 0.877668 0.303548
0.380331 0.883619 0.316732
0.425849 0.890181 0.323644
0.468345 0.896895 0.324941
0.508629 0.903532 0.321660
0.547601 0.909651 0.316793
0.588754 0.916075 0.312764
0.632044 0.922133 0.310033
0.679316 0.927779 0.312703
0.728115 0.932082 0.321752
0.777859 0.935653 0.338216
0.827253 0.938689 0.358541
0.876036 0.942123 0.381659
0.923033 0.946334 0.409003
0.967941 0.951308 0.436576
0.042588 0.045808 0.087053
0.072480 0.048646 0.086061
0.103151 0.051392 0.086702
0.147631 0.051698 0.080705
0.192676 0.051057 0.080644
0.237858 0.048188 0.076112
0.282032 0.044419 0.070405
0.324010 0.040864 0.064927
0.366949 0.037278 0.059205
0.414527 0.033860 0.053117
0.469825 0.030228 0.049989
0.534401 0.025986 0.049989
0.611811 0.020768 0.049989
0.698985 0.014130 0.049989
0.802365 0.004532 0.049989
0.936599 0.000000 0.049989
1.000000 0.000000 0.049989
0.050126 0.080644 0.094209
0.079255 0.083574 0.092668
0.106600 0.084123 0.090852
0.145220 0.082963 0.081498
0.191379 0.079957 0.076081
0.239780 0.077073 0.071275
0.290013 0.074540 0.066194
0.340322 0.072343 0.061067
0.395880 0.070390 0.055375
0.457237 0.067994 0.049989
0.528862 0.065141 0.049989
0.609583 0.061296 0.049989
0.701976 0.055863 0.049989
0.804211 0.047959 0.049989
0.924102 0.035599 0.049989
0.975006 0.024994 0.049989
1.000000 0.024994 0.049989
0.053315 0.109850 0.097185
0.080812 0.111299 0.094362
0.109438 0.113603 0.093828
0.149523 0.115206 0.086564
0.204974 0.115084 0.079545
0.264408 0.114504 0.075486
0.327581 0.113817 0.071534
0.389776 0.112978 0.067094
0.455741 0.111727 0.062104
0.528038 0.110033 0.056199
0.605753 0.107622 0.049989
0.692439 0.103960 0.049989
0.784497 0.099077 0.049989
0.888243 0.091493 0.049989
0.949996 0.080827 0.049989
0.975006 0.073350 0.049989
1.000000 0.067658 0.049989
0.057481 0.142657 0.101137
0.088930 0.148745 0.102495
0.120974 0.155566 0.105577
0.163531 0.162829 0.100633
0.229068 0.165576 0.085344
0.302007 0.165270 0.078584
0.374365 0.164157 0.073991
0.441032 0.163287 0.070817
0.507668 0.162692 0.068452
0.577401 0.162478 0.066285
0.652796 0.161929 0.063645
0.736461 0.160296 0.059541
0.829145 0.156207 0.052277
0.925002 0.148211 0.049989
0.949996 0.138430 0.049989
0.975006 0.131792 0.049989
1.000000 0.126360 0.049989
0.071550 0.190875 0.113664
0.106249 0.200290 0.118532
0.140810 0.210025 0.124926
0.179950 0.220401 0.119844
0.236500 0.227039 0.107088
0.314717 0.228275 0.078874
0.395499 0.226230 0.066178
0.468086 0.224842 0.061402
0.538277 0.224430 0.059861
0.608942 0.224826 0.059861
0.684932 0.225101 0.059358
0.766201 0.224231 0.057114
0.856489 0.220966 0.051560
0.925002 0.213794 0.049989
0.949996 0.205097 0.049989
0.975006 0.197772 0.049989
1.000000 0.192050 0.049989
0.088106 0.247913 0.127886
0.124636 0.257816 0.134508
0.160708 0.267994 0.142962
0.199817 0.279011 0.142672
0.248600 0.289708 0.126848
0.311971 0.295109 0.110826
0.391730 0.296345 0.077226
0.470436 0.295171 0.059617
0.547021 0.294087 0.051118
0.624231 0.293217 0.049989
0.705394 0.292165 0.049989
0.789410 0.290501 0.049989
0.879332 0.286824 0.049989
0.925002 0.279744 0.049989
0.949996 0.271458 0.049989
0.975006 0.262898 0.049989
1.000000 0.256870 0.049989
0.104768 0.307469 0.142306
0.143420 0.318105 0.150896
0.180468 0.328954 0.160723
0.220081 0.340627 0.162890
0.263645 0.353216 0.148730
0.318410 0.361959 0.128496
0.382162 0.366140 0.112520
0.452262 0.368200 0.083909
0.531456 0.368277 0.054612
0.612284 0.366949 0.049989
0.697780 0.364721 0.049989
0.786877 0.361471 0.049989
0.881712 0.356069 0.049989
0.925002 0.347478 0.049989
0.949996 0.338064 0.049989
0.975006 0.328008 0.049989
1.000000 0.320974 0.049989
0.122469 0.367605 0.158099
0.161288 0.378820 0.166812
0.198306 0.390097 0.176852
0.237812 0.401724 0.179782
0.279225 0.414420 0.168124
0.326345 0.425177 0.145113
0.383444 0.430930 0.125048
0.443153 0.434043 0.111147
0.509148 0.436423 0.087144
0.585779 0.437278 0.052552
0.673411 0.436011 0.049989
0.764706 0.432578 0.049989
0.861769 0.426978 0.049989
0.925002 0.417685 0.049989
0.949996 0.406622 0.049989
0.975006 0.395178 0.049989
1.000000 0.385138 0.049989
0.139361 0.429160 0.173297
0.178058 0.440116 0.182101
0.214740 0.450980 0.192126
0.254017 0.461738 0.195544
0.294499 0.473610 0.185595
0.337331 0.484855 0.163424
0.387915 0.492424 0.137804
0.443229 0.496437 0.120760
0.503014 0.499336 0.105959
0.568902 0.502052 0.083696
0.647166 0.503410 0.049989
0.737377 0.501915 0.049989
0.835752 0.497276 0.049989
0.925002 0.488396 0.049989
0.949996 0.476936 0.049989
0.975006 0.464790 0.049989
1.000000 0.452049 0.049989
0.154742 0.489601 0.187518
0.193210 0.499626 0.196384
0.229480 0.509575 0.206348
0.268727 0.519539 0.210239
0.309300 0.530602 0.202029
0.350164 0.541558 0.181613
0.395987 0.550362 0.154314
0.447211 0.555978 0.132387
0.503975 0.559686 0.116335
0.564965 0.562768 0.100099
0.634455 0.565545 0.075303
0.714321 0.566445 0.049989
0.808438 0.564157 0.049989
0.919387 0.556695 0.049989
0.949996 0.545525 0.049989
0.975006 0.533776 0.049989
1.000000 0.520027 0.049989
0.168521 0.547463 0.200763
0.207111 0.556786 0.209979
0.243473 0.566049 0.220493
0.283162 0.575357 0.225132
0.324193 0.585779 0.218433
0.364416 0.596582 0.200107
0.407095 0.606012 0.173281
0.454185 0.612726 0.148180
0.507485 0.617975 0.127291
0.565866 0.621668 0.111040
0.631022 0.624765 0.091997
0.702953 0.626932 0.064942
0.786511 0.626841 0.049989
0.890806 0.622293 0.049989
0.949996 0.612879 0.049989
0.975006 0.603601 0.049989
1.000000 0.593042 0.049989
0.182162 0.603250 0.214313
0.220996 0.612085 0.224308
0.257694 0.620951 0.235935
0.297627 0.629847 0.241291
0.338933 0.639811 0.235248
0.378683 0.650172 0.218219
0.419364 0.659831 0.192294
0.463203 0.667628 0.166155
0.512947 0.673991 0.141543
0.568658 0.678935 0.121630
0.631220 0.682536 0.104219
0.698711 0.685161 0.084291
0.771756 0.686122 0.061234
0.857145 0.684764 0.049989
0.949996 0.679561 0.049989
0.975006 0.672801 0.049989
1.000000 0.664958 0.049989
0.196002 0.658091 0.229160
0.234852 0.666529 0.239689
0.271580 0.674952 0.251972
0.311666 0.683543 0.257877
0.353414 0.693248 0.253056
0.393118 0.703304 0.237110
0.432609 0.713024 0.212146
0.474067 0.721370 0.186069
0.520485 0.728786 0.159747
0.573587 0.734478 0.139086
0.633265 0.738277 0.126650
0.695857 0.740963 0.118105
0.761501 0.742565 0.108934
0.833249 0.743008 0.092226
0.916182 0.741482 0.063188
0.975006 0.737789 0.049989
1.000000 0.733120 0.049989
0.209552 0.712215 0.244678
0.248707 0.720317 0.256107
0.285512 0.728496 0.268956
0.325887 0.736812 0.275273
0.367834 0.745968 0.271382
0.407828 0.755718 0.257603
0.447532 0.764782 0.236118
0.488182 0.772549 0.214603
0.532937 0.779980 0.193484
0.582727 0.786038 0.175753
0.638895 0.790829 0.164462
0.697612 0.793851 0.160998
0.758038 0.796185 0.159640
0.821149 0.797650 0.157839
0.889357 0.798093 0.149554
0.963317 0.797452 0.134340
1.000000 0.795834 0.121080
0.223087 0.765560 0.261006
0.262654 0.773480 0.273320
0.299611 0.781415 0.286885
0.340887 0.789181 0.294560
0.385397 0.796796 0.295949
0.427558 0.804944 0.289342
0.467536 0.812985 0.274861
0.507149 0.820508 0.257725
0.549874 0.828016 0.240223
0.596658 0.834562 0.225040
0.649088 0.840085 0.216068
0.704036 0.843793 0.215732
0.760098 0.846418 0.222629
0.817075 0.848554 0.231586
0.875715 0.849821 0.240986
0.935790 0.851041 0.248508
0.998840 0.851682 0.251789
0.237186 0.818280 0.278874
0.278660 0.824979 0.294072
0.318929 0.831495 0.312016
0.362829 0.837873 0.323964
0.407858 0.844755 0.328679
0.450309 0.852018 0.327306
0.490272 0.859236 0.319478
0.529198 0.866102 0.309316
0.570687 0.873182 0.298726
0.615351 0.879850 0.289708
0.664286 0.885603 0.285466
0.715511 0.889860 0.290150
0.767605 0.892790 0.303151
0.819791 0.895338 0.320882
0.872023 0.897551 0.339391
0.923262 0.900282 0.358572
0.974884 0.903365 0.373007
0.257557 0.867460 0.305013
0.301152 0.873121 0.322820
0.342489 0.879088 0.341588
0.387091 0.884947 0.355093
0.432441 0.891264 0.362997
0.475151 0.897887 0.366201
0.515129 0.904234 0.364691
0.554162 0.910323 0.361822
0.594797 0.916640 0.358984
0.637919 0.922896 0.357809
0.684382 0.928618 0.360265
0.732738 0.933318 0.369451
0.781598 0.937118 0.384176
0.830732 0.940520 0.404517
0.879118 0.944198 0.427314
0.925399 0.948837 0.454231
0.969100 0.954253 0.481102
0.044511 0.046662 0.118517
0.073762 0.049515 0.119783
0.104494 0.052567 0.120623
0.148821 0.052201 0.118898
0.190478 0.052171 0.119387
0.233463 0.049226 0.114931
0.278340 0.045380 0.109163
0.320851 0.041779 0.103868
0.364660 0.038254 0.098741
0.413443 0.034928 0.093690
0.469749 0.031251 0.087861
0.536278 0.027115 0.081392
0.614069 0.021820 0.074998
0.703471 0.015091 0.074998
0.807401 0.005158 0.074998
0.942367 0.000000 0.074998
1.000000 0.000000 0.074998
0.052079 0.081483 0.125658
0.080278 0.083436 0.125689
0.106783 0.084214 0.123827
