luts/Earthy_Heritage.CUBE
# kravix mobile - LUTs Pack
LUT_3D_SIZE 5
0.040436 0.043916 0.030091
0.191592 0.049287 0.018601
0.369345 0.036011 0.000000
0.600687 0.019272 0.000000
1.000000 0.000000 0.000000
0.064210 0.185458 0.050675
0.229648 0.221042 0.035554
0.539742 0.217639 0.000000
0.867231 0.211582 0.000000
1.000000 0.185306 0.000000
0.128145 0.422904 0.103029
0.282765 0.469474 0.104112
0.498314 0.494163 0.018341
0.829938 0.493248 0.000000
1.000000 0.448264 0.000000
0.184741 0.653758 0.154849
0.340337 0.690883 0.166506
0.512505 0.725719 0.065705
0.758190 0.738872 0.006561
1.000000 0.727871 0.000000
0.243015 0.865385 0.222568
0.417426 0.889967 0.276692
0.581689 0.916213 0.257801
0.773831 0.934661 0.285710
0.966934 0.948486 0.388861
0.043153 0.048493 0.159060
0.188952 0.052384 0.166400
0.363500 0.038895 0.149981
0.616083 0.022354 0.138369
1.000000 0.000000 0.108919
0.073899 0.198657 0.184588
0.244755 0.232242 0.194827
0.512505 0.235264 0.201755
0.827939 0.232578 0.198398
1.000000 0.198108 0.163684
0.151125 0.435004 0.257527
0.311391 0.474998 0.287984
0.506600 0.503456 0.215412
0.836408 0.499718 0.104417
1.000000 0.457908 0.099992
0.208682 0.660929 0.324804
0.369940 0.693202 0.358633
0.530327 0.729274 0.278660
0.763684 0.745495 0.225574
1.000000 0.737758 0.148119
0.274342 0.868238 0.404654
0.449363 0.892134 0.454765
0.609216 0.917067 0.459525
0.789868 0.940047 0.479576
0.971466 0.960067 0.567758
0.043580 0.049607 0.324910
0.182834 0.050324 0.343664
0.360632 0.039612 0.355123
0.613230 0.024338 0.409491
1.000000 0.000000 0.466056
0.051789 0.209949 0.430625
0.244846 0.234302 0.474784
0.489708 0.243580 0.496544
0.774731 0.245350 0.531899
1.000000 0.209400 0.544686
0.072267 0.467918 0.475303
0.275959 0.493446 0.500603
0.511604 0.500801 0.512779
0.764233 0.507454 0.518135
1.000000 0.483268 0.497948
0.158755 0.685344 0.512200
0.363073 0.704021 0.546426
0.561120 0.717800 0.574777
0.757763 0.742428 0.542397
1.000000 0.741604 0.530861
0.265202 0.880629 0.580270
0.463798 0.897017 0.627146
0.640284 0.913909 0.662608
0.803326 0.943435 0.680186
0.974945 0.968994 0.732555
0.038697 0.047394 0.536171
0.181170 0.043473 0.551812
0.376852 0.031937 0.586755
0.636637 0.016556 0.677791
0.984131 0.000000 0.758068
0.038071 0.212390 0.726162
0.246662 0.233814 0.774121
0.504646 0.241138 0.785214
0.772839 0.247578 0.819120
1.000000 0.222416 0.855039
0.035660 0.478950 0.767269
0.253773 0.500420 0.781476
0.506935 0.504326 0.771710
0.746670 0.513878 0.784497
1.000000 0.500023 0.801923
0.048875 0.719280 0.775845
0.270817 0.734600 0.791119
0.532723 0.733028 0.778897
0.758785 0.744183 0.789929
0.976577 0.758709 0.794507
0.171359 0.915969 0.775082
0.413031 0.922225 0.794736
0.634165 0.927825 0.810636
0.822171 0.950164 0.842847
0.980438 0.978241 0.871900
0.032654 0.043977 0.751080
0.181201 0.037018 0.771740
0.401450 0.021653 0.852735
0.674281 0.004242 0.972580
1.000000 0.000000 1.000000
0.023850 0.213077 1.000000
0.247135 0.231846 1.000000
0.521462 0.235264 1.000000
0.794095 0.240726 1.000000
1.000000 0.219806 1.000000
0.008850 0.485206 1.000000
0.234577 0.503502 1.000000
0.505730 0.502815 1.000000
0.757427 0.510079 1.000000
1.000000 0.506798 1.000000
0.004227 0.729961 1.000000
0.243977 0.740993 1.000000
0.525734 0.736996 1.000000
0.755779 0.751003 1.000000
0.960601 0.771298 0.984817
0.127062 0.931823 1.000000
0.392660 0.934325 1.000000
0.627787 0.939513 0.985672
0.831128 0.961486 0.983505
0.985046 0.986999 0.992920
