luts/Ethereal White.CUBE
# kravix mobile - LUTs Pack
LUT_3D_SIZE 17
0.000000 0.000000 0.000000
0.031586 0.000000 0.000000
0.080078 0.000000 0.000000
0.135803 0.000000 0.000000
0.200745 0.000000 0.000000
0.274536 0.000000 0.000000
0.352936 0.000000 0.000000
0.432526 0.000000 0.000000
0.511963 0.000000 0.000000
0.590851 0.000000 0.000000
0.668915 0.000000 0.000000
0.745544 0.000000 0.000000
0.820251 0.000000 0.000000
0.892242 0.000000 0.000000
0.960968 0.000000 0.000000
1.000000 0.000000 0.000000
1.000000 0.000000 0.000000
0.000824 0.030365 0.000427
0.032684 0.031555 0.000000
0.082062 0.031860 0.000031
0.138824 0.029572 0.000000
0.204590 0.021515 0.000000
0.278290 0.005737 0.000000
0.356232 0.000000 0.000000
0.435120 0.000000 0.000000
0.513916 0.000000 0.000000
0.592438 0.000000 0.000000
0.670105 0.000000 0.000000
0.746399 0.000000 0.000000
0.820831 0.000000 0.000000
0.892670 0.000000 0.000000
0.961212 0.000000 0.000000
1.000000 0.000000 0.000000
1.000000 0.000000 0.000000
0.000092 0.080170 0.000763
0.032013 0.081482 0.000061
0.083557 0.083099 0.000000
0.142212 0.083313 0.000000
0.209229 0.080658 0.000000
0.283295 0.073181 0.000000
0.360596 0.059265 0.000000
0.438782 0.038361 0.000000
0.516937 0.013855 0.000000
0.594757 0.001984 0.000000
0.671906 0.000000 0.000000
0.747772 0.000000 0.000000
0.821808 0.000000 0.000000
0.893280 0.000000 0.000000
0.961487 0.000000 0.000000
1.000000 0.000000 0.000000
1.000000 0.000000 0.000000
0.000000 0.141174 0.000000
0.021576 0.142242 0.000000
0.080719 0.144531 0.000000
0.144745 0.146637 0.000000
0.213745 0.147095 0.000000
0.288086 0.145630 0.000000
0.364716 0.142151 0.000000
0.442078 0.136627 0.000000
0.519592 0.129150 0.000000
0.596985 0.119843 0.000000
0.673676 0.108704 0.000000
0.749146 0.096252 0.000000
0.822845 0.085358 0.000000
0.893890 0.080322 0.000000
0.961609 0.080902 0.000000
1.000000 0.089020 0.000000
1.000000 0.110931 0.000000
0.000000 0.212219 0.000000
0.001251 0.213043 0.000000
0.067963 0.214905 0.000000
0.142822 0.218048 0.000000
0.216797 0.219818 0.000000
0.291992 0.220520 0.000000
0.368286 0.220306 0.000000
0.445007 0.219147 0.000000
0.521973 0.216980 0.000000
0.598724 0.214020 0.000000
0.674927 0.210449 0.000000
0.749878 0.206787 0.000000
0.823029 0.203827 0.000000
0.893524 0.202606 0.000000
0.960663 0.204468 0.000000
1.000000 0.210663 0.000000
1.000000 0.222717 0.000000
0.000000 0.288330 0.000000
0.000000 0.288849 0.000000
0.045044 0.289825 0.000000
0.138306 0.292786 0.000000
0.217712 0.295502 0.000000
0.295074 0.296936 0.000000
0.371307 0.297607 0.000000
0.447784 0.297882 0.000000
0.524231 0.297638 0.000000
0.600586 0.296783 0.000000
0.676208 0.295593 0.000000
0.750519 0.294464 0.000000
0.822998 0.293823 0.000000
0.892822 0.294342 0.000000
0.959259 0.296753 0.000000
1.000000 0.302094 0.000000
1.000000 0.311279 0.000000
0.000000 0.364777 0.000000
0.000000 0.365173 0.000000
0.022614 0.365814 0.000000
0.134216 0.368011 0.000000
0.218384 0.370911 0.000000
0.297333 0.373108 0.000000
0.374359 0.374237 0.000000
0.450623 0.374939 0.000000
0.526703 0.375488 0.000000
0.602417 0.375671 0.000000
0.677399 0.375702 0.000000
0.751007 0.375732 0.000000
0.822723 0.376160 0.000000
0.891724 0.377411 0.000000
0.957336 0.380066 0.000000
1.000000 0.384888 0.000000
1.000000 0.392578 0.000000
0.000000 0.441010 0.000000
0.000000 0.441254 0.000000
0.007935 0.441772 0.000000
0.132202 0.443390 0.000000
0.219482 0.446167 0.000000
0.299469 0.448608 0.000000
0.377136 0.450409 0.000000
0.453613 0.451385 0.000000
0.529266 0.452057 0.000000
0.604340 0.452728 0.000000
0.678558 0.453308 0.000000
0.751373 0.453918 0.000000
0.822174 0.454834 0.000000
0.890228 0.456390 0.000000
0.954803 0.459076 0.000000
0.999969 0.463379 0.000000
1.000000 0.469879 0.000000
0.000000 0.516418 0.000000
0.000000 0.516632 0.000000
0.005066 0.516998 0.000000
0.133331 0.518127 0.000000
0.222198 0.520691 0.000000
0.302612 0.523132 0.000000
0.380310 0.525177 0.000000
0.456940 0.526642 0.000000
0.532257 0.527435 0.000000
0.606628 0.528015 0.000000
0.679932 0.528778 0.000000
0.751770 0.529602 0.000000
0.821533 0.530731 0.000000
0.888458 0.532349 0.000000
0.951843 0.534821 0.000000
0.999756 0.538635 0.000000
1.000000 0.544159 0.000000
0.000000 0.590302 0.000000
0.000000 0.590454 0.000000
0.014465 0.590729 0.000000
0.141083 0.591583 0.000000
0.228668 0.593842 0.000000
0.308197 0.596161 0.000000
0.385223 0.598175 0.000000
0.461060 0.599823 0.000000
0.536041 0.600891 0.000000
0.609680 0.601440 0.000000
0.681915 0.601990 0.000000
0.752533 0.602783 0.000000
0.821014 0.603821 0.000000
0.886627 0.605316 0.000000
0.948608 0.607513 0.000000
0.999512 0.610779 0.000000
1.000000 0.615417 0.000000
0.000000 0.661774 0.000000
0.000000 0.661896 0.000000
0.051575 0.662079 0.000000
0.159088 0.662811 0.000000
0.241089 0.664795 0.000000
0.317993 0.666840 0.000000
0.393188 0.668732 0.000000
0.467621 0.670288 0.000000
0.541351 0.671478 0.000000
0.613983 0.672180 0.000000
0.685028 0.672485 0.000000
0.754211 0.672913 0.000000
0.821106 0.673737 0.000000
0.885132 0.674896 0.000000
0.945465 0.676727 0.000000
0.998901 0.679352 0.000000
1.000000 0.683075 0.000000
0.000000 0.729828 0.000000
0.017578 0.729858 0.000000
0.107819 0.729980 0.000000
0.189117 0.730804 0.000000
0.262115 0.732452 0.000000
0.334137 0.734192 0.000000
0.406097 0.735840 0.000000
0.478027 0.737213 0.000000
0.549622 0.738281 0.000000
0.620453 0.738953 0.000000
0.689941 0.739258 0.000000
0.757416 0.739319 0.000000
0.822479 0.739594 0.000000
0.884521 0.740326 0.000000
0.942902 0.741638 0.000000
0.995453 0.743652 0.000000
1.000000 0.746338 0.000000
0.075409 0.793182 0.000000
0.120789 0.793213 0.000000
0.172943 0.793396 0.000000
0.230804 0.794403 0.000000
0.293243 0.795746 0.000000
0.358673 0.797119 0.000000
0.425812 0.798370 0.000000
0.493988 0.799469 0.000000
0.562408 0.800262 0.000000
0.630585 0.800751 0.000000
0.697723 0.800903 0.000000
0.763031 0.800781 0.000000
0.825836 0.800537 0.000000
0.885529 0.800690 0.000000
0.941559 0.801331 0.000000
0.992401 0.802582 0.000000
1.000000 0.804321 0.000000
0.186798 0.850739 0.000000
0.207794 0.851013 0.000000
0.239655 0.851562 0.000000
0.283325 0.852386 0.000000
0.335266 0.853333 0.000000
0.392731 0.854279 0.000000
0.453735 0.855164 0.000000
0.516907 0.855865 0.000000
0.581238 0.856323 0.000000
0.645782 0.856445 0.000000
0.709686 0.856293 0.000000
0.772064 0.855896 0.000000
0.832092 0.855377 0.000000
0.888947 0.854919 0.000000
0.942261 0.854950 0.000000
0.991058 0.855438 0.000000
1.000000 0.856354 0.000000
0.272858 0.902771 0.005493
0.286987 0.902985 0.005188
0.309937 0.903351 0.004791
0.343842 0.903839 0.003998
0.386536 0.904449 0.003052
0.435944 0.905060 0.002167
0.489990 0.905548 0.001190
0.547302 0.905884 0.000305
0.606445 0.906006 0.000000
0.666412 0.905884 0.000000
0.726166 0.905487 0.000000
0.784790 0.904907 0.000000
0.841278 0.904205 0.000610
0.894867 0.903534 0.002319
0.945129 0.903137 0.004456
0.991577 0.903168 0.006165
1.000000 0.903473 0.014465
0.351929 0.949188 0.086884
0.362488 0.949310 0.086029
0.380249 0.949524 0.084015
0.407166 0.949829 0.081238
0.442383 0.950134 0.077454
0.484406 0.950470 0.072784
0.531586 0.950684 0.067871
0.582703 0.950775 0.063141
0.636139 0.950684 0.058990
0.690948 0.950378 0.056274
0.745941 0.949890 0.055786
0.800110 0.949219 0.057983
0.852356 0.948517 0.063751
0.902283 0.947876 0.072296
0.949615 0.947327 0.083130
0.993500 0.947083 0.094574
1.000000 0.947052 0.106506
0.424500 0.991760 0.145782
0.432770 0.991852 0.145233
0.446899 0.991974 0.144287
0.468994 0.992126 0.143005
0.498260 0.992279 0.141357
0.533966 0.992432 0.139221
0.574951 0.992493 0.137360
0.620026 0.992401 0.135803
0.667816 0.992188 0.134338
0.717163 0.991852 0.133911
0.767029 0.991333 0.134491
0.816315 0.990753 0.135986
0.864166 0.990173 0.139282
0.910339 0.989655 0.143768
0.954773 0.989227 0.149689
0.996460 0.988953 0.156982
1.000000 0.988861 0.165100
0.000702 0.000366 0.029999
0.031952 0.000366 0.031158
0.081085 0.000000 0.031525
0.137177 0.000000 0.031860
0.202545 0.000000 0.031830
0.276459 0.000000 0.031158
0.354706 0.000000 0.029724
0.434021 0.000000 0.027466
0.513184 0.000000 0.024048
0.591980 0.000000 0.019073
0.669830 0.000000 0.012207
0.746338 0.000000 0.004120
0.820923 0.000000 0.000427
0.892853 0.000000 0.000000
0.961426 0.000000 0.000000
1.000000 0.000000 0.000000
1.000000 0.000000 0.000000
0.001160 0.031952 0.031189
0.033875 0.032349 0.031952
0.083618 0.031952 0.031921
0.140747 0.029297 0.031921
0.206604 0.020844 0.031342
0.280243 0.005249 0.030701
0.357941 0.000000 0.028717
0.436554 0.000000 0.026031
0.515167 0.000000 0.021851
0.593536 0.000000 0.016296
0.671021 0.000000 0.009125
0.747253 0.000000 0.001434
0.821533 0.000000 0.000122
0.893219 0.000000 0.000000
0.961639 0.000000 0.000000
1.000000 0.000000 0.000000
1.000000 0.000000 0.000000
0.000122 0.081512 0.032684
0.034698 0.082184 0.033142
0.085358 0.083740 0.032318
0.144196 0.083588 0.031525
0.211639 0.080475 0.030396
0.285431 0.072784 0.028564
0.362457 0.058563 0.025909
0.440277 0.037811 0.022003
0.518158 0.013611 0.017059
0.595825 0.001923 0.010529
0.672791 0.000000 0.003082
0.748596 0.000000 0.000244
0.822510 0.000000 0.000000
0.893829 0.000000 0.000000
0.961945 0.000000 0.000000
1.000000 0.000000 0.000000
1.000000 0.000000 0.000000
0.000000 0.142059 0.031250
0.024445 0.142975 0.031616
0.082916 0.145050 0.030457
0.146881 0.147034 0.028229
0.216064 0.147369 0.026031
0.290192 0.145782 0.023254
0.366547 0.142181 0.019226
0.443604 0.136505 0.014130
0.520813 0.129120 0.008026
0.597961 0.119812 0.002197
0.674530 0.108704 0.000214
0.749878 0.096344 0.000000
0.823425 0.085419 0.000000
0.894379 0.080536 0.000000
0.962006 0.080963 0.000000
1.000000 0.089325 0.000000
1.000000 0.111298 0.000000
0.000000 0.213074 0.023621
0.001923 0.213837 0.024048
0.071777 0.215546 0.022797
0.145416 0.218445 0.018555
0.218872 0.220184 0.015076
0.293793 0.220856 0.011688
0.369781 0.220551 0.006989
0.446289 0.219330 0.002594
0.523071 0.217072 0.000763
0.599731 0.214050 0.000061
0.675751 0.210480 0.000000
0.750580 0.206879 0.000000
0.823578 0.203949 0.000000
0.893982 0.202728 0.000000
0.961060 0.204559 0.000000
1.000000 0.210938 0.000000
1.000000 0.223114 0.000000
0.000000 0.288971 0.008942
0.000000 0.289551 0.009064
0.050171 0.290466 0.008942
0.141022 0.293274 0.004272
0.219788 0.295837 0.001831
0.296814 0.297180 0.000702
0.372772 0.297852 0.000153
0.448975 0.298096 0.000061
0.525330 0.297760 0.000000
0.601471 0.296936 0.000000
0.676941 0.295715 0.000000
0.751160 0.294617 0.000000
0.823517 0.293976 0.000000
0.893250 0.294495 0.000000
0.959595 0.296936 0.000000
1.000000 0.302338 0.000000
1.000000 0.311523 0.000000
0.000000 0.365326 0.000183
0.000000 0.365723 0.000183
0.029449 0.366364 0.000183
0.137390 0.368561 0.000061
0.220367 0.371307 0.000000
0.299011 0.373383 0.000000
0.375671 0.374512 0.000000
0.451721 0.375183 0.000000
0.527618 0.375702 0.000000
0.603210 0.375885 0.000000
0.678070 0.375854 0.000000
0.751587 0.375885 0.000000
0.823181 0.376312 0.000000
0.892090 0.377563 0.000000
0.957611 0.380249 0.000000
1.000000 0.385040 0.000000
1.000000 0.392700 0.000000
0.000000 0.441437 0.000000
0.000000 0.441742 0.000000
0.014801 0.442230 0.000000
0.135315 0.443848 0.000000
0.221466 0.446533 0.000000
0.300903 0.448883 0.000000
0.378326 0.450623 0.000000
0.454651 0.451569 0.000000
0.530090 0.452240 0.000000
0.605072 0.452881 0.000000
0.679169 0.453461 0.000000
0.751862 0.454071 0.000000
0.822601 0.454987 0.000000
0.890533 0.456573 0.000000
0.955048 0.459229 0.000000
0.999969 0.463531 0.000000
1.000000 0.470062 0.000000
0.000000 0.516815 0.000000
0.000000 0.517029 0.000000
0.009155 0.517395 0.000000
0.136261 0.518555 0.000000
0.224060 0.521057 0.000000
0.303894 0.523438 0.000000
0.381378 0.525421 0.000000
0.457764 0.526825 0.000000
0.533020 0.527588 0.000000
0.607239 0.528229 0.000000
0.680450 0.528931 0.000000
0.752167 0.529755 0.000000
0.821838 0.530884 0.000000
0.888733 0.532501 0.000000
0.952026 0.535004 0.000000
0.999756 0.538788 0.000000
1.000000 0.544373 0.000000
0.000000 0.590668 0.000000
0.000000 0.590820 0.000000
0.020111 0.591095 0.000000
0.143555 0.591980 0.000000
0.230072 0.594208 0.000000
0.309296 0.596436 0.000000
0.386047 0.598450 0.000000
0.461823 0.600037 0.000000
0.536682 0.601074 0.000000
0.610229 0.601654 0.000000
0.682343 0.602173 0.000000
0.752899 0.602936 0.000000
0.821289 0.603973 0.000000
0.886841 0.605469 0.000000
0.948730 0.607666 0.000000
0.999512 0.610931 0.000000
1.000000 0.615570 0.000000
0.000000 0.662109 0.000000
0.000000 0.662231 0.000000
0.055908 0.662415 0.000000
0.160919 0.663147 0.000000
0.242310 0.665100 0.000000
0.318970 0.667114 0.000000
0.393921 0.668976 0.000000
0.468262 0.670502 0.000000
0.541870 0.671661 0.000000
0.614441 0.672333 0.000000
0.685364 0.672668 0.000000
0.754486 0.673096 0.000000
0.821350 0.673889 0.000000
0.885284 0.675049 0.000000
0.945526 0.676880 0.000000
0.998901 0.679504 0.000000
1.000000 0.683228 0.000000
0.000000 0.730103 0.000000
0.019104 0.730133 0.000000
0.110321 0.730255 0.000000
0.190460 0.731079 0.000000
0.263062 0.732727 0.000000
0.334991 0.734436 0.000000
0.406738 0.736023 0.000000
0.478577 0.737396 0.000000
0.550049 0.738434 0.000000
0.620819 0.739075 0.000000
0.690247 0.739380 0.000000
0.757599 0.739441 0.000000
0.822601 0.739777 0.000000
0.884613 0.740479 0.000000
0.942871 0.741791 0.000000
0.995453 0.743744 0.000000
1.000000 0.746521 0.000000
0.079376 0.793457 0.000092
0.122894 0.793457 0.000092
0.174316 0.793640 0.000000
0.231964 0.794678 0.000000
0.294037 0.795990 0.000000
0.359283 0.797333 0.000000
0.426331 0.798584 0.000000
0.494385 0.799622 0.000000
0.562775 0.800415 0.000000
0.630829 0.800873 0.000000
0.697906 0.801025 0.000000
0.763184 0.800903 0.000000
0.825928 0.800690 0.000000
0.885559 0.800812 0.000000
0.941528 0.801453 0.000000
0.992310 0.802704 0.000000
1.000000 0.804443 0.000000
0.188049 0.850952 0.013275
0.208801 0.851257 0.010803
0.240479 0.851807 0.007233
0.284058 0.852600 0.005432
0.335876 0.853516 0.003265
0.393280 0.854462 0.001282
0.454163 0.855316 0.000275
0.517303 0.855988 0.000183
0.581482 0.856445 0.000061
0.645966 0.856567 0.000031
0.709778 0.856415 0.000000
0.772095 0.856018 0.000061
0.832123 0.855499 0.000153
0.888947 0.855042 0.000336
0.942169 0.855072 0.001678
0.990936 0.855591 0.003876
1.000000 0.856476 0.007690
0.273560 0.902954 0.072876
0.287506 0.903198 0.071289
0.310669 0.903503 0.068268
0.344421 0.904022 0.064178
0.386993 0.904602 0.058228
0.436310 0.905182 0.051270
0.490356 0.905670 0.043549
0.547546 0.906006 0.036194
0.606659 0.906128 0.029724
0.666534 0.905975 0.025635
0.726257 0.905579 0.024292
0.784760 0.904968 0.025635
0.841248 0.904297 0.030914
0.894714 0.903625 0.041962
0.944946 0.903229 0.054688
0.991425 0.903229 0.066956
1.000000 0.903595 0.081299
0.352478 0.949341 0.126282
0.362915 0.949463 0.125519
0.380615 0.949646 0.124054
0.407593 0.949921 0.122070
0.442657 0.950287 0.119598
0.484650 0.950592 0.116638
0.531860 0.950806 0.113525
0.582855 0.950897 0.110504
0.636261 0.950775 0.108124
0.691010 0.950470 0.106598
0.745911 0.949951 0.106171
0.800049 0.949310 0.107819
0.852325 0.948608 0.111359
0.902100 0.947968 0.116913
0.949402 0.947418 0.124268
0.993347 0.947174 0.132477
1.000000 0.947174 0.141449
0.425140 0.991638 0.173889
0.433533 0.991669 0.173553
0.447632 0.991791 0.172668
0.469482 0.991943 0.171631
0.498718 0.992096 0.170410
0.534454 0.992218 0.168884
0.575317 0.992279 0.167267
0.620270 0.992218 0.165894
0.667938 0.992035 0.164703
0.717224 0.991699 0.164185
0.766968 0.991241 0.164368
0.816162 0.990723 0.165649
0.864014 0.990173 0.167969
0.910156 0.989685 0.171600
0.954590 0.989319 0.176453
0.996216 0.989014 0.182556
1.000000 0.988953 0.189453
0.000061 0.000427 0.079437
0.031921 0.000427 0.080170
0.081726 0.000000 0.081726
0.138824 0.000000 0.082367
0.204956 0.000000 0.082855
0.278900 0.000000 0.083130
0.356995 0.000000 0.083160
0.435974 0.000000 0.082550
0.514923 0.000000 0.081512
0.593414 0.000000 0.079620
0.671143 0.000000 0.076569
0.747467 0.000000 0.072327
0.821838 0.000000 0.066895
0.893616 0.000000 0.060425
0.962006 0.000000 0.052948
1.000000 0.000000 0.045319
1.000000 0.000000 0.037140
0.000488 0.033112 0.080841
0.034363 0.033478 0.081512
0.084412 0.032043 0.082855
0.142639 0.029022 0.083130
0.209045 0.020630 0.083496
0.282684 0.004669 0.083649
0.360168 0.000000 0.083252
0.438507 0.000000 0.082428
0.516876 0.000000 0.080994
0.594940 0.000000 0.078491
0.672302 0.000000 0.075134
0.748322 0.000000 0.070618
0.822449 0.000000 0.064972
0.893982 0.000000 0.058075
0.962250 0.000000 0.050201
1.000000 0.000000 0.042664
1.000000 0.000000 0.034668
0.000183 0.082916 0.082642
0.035156 0.083740 0.083313
0.087128 0.084442 0.083557
0.147552 0.083557 0.083923
0.215057 0.080017 0.083557
0.288544 0.071899 0.083191
0.364990 0.057892 0.082428
0.442383 0.037231 0.081177
0.519806 0.013245 0.079163
0.597229 0.001923 0.076202
0.674011 0.000000 0.072266
0.749603 0.000000 0.067078
0.823334 0.000000 0.061066
0.894562 0.000000 0.054047
0.962494 0.000000 0.045837
1.000000 0.000000 0.038116
1.000000 0.000000 0.029846
0.000000 0.143860 0.084015
0.026306 0.144562 0.084412
0.086853 0.145538 0.085083
0.149933 0.147675 0.083649
0.219482 0.147797 0.082672
0.293610 0.145844 0.081360
0.369659 0.141785 0.079773
0.446350 0.136078 0.077606
0.523285 0.128571 0.074646
0.600098 0.119171 0.070892
0.676300 0.108093 0.066101
0.751373 0.095703 0.060608
0.824615 0.085114 0.053894
0.895325 0.080383 0.046326
0.962738 0.081024 0.038696
1.000000 0.089600 0.030823
1.000000 0.112152 0.023651
0.000000 0.214600 0.082520
0.002502 0.215302 0.082733
0.076813 0.216248 0.083527
0.149231 0.218781 0.081818
0.222015 0.220703 0.079468
0.296753 0.221313 0.077576
0.372650 0.220825 0.074890
0.448975 0.219360 0.071777
0.525452 0.217010 0.067993
0.601837 0.213959 0.063538
0.677551 0.210327 0.058319
0.752106 0.206665 0.052094
0.824829 0.203827 0.044983
0.894928 0.202789 0.037781
0.961731 0.204742 0.030273
1.000000 0.211304 0.023163
1.000000 0.223541 0.016876
0.000000 0.290161 0.077606
0.000000 0.290680 0.077942
0.057648 0.291443 0.078461
0.145844 0.293457 0.076965
0.222992 0.296204 0.072601
0.299316 0.297638 0.069489
0.375031 0.298340 0.066986
0.451111 0.298492 0.063232
0.527283 0.298004 0.058746
0.603210 0.297089 0.053467
0.678436 0.295837 0.047516
0.752411 0.294678 0.041229
0.824524 0.294067 0.034607
0.893982 0.294647 0.027588
0.960083 0.297211 0.020691
1.000000 0.302612 0.014099
1.000000 0.311890 0.008423
0.000000 0.366302 0.070129
0.000000 0.366669 0.070404
0.038147 0.367279 0.070709
0.142303 0.368958 0.068970
0.223663 0.371613 0.063416
0.301239 0.373779 0.057587
0.377655 0.374939 0.054138
0.453430 0.375580 0.051056
0.529175 0.376007 0.046356
0.604553 0.376160 0.041351
0.679199 0.376129 0.035492
0.752533 0.376129 0.029175
0.823914 0.376556 0.022675
0.892670 0.377808 0.015961
0.958008 0.380554 0.009338
1.000000 0.385376 0.005371
1.000000 0.393066 0.004181
0.000000 0.442291 0.060455
0.000000 0.442535 0.060730
0.024414 0.443024 0.061157
0.139709 0.444519 0.058899
0.224304 0.447052 0.052032
0.303070 0.449371 0.044952
0.380127 0.451050 0.038727
0.456146 0.451935 0.035553
0.531372 0.452637 0.032623
0.606171 0.453217 0.027710
0.680115 0.453735 0.022369
0.752655 0.454315 0.016266
0.823181 0.455261 0.010345
0.891022 0.456848 0.005890
0.955353 0.459503 0.003937
0.999969 0.463867 0.003540
1.000000 0.470428 0.003418
0.000000 0.517517 0.051208
0.000000 0.517731 0.051544
0.018280 0.518097 0.052063
0.140167 0.519257 0.049988
0.226532 0.521667 0.042633
0.305847 0.523956 0.034119
0.382935 0.525848 0.026001
0.459106 0.527191 0.019653
0.534180 0.527893 0.017059
0.608246 0.528503 0.014404
0.681244 0.529236 0.010223
0.752869 0.530029 0.006592
0.822357 0.531128 0.004303
0.889099 0.532776 0.003693
0.952271 0.535278 0.003204
0.999786 0.539093 0.002991
1.000000 0.544678 0.003113
0.000000 0.591309 0.046112
0.000000 0.591431 0.046600
0.028473 0.591705 0.047394
0.146912 0.592621 0.045593
0.232422 0.594757 0.037079
0.311005 0.596924 0.027649
0.387421 0.598877 0.018280
0.463013 0.600372 0.010040
0.537628 0.601410 0.005981
0.611023 0.601898 0.005188
0.683014 0.602478 0.004608
0.753448 0.603210 0.004211
0.821716 0.604248 0.003784
0.887085 0.605743 0.003418
0.948883 0.607941 0.003113
0.999512 0.611237 0.003113
1.000000 0.615875 0.003571
0.000000 0.662689 0.047455
0.000000 0.662781 0.047760
0.062073 0.662964 0.048553
0.163910 0.663727 0.046875
0.244263 0.665619 0.037994
0.320435 0.667572 0.028046
0.395142 0.669342 0.018219
0.469269 0.670837 0.009155
0.542664 0.671936 0.004791
0.615051 0.672607 0.004303
0.685944 0.672913 0.004333
0.754913 0.673340 0.004395
0.821655 0.674133 0.004303
0.885468 0.675323 0.004150
0.945587 0.677124 0.004150
0.998871 0.679779 0.004364
1.000000 0.683502 0.005524
0.000000 0.730591 0.057617
0.023499 0.730652 0.057922
0.114563 0.730743 0.058716
0.192871 0.731567 0.055634
0.264679 0.733185 0.047974
0.336273 0.734863 0.038727
0.407776 0.736389 0.029114
0.479370 0.737701 0.019409
0.550751 0.738708 0.011383
0.621338 0.739319 0.007111
0.690674 0.739624 0.006378
0.757965 0.739685 0.007843
0.822845 0.739990 0.009094
0.884705 0.740723 0.010559
0.942871 0.742004 0.012329
0.995331 0.744019 0.015503
1.000000 0.746765 0.024292
0.084229 0.793884 0.077545
0.126617 0.793884 0.078125
0.176819 0.794067 0.078064
0.233673 0.795105 0.073151
0.295441 0.796356 0.066467
0.360413 0.797668 0.059753
0.427185 0.798889 0.052246
0.495117 0.799927 0.044312
0.563354 0.800659 0.036774
0.631287 0.801117 0.031311
0.698242 0.801208 0.028503
0.763428 0.801086 0.029785
0.826019 0.800873 0.035065
0.885590 0.801025 0.040070
0.941406 0.801697 0.045013
0.992126 0.802917 0.051056
1.000000 0.804688 0.060394
0.190155 0.851379 0.109222
0.210724 0.851624 0.108093
0.242157 0.852173 0.105652
0.285370 0.852936 0.101837
0.336945 0.853851 0.097137
0.394135 0.854767 0.091522
0.454865 0.855591 0.085480
0.517822 0.856232 0.079590
0.581940 0.856659 0.074219
0.646271 0.856781 0.070282
0.709991 0.856598 0.068756
0.772247 0.856201 0.069611
0.832153 0.855652 0.073456
0.888855 0.855225 0.080322
0.942017 0.855255 0.087006
0.990723 0.855774 0.094025
1.000000 0.856689 0.103668
0.274872 0.903229 0.140869
0.288666 0.903473 0.140015
0.311737 0.903778 0.138458
0.345367 0.904297 0.136353
0.387817 0.904846 0.133514
0.436981 0.905396 0.130188
0.490906 0.905853 0.126678
0.548004 0.906189 0.123322
0.606964 0.906281 0.120361
0.666718 0.906128 0.118225
0.726318 0.905731 0.117432
0.784790 0.905151 0.118286
0.841187 0.904449 0.121368
0.894562 0.903778 0.126495
0.944733 0.903381 0.133057
0.991119 0.903473 0.139404
1.000000 0.903748 0.147064
0.354370 0.949036 0.177826
0.364807 0.949127 0.177338
0.382324 0.949341 0.176514
0.409119 0.949615 0.175171
0.444000 0.949921 0.173492
0.485657 0.950256 0.171539
0.532623 0.950500 0.169312
0.583374 0.950623 0.167267
0.636627 0.950592 0.165375
0.691162 0.950348 0.164124
0.745941 0.949921 0.163635
0.799927 0.949341 0.164307
0.852112 0.948669 0.166443
0.901855 0.948090 0.170044
0.949066 0.947571 0.175201
0.993011 0.947327 0.181152
1.000000 0.947357 0.187714
0.427429 0.990784 0.216278
0.435547 0.990845 0.215973
0.449615 0.990967 0.215393
0.471283 0.991119 0.214569
0.500244 0.991333 0.213409
0.535553 0.991516 0.212067
0.576141 0.991699 0.210571
0.620697 0.991760 0.209106
0.668152 0.991669 0.207825
0.717255 0.991486 0.206970
0.766876 0.991119 0.206696
0.815948 0.990692 0.207245
0.863708 0.990204 0.208832
0.909760 0.989777 0.211548
0.954132 0.989441 0.215363
0.995819 0.989197 0.220276
1.000000 0.989105 0.225952
0.000000 0.001190 0.139404
0.025909 0.001160 0.139984
0.079773 0.000061 0.141632
0.139709 0.000000 0.143219
0.207336 0.000000 0.144257
0.281799 0.000000 0.145081
0.359650 0.000000 0.145966
0.438354 0.000000 0.146545
0.516907 0.000000 0.146973
0.595123 0.000000 0.146973
0.672546 0.000000 0.146606
0.748596 0.000000 0.145874
0.822723 0.000000 0.144501
0.894196 0.000000 0.142914
0.962433 0.000000 0.141052
1.000000 0.000000 0.139191
1.000000 0.000000 0.137299
0.000000 0.034607 0.141083
0.028870 0.034790 0.141632
0.082825 0.033813 0.142944
