luts/Golden Citron.CUBE
# kravix mobile - LUTs Pack
LUT_3D_SIZE 17
0.000000 0.000000 0.000000
0.044128 0.000000 0.000000
0.099121 0.000000 0.000000
0.158264 0.000000 0.000000
0.224060 0.000000 0.000000
0.295990 0.000000 0.000000
0.371124 0.000000 0.000000
0.446686 0.000000 0.000000
0.521759 0.000000 0.000000
0.596130 0.000000 0.000000
0.669556 0.000000 0.000000
0.741699 0.000000 0.000000
0.812134 0.000000 0.000000
0.880402 0.000000 0.000000
0.946075 0.000000 0.000000
0.999542 0.000000 0.000000
1.000000 0.000000 0.000000
0.001923 0.039368 0.000061
0.045135 0.040466 0.000000
0.100098 0.039703 0.000000
0.160187 0.035675 0.000000
0.226501 0.026794 0.000000
0.298523 0.010468 0.000000
0.373260 0.000153 0.000000
0.448364 0.000000 0.000000
0.523010 0.000000 0.000000
0.597076 0.000000 0.000000
0.670227 0.000000 0.000000
0.742096 0.000000 0.000000
0.812347 0.000000 0.000000
0.880493 0.000000 0.000000
0.946106 0.000000 0.000000
0.999512 0.000000 0.000000
1.000000 0.000000 0.000000
0.002594 0.092926 0.000092
0.046692 0.093781 0.000000
0.101746 0.094452 0.000000
0.162598 0.093475 0.000000
0.229645 0.090179 0.000000
0.301788 0.082367 0.000000
0.376007 0.069214 0.000000
0.450592 0.049927 0.000000
0.524750 0.026733 0.000000
0.598389 0.005280 0.000000
0.671143 0.000702 0.000000
0.742737 0.000000 0.000000
0.812714 0.000000 0.000000
0.880585 0.000000 0.000000
0.945923 0.000000 0.000000
0.999512 0.000000 0.000000
1.000000 0.000000 0.000000
0.000244 0.152924 0.000000
0.043945 0.153870 0.000000
0.102020 0.155609 0.000000
0.165253 0.156128 0.000000
0.233093 0.155579 0.000000
0.305084 0.152954 0.000000
0.378571 0.148590 0.000000
0.452332 0.142395 0.000000
0.525940 0.134552 0.000000
0.599121 0.125153 0.000000
0.671539 0.114258 0.000000
0.742828 0.102112 0.000000
0.812561 0.089966 0.000000
0.880188 0.082001 0.000000
0.945190 0.079407 0.000000
0.999451 0.082458 0.000000
1.000000 0.093719 0.000000
0.000000 0.220520 0.000000
0.028107 0.220978 0.000000
0.097626 0.222900 0.000000
0.165802 0.224731 0.000000
0.236084 0.225098 0.000000
0.307983 0.224670 0.000000
0.380768 0.223328 0.000000
0.453888 0.221100 0.000000
0.526855 0.218048 0.000000
0.599518 0.214203 0.000000
0.671509 0.209900 0.000000
0.742371 0.205475 0.000000
0.811707 0.201508 0.000000
0.878937 0.198883 0.000000
0.943573 0.198486 0.000000
0.999329 0.201385 0.000000
1.000000 0.208588 0.000000
0.000000 0.292084 0.000000
0.005615 0.292419 0.000000
0.090515 0.293701 0.000000
0.165161 0.295715 0.000000
0.237854 0.297119 0.000000
0.310364 0.297394 0.000000
0.382690 0.297058 0.000000
0.455231 0.296387 0.000000
0.527679 0.295135 0.000000
0.599884 0.293335 0.000000
0.671356 0.291290 0.000000
0.741730 0.289276 0.000000
0.810577 0.287567 0.000000
0.877319 0.286804 0.000000
0.941467 0.287476 0.000000
0.999176 0.290344 0.000000
1.000000 0.295868 0.000000
0.000000 0.364136 0.000000
0.000458 0.364349 0.000000
0.085022 0.365204 0.000000
0.165314 0.367157 0.000000
0.239441 0.368866 0.000000
0.312469 0.369904 0.000000
0.384674 0.370026 0.000000
0.456665 0.369873 0.000000
0.528595 0.369507 0.000000
0.600159 0.368866 0.000000
0.671082 0.367981 0.000000
0.740906 0.367096 0.000000
0.809113 0.366577 0.000000
0.875214 0.366669 0.000000
0.938782 0.367798 0.000000
0.997528 0.370544 0.000000
1.000000 0.375214 0.000000
0.000000 0.436035 0.000000
0.000122 0.436157 0.000000
0.083740 0.436798 0.000000
0.166656 0.438538 0.000000
0.241302 0.440338 0.000000
0.314209 0.441803 0.000000
0.386536 0.442596 0.000000
0.458282 0.442719 0.000000
0.529572 0.442627 0.000000
0.600494 0.442505 0.000000
0.670715 0.442322 0.000000
0.739807 0.442108 0.000000
0.807312 0.442139 0.000000
0.872742 0.442627 0.000000
0.935547 0.444000 0.000000
0.993896 0.446533 0.000000
1.000000 0.450470 0.000000
0.000000 0.507355 0.000000
0.000366 0.507477 0.000000
0.086670 0.507904 0.000000
0.169525 0.509521 0.000000
0.243927 0.511230 0.000000
0.316467 0.512817 0.000000
0.388397 0.513977 0.000000
0.459961 0.514648 0.000000
0.530792 0.514679 0.000000
0.600952 0.514648 0.000000
0.670380 0.514740 0.000000
0.738678 0.514862 0.000000
0.805359 0.515167 0.000000
0.869904 0.515900 0.000000
0.931854 0.517303 0.000000
0.989777 0.519592 0.000000
1.000000 0.522888 0.000000
0.000000 0.577667 0.000000
0.001373 0.577728 0.000000
0.095581 0.578094 0.000000
0.175354 0.579498 0.000000
0.248474 0.581116 0.000000
0.319977 0.582672 0.000000
0.391083 0.583984 0.000000
0.461975 0.584900 0.000000
0.532379 0.585327 0.000000
0.601898 0.585327 0.000000
0.670380 0.585327 0.000000
0.737671 0.585541 0.000000
0.803375 0.585938 0.000000
0.866943 0.586700 0.000000
0.927887 0.587982 0.000000
0.985382 0.589935 0.000000
1.000000 0.592651 0.000000
0.000000 0.646271 0.000000
0.025909 0.646332 0.000000
0.113190 0.646698 0.000000
0.186218 0.647919 0.000000
0.256256 0.649384 0.000000
0.325958 0.650787 0.000000
0.395630 0.652100 0.000000
0.465302 0.653107 0.000000
0.534790 0.653717 0.000000
0.603485 0.653992 0.000000
0.671021 0.653870 0.000000
0.737183 0.653900 0.000000
0.801697 0.654205 0.000000
0.864075 0.654816 0.000000
0.923950 0.655884 0.000000
0.980957 0.657440 0.000000
1.000000 0.659546 0.000000
0.016876 0.712402 0.000000
0.078308 0.712433 0.000000
0.140381 0.712921 0.000000
0.204010 0.714020 0.000000
0.269348 0.715240 0.000000
0.335846 0.716522 0.000000
0.403290 0.717682 0.000000
0.471130 0.718658 0.000000
0.538940 0.719330 0.000000
0.606354 0.719635 0.000000
0.672760 0.719666 0.000000
0.737732 0.719452 0.000000
0.800842 0.719452 0.000000
0.861786 0.719849 0.000000
0.920502 0.720551 0.000000
0.976868 0.721680 0.000000
1.000000 0.723083 0.000000
0.099884 0.775269 0.000000
0.133423 0.775482 0.000000
0.176971 0.776062 0.000000
0.230377 0.776947 0.000000
0.289276 0.777954 0.000000
0.351501 0.778992 0.000000
0.415466 0.779999 0.000000
0.480591 0.780823 0.000000
0.546143 0.781403 0.000000
0.611603 0.781708 0.000000
0.676300 0.781769 0.000000
0.739685 0.781555 0.000000
0.801239 0.781250 0.000000
0.860626 0.781250 0.000000
0.918091 0.781555 0.000000
0.973724 0.782196 0.000000
1.000000 0.783081 0.000000
0.167603 0.834747 0.000000
0.188965 0.834991 0.000000
0.221405 0.835480 0.000000
0.265411 0.836151 0.000000
0.316925 0.836945 0.000000
0.373413 0.837799 0.000000
0.432983 0.838593 0.000000
0.494537 0.839264 0.000000
0.557037 0.839722 0.000000
0.619812 0.839966 0.000000
0.682159 0.839996 0.000000
0.743439 0.839813 0.000000
0.803070 0.839569 0.000000
0.860809 0.839264 0.000000
0.916840 0.839264 0.000000
0.971436 0.839539 0.000000
1.000000 0.840057 0.000000
0.228607 0.891052 0.000000
0.244202 0.891266 0.000000
0.269318 0.891632 0.000000
0.305420 0.892151 0.000000
0.349945 0.892761 0.000000
0.400452 0.893402 0.000000
0.454987 0.894043 0.000000
0.512299 0.894592 0.000000
0.571136 0.894958 0.000000
0.630615 0.895203 0.000000
0.690063 0.895233 0.000000
0.748688 0.895111 0.000000
0.806122 0.894958 0.000000
0.862091 0.894714 0.000000
0.916748 0.894470 0.000000
0.970154 0.894501 0.000000
1.000000 0.894714 0.000000
0.284882 0.944763 0.000427
0.297028 0.944916 0.000305
0.317230 0.945221 0.000031
0.347290 0.945618 0.000000
0.385559 0.946075 0.000000
0.430359 0.946594 0.000000
0.479797 0.947113 0.000000
0.532501 0.947571 0.000000
0.587250 0.947937 0.000000
0.643097 0.948151 0.000000
0.699188 0.948273 0.000000
0.754913 0.948242 0.000000
0.809967 0.948181 0.000000
0.864136 0.948029 0.000000
0.917419 0.947845 0.000000
0.969666 0.947693 0.000000
1.000000 0.947723 0.000000
0.336121 0.996826 0.045837
0.346069 0.996918 0.044342
0.362671 0.997162 0.040741
0.388123 0.997498 0.035553
0.421265 0.997864 0.028625
0.460815 0.998322 0.019989
0.505310 0.998779 0.010620
0.553497 0.999207 0.001617
0.604065 0.999512 0.000000
0.655975 0.999817 0.000000
0.708679 0.999969 0.000000
0.761566 1.000000 0.000031
0.814240 1.000000 0.000000
0.866577 1.000000 0.000000
0.918365 1.000000 0.000000
0.969635 1.000000 0.000000
1.000000 1.000000 0.000000
0.000427 0.000000 0.039703
0.043793 0.000000 0.040497
0.098999 0.000000 0.040161
0.158875 0.000000 0.039459
0.224915 0.000000 0.038574
0.297028 0.000000 0.036591
0.371948 0.000000 0.034119
0.447418 0.000000 0.030701
0.522369 0.000000 0.026154
0.596680 0.000000 0.020111
0.670013 0.000000 0.012573
0.742065 0.000000 0.004211
0.812439 0.000000 0.000458
0.880615 0.000000 0.000000
0.946289 0.000000 0.000000
0.999542 0.000000 0.000000
1.000000 0.000000 0.000000
0.002350 0.040436 0.039764
0.046265 0.040131 0.040161
0.101593 0.038635 0.039673
0.161346 0.034790 0.038971
0.227753 0.025604 0.037598
0.299744 0.009125 0.035614
0.374207 0.000122 0.032715
0.449158 0.000000 0.028870
0.523651 0.000000 0.023743
0.597626 0.000000 0.017426
0.670654 0.000000 0.009491
0.742523 0.000000 0.001526
0.812653 0.000000 0.000183
0.880737 0.000000 0.000000
0.946228 0.000000 0.000000
0.999542 0.000000 0.000000
1.000000 0.000000 0.000000
0.004211 0.093597 0.040497
0.048645 0.093781 0.040802
0.102783 0.094574 0.039337
0.164124 0.093414 0.037567
0.231415 0.089386 0.035858
0.303314 0.081390 0.033020
0.377350 0.068085 0.029480
0.451599 0.048615 0.024902
0.525574 0.025238 0.018829
0.598969 0.004761 0.012115
0.671631 0.000580 0.003876
0.743134 0.000000 0.000366
0.813019 0.000000 0.000000
0.880798 0.000000 0.000000
0.946106 0.000000 0.000000
0.999512 0.000000 0.000000
1.000000 0.000000 0.000000
0.000519 0.153442 0.039032
0.046967 0.153839 0.039246
0.103760 0.155518 0.036743
0.166901 0.156219 0.034149
0.234741 0.155457 0.031433
0.306671 0.152618 0.027832
0.379913 0.148193 0.022980
0.453491 0.141815 0.017426
0.526825 0.133972 0.010834
0.599823 0.124542 0.003662
0.672058 0.113770 0.000427
0.743195 0.101532 0.000031
0.812805 0.089417 0.000000
0.880371 0.081604 0.000000
0.945343 0.079010 0.000000
0.999451 0.082306 0.000000
1.000000 0.093506 0.000000
0.000000 0.220947 0.032227
0.032318 0.221344 0.032227
0.100403 0.222931 0.029694
0.167664 0.224701 0.025085
0.237518 0.225098 0.021637
0.309265 0.224640 0.017487
0.381866 0.223206 0.012054
0.454742 0.220917 0.005920
0.527618 0.217834 0.001617
0.600128 0.213928 0.000153
0.671997 0.209656 0.000000
0.742737 0.205261 0.000000
0.812012 0.201294 0.000000
0.879120 0.198639 0.000000
0.943726 0.198273 0.000000
0.999329 0.201294 0.000000
1.000000 0.208496 0.000000
0.000000 0.292450 0.019196
0.009552 0.292755 0.018921
0.093475 0.293945 0.016296
0.167114 0.295868 0.010773
0.239349 0.297150 0.005646
0.311615 0.297302 0.003021
0.383698 0.297089 0.001465
0.456024 0.296265 0.000153
0.528351 0.294983 0.000031
0.600433 0.293243 0.000000
0.671783 0.291199 0.000000
0.742096 0.289154 0.000000
0.810822 0.287476 0.000000
0.877472 0.286713 0.000000
0.941559 0.287384 0.000000
0.999207 0.290253 0.000000
1.000000 0.295776 0.000000
0.000000 0.364410 0.003357
0.000916 0.364624 0.003296
0.088684 0.365479 0.002441
0.167358 0.367340 0.000610
0.240814 0.368988 0.000122
0.313599 0.369934 0.000000
0.385529 0.370056 0.000000
0.457428 0.369873 0.000000
0.529175 0.369507 0.000000
0.600677 0.368805 0.000000
0.671478 0.367920 0.000000
0.741180 0.367065 0.000000
0.809326 0.366486 0.000000
0.875366 0.366577 0.000000
0.938843 0.367767 0.000000
0.997559 0.370453 0.000000
1.000000 0.375122 0.000000
0.000000 0.436249 0.000061
0.000641 0.436371 0.000061
0.087311 0.437012 0.000000
0.168610 0.438751 0.000000
0.242645 0.440491 0.000000
0.315216 0.441864 0.000000
0.387360 0.442627 0.000000
0.458954 0.442688 0.000000
0.530090 0.442627 0.000000
0.600952 0.442505 0.000000
0.671051 0.442261 0.000000
0.740082 0.442047 0.000000
0.807556 0.442078 0.000000
0.872833 0.442627 0.000000
0.935608 0.443970 0.000000
0.993896 0.446503 0.000000
1.000000 0.450439 0.000000
0.000000 0.507538 0.000000
0.000793 0.507660 0.000000
0.090027 0.508118 0.000000
0.171417 0.509674 0.000000
0.245117 0.511383 0.000000
0.317352 0.512878 0.000000
0.389099 0.514038 0.000000
0.460541 0.514648 0.000000
0.531250 0.514648 0.000000
0.601349 0.514648 0.000000
0.670685 0.514740 0.000000
0.738892 0.514832 0.000000
0.805511 0.515137 0.000000
0.869995 0.515869 0.000000
0.931885 0.517273 0.000000
0.989777 0.519562 0.000000
1.000000 0.522888 0.000000
0.000000 0.577850 0.000000
0.002625 0.577911 0.000000
0.098358 0.578278 0.000000
0.176910 0.579651 0.000000
0.249390 0.581268 0.000000
0.320740 0.582764 0.000000
0.391602 0.584045 0.000000
0.462402 0.584900 0.000000
0.532776 0.585327 0.000000
0.602203 0.585297 0.000000
0.670593 0.585358 0.000000
0.737885 0.585510 0.000000
0.803497 0.585938 0.000000
0.866974 0.586670 0.000000
0.927887 0.587982 0.000000
0.985321 0.589935 0.000000
1.000000 0.592651 0.000000
0.000000 0.646423 0.000000
0.030121 0.646454 0.000000
0.115082 0.646851 0.000000
0.187256 0.648071 0.000000
0.257111 0.649475 0.000000
0.326630 0.650909 0.000000
0.396057 0.652130 0.000000
0.465729 0.653137 0.000000
0.535034 0.653748 0.000000
0.603729 0.653961 0.000000
0.671173 0.653900 0.000000
0.737305 0.653900 0.000000
0.801788 0.654205 0.000000
0.864075 0.654816 0.000000
0.923889 0.655884 0.000000
0.980865 0.657440 0.000000
1.000000 0.659546 0.000000
0.019379 0.712555 0.000000
0.081024 0.712524 0.000000
0.141724 0.713074 0.000000
0.204803 0.714111 0.000000
0.269989 0.715332 0.000000
0.336456 0.716583 0.000000
0.403656 0.717743 0.000000
0.471436 0.718689 0.000000
0.539185 0.719330 0.000000
0.606567 0.719635 0.000000
0.672913 0.719666 0.000000
0.737732 0.719452 0.000000
0.800812 0.719482 0.000000
0.861786 0.719818 0.000000
0.920410 0.720551 0.000000
0.976776 0.721649 0.000000
1.000000 0.723053 0.000000
0.101715 0.775360 0.000000
0.134705 0.775604 0.000000
0.177887 0.776184 0.000000
0.231079 0.777039 0.000000
0.289825 0.778046 0.000000
0.351807 0.779083 0.000000
0.415771 0.780060 0.000000
0.480865 0.780853 0.000000
0.546326 0.781433 0.000000
0.611694 0.781738 0.000000
0.676361 0.781738 0.000000
0.739716 0.781555 0.000000
0.801208 0.781250 0.000000
0.860565 0.781250 0.000000
0.917999 0.781586 0.000000
0.973572 0.782227 0.000000
1.000000 0.783081 0.000000
0.168488 0.834808 0.000000
0.189667 0.835083 0.000000
0.222046 0.835541 0.000000
0.265808 0.836243 0.000000
0.317230 0.837036 0.000000
0.373688 0.837830 0.000000
0.433228 0.838623 0.000000
0.494751 0.839264 0.000000
0.557159 0.839752 0.000000
0.619873 0.839996 0.000000
0.682159 0.840027 0.000000
0.743408 0.839844 0.000000
0.803040 0.839569 0.000000
0.860687 0.839294 0.000000
0.916748 0.839294 0.000000
0.971283 0.839569 0.000000
1.000000 0.840027 0.000000
0.228943 0.891113 0.003479
0.244568 0.891327 0.003021
0.269745 0.891663 0.002197
0.305817 0.892181 0.001068
0.350159 0.892792 0.000183
0.400665 0.893463 0.000092
0.455170 0.894073 0.000000
0.512421 0.894592 0.000000
0.571198 0.894989 0.000000
0.630646 0.895203 0.000000
0.690002 0.895233 0.000000
0.748596 0.895142 0.000000
0.805969 0.894958 0.000000
0.861969 0.894684 0.000000
0.916565 0.894470 0.000000
0.970001 0.894470 0.000000
1.000000 0.894684 0.000000
0.285248 0.944824 0.048492
0.297272 0.945007 0.046722
0.317474 0.945251 0.042999
0.347473 0.945648 0.037170
0.385681 0.946106 0.030457
0.430481 0.946655 0.022034
0.479889 0.947144 0.013000
0.532532 0.947601 0.004913
0.587219 0.947937 0.002625
0.643066 0.948151 0.001556
0.699036 0.948273 0.000732
0.754791 0.948242 0.000397
0.809814 0.948181 0.000275
0.863953 0.948029 0.000366
0.917236 0.947876 0.000732
0.969513 0.947723 0.001648
1.000000 0.947754 0.002563
0.336182 0.996857 0.097137
0.346100 0.996979 0.095947
0.362915 0.997192 0.094330
0.388153 0.997528 0.091339
0.421234 0.997925 0.087585
0.460876 0.998322 0.082703
0.505310 0.998779 0.077148
0.553497 0.999176 0.071198
0.603973 0.999512 0.064667
0.655945 0.999756 0.058533
0.708557 0.999939 0.052521
0.761414 1.000000 0.048248
0.814087 1.000000 0.045288
0.866364 1.000000 0.044922
0.918182 1.000000 0.047180
0.969452 1.000000 0.052521
1.000000 1.000000 0.061035
0.001099 0.000031 0.092560
0.044189 0.000000 0.093445
0.099518 0.000000 0.094208
0.159668 0.000000 0.094208
0.226105 0.000000 0.093781
0.298309 0.000000 0.093109
0.373169 0.000000 0.091705
0.448364 0.000000 0.090088
0.523163 0.000000 0.087830
0.597260 0.000000 0.084686
0.670532 0.000000 0.080597
0.742432 0.000000 0.075439
0.812683 0.000000 0.069000
0.880798 0.000000 0.061188
0.946289 0.000000 0.052277
0.999542 0.000000 0.042816
1.000000 0.000000 0.032227
0.002808 0.040833 0.093048
0.047577 0.040466 0.093628
0.101959 0.038574 0.094391
0.162476 0.034058 0.094208
0.229156 0.024536 0.093750
0.301025 0.008087 0.092743
0.375336 0.000092 0.091461
0.450043 0.000000 0.089691
0.524414 0.000000 0.086914
0.598206 0.000000 0.083588
0.671143 0.000000 0.079224
0.742828 0.000000 0.073792
0.812897 0.000000 0.066956
0.880890 0.000000 0.058838
0.946289 0.000000 0.049500
0.999542 0.000000 0.040253
1.000000 0.000000 0.029449
0.005310 0.094208 0.093994
0.050720 0.094269 0.094208
0.104614 0.094360 0.094421
0.166626 0.092590 0.093872
0.233765 0.088379 0.092987
0.305511 0.079773 0.091766
0.378967 0.066498 0.089966
0.452881 0.046997 0.087616
0.526489 0.023651 0.084778
0.599670 0.004181 0.081116
0.672119 0.000488 0.076141
0.743469 0.000000 0.070068
0.813232 0.000000 0.062958
0.880981 0.000000 0.054504
0.946136 0.000000 0.045013
0.999512 0.000000 0.035004
1.000000 0.000000 0.024445
0.000641 0.154449 0.094269
0.049042 0.154724 0.094574
0.106628 0.155273 0.094604
0.169067 0.156250 0.092987
0.237427 0.155060 0.091248
0.309265 0.152069 0.089233
0.382263 0.147156 0.087097
0.455444 0.140808 0.084076
0.528595 0.132782 0.080292
0.601288 0.123199 0.075745
0.673340 0.112091 0.070190
0.744293 0.099701 0.063599
0.813690 0.087708 0.055908
0.881042 0.080292 0.046844
0.945862 0.077454 0.037445
0.999481 0.081024 0.027252
1.000000 0.092285 0.017456
0.000000 0.221924 0.092529
0.035980 0.222168 0.092468
0.104462 0.222626 0.092804
0.170258 0.224518 0.090332
0.239777 0.225098 0.087860
0.311462 0.224609 0.085236
0.384033 0.222961 0.081970
0.456787 0.220490 0.078125
0.529449 0.217163 0.073822
0.601807 0.213226 0.068420
0.673462 0.208801 0.062256
0.744049 0.204346 0.054871
0.813049 0.200378 0.046387
0.879974 0.197784 0.037354
0.944397 0.197388 0.027893
0.999359 0.200531 0.018188
1.000000 0.207855 0.008698
0.000000 0.293152 0.087646
0.015381 0.293457 0.087799
0.099243 0.293732 0.087921
0.170502 0.295380 0.085388
0.241547 0.297089 0.080933
0.313324 0.297333 0.078064
0.385284 0.297119 0.074524
0.457642 0.296234 0.069916
0.529938 0.294769 0.064667
0.601837 0.292938 0.058411
0.673096 0.290802 0.051270
0.743225 0.288666 0.043243
0.811768 0.286957 0.035034
0.878235 0.286163 0.025879
0.942108 0.286926 0.016937
0.999237 0.289795 0.007599
1.000000 0.295410 0.003326
0.000000 0.364960 0.080536
0.002258 0.365143 0.080505
0.094727 0.365387 0.080688
0.171204 0.366882 0.077576
0.243225 0.368683 0.072266
0.315216 0.369904 0.066437
0.386932 0.370056 0.062836
0.458618 0.369904 0.058472
0.530304 0.369476 0.052368
0.601746 0.368713 0.045593
0.672455 0.367767 0.038177
0.742035 0.366852 0.030151
0.810028 0.366272 0.021667
0.875916 0.366333 0.013000
0.939209 0.367554 0.005432
0.997772 0.370270 0.002869
1.000000 0.374969 0.002014
0.000000 0.436676 0.071136
0.001129 0.436829 0.071075
0.093414 0.437042 0.071259
0.172272 0.438477 0.067230
0.244904 0.440247 0.061127
0.316742 0.441742 0.053650
0.388519 0.442596 0.046783
0.459930 0.442688 0.042816
0.530975 0.442627 0.037994
0.601685 0.442474 0.031250
0.671753 0.442200 0.023895
0.740662 0.441956 0.015808
0.807953 0.441986 0.008270
0.873138 0.442535 0.003906
0.935760 0.443878 0.002441
0.993927 0.446442 0.001434
1.000000 0.450409 0.000732
0.000000 0.507935 0.060638
0.001251 0.508026 0.060760
0.095062 0.508270 0.060516
0.174469 0.509613 0.055603
0.247070 0.511292 0.048492
0.318787 0.512848 0.040588
0.390106 0.514008 0.032074
0.461395 0.514618 0.024933
0.531921 0.514679 0.020782
0.601929 0.514648 0.015778
0.671143 0.514709 0.009827
0.739227 0.514801 0.005157
0.805725 0.515106 0.002991
0.870117 0.515808 0.002014
0.931885 0.517212 0.001099
0.989716 0.519531 0.000244
1.000000 0.522858 0.000000
0.000000 0.578125 0.051697
0.006531 0.578186 0.051971
0.102203 0.578522 0.051056
0.179108 0.579834 0.045471
0.251068 0.581360 0.037628
0.321869 0.582825 0.028473
0.392517 0.584076 0.019104
0.463196 0.584930 0.010559
0.533325 0.585358 0.006226
0.602631 0.585297 0.004639
0.670959 0.585327 0.003357
0.738098 0.585510 0.002594
0.803619 0.585907 0.001801
0.867004 0.586670 0.000946
0.927826 0.587982 0.000183
0.985199 0.589935 0.000000
1.000000 0.592621 0.000000
0.000000 0.646698 0.047180
0.036133 0.646698 0.047211
0.118073 0.647064 0.045746
0.189240 0.648254 0.039185
0.258392 0.649628 0.030609
0.327545 0.651001 0.021149
0.396820 0.652252 0.011078
0.466278 0.653168 0.004913
0.535492 0.653748 0.003265
0.604034 0.653961 0.002472
0.671448 0.653870 0.002136
0.737488 0.653900 0.001709
0.801849 0.654205 0.001068
0.864075 0.654816 0.000458
0.923798 0.655884 0.000000
0.980713 0.657440 0.000000
1.000000 0.659546 0.000000
0.024536 0.712738 0.048553
0.084442 0.712769 0.048615
0.143890 0.713287 0.045776
0.206451 0.714294 0.039124
0.271027 0.715485 0.030579
0.337219 0.716675 0.020996
0.404266 0.717804 0.010834
0.471893 0.718719 0.004425
0.539551 0.719330 0.003235
0.606781 0.719635 0.002258
0.673065 0.719635 0.001648
0.737823 0.719452 0.001434
0.800842 0.719482 0.001251
0.861694 0.719818 0.000885
0.920288 0.720551 0.000488
0.976624 0.721649 0.000244
1.000000 0.723053 0.000275
0.104187 0.775574 0.057861
0.136780 0.775787 0.056793
0.179443 0.776367 0.053101
0.232178 0.777191 0.047577
0.290710 0.778168 0.039886
0.352570 0.779144 0.030609
0.416260 0.780090 0.020752
0.481232 0.780884 0.010529
0.546600 0.781433 0.004913
0.611877 0.781738 0.003601
0.676483 0.781738 0.002869
0.739746 0.781525 0.002502
0.801147 0.781250 0.002563
0.860443 0.781219 0.002563
0.917786 0.781555 0.002533
0.973358 0.782196 0.002502
1.000000 0.783081 0.002747
0.169983 0.834961 0.074127
0.191071 0.835236 0.072296
0.223145 0.835663 0.069092
0.266693 0.836304 0.064453
0.317993 0.837097 0.058746
0.374268 0.837891 0.051605
0.433624 0.838654 0.043152
0.494965 0.839294 0.033813
0.557343 0.839752 0.024567
0.619965 0.839966 0.016144
0.682159 0.839996 0.010162
0.743347 0.839813 0.007904
0.802917 0.839539 0.007843
0.860535 0.839264 0.008911
0.916504 0.839264 0.011047
0.971039 0.839569 0.012665
1.000000 0.840057 0.015961
0.230408 0.891083 0.098450
0.245789 0.891266 0.097321
0.270935 0.891602 0.095093
0.306793 0.892090 0.091644
0.351013 0.892670 0.086884
0.401245 0.893311 0.080902
0.455627 0.893921 0.073944
0.512695 0.894470 0.066925
0.571320 0.894867 0.060333
0.630676 0.895081 0.053925
0.689911 0.895172 0.048035
0.748474 0.895081 0.043701
0.805786 0.894928 0.041931
0.861755 0.894684 0.043060
0.916290 0.894470 0.047668
0.969696 0.894501 0.051575
1.000000 0.894714 0.056183
0.287262 0.944305 0.127502
0.299316 0.944458 0.126801
0.319275 0.944733 0.125336
0.349182 0.945068 0.123047
0.387085 0.945526 0.119904
0.431458 0.946106 0.115997
0.480560 0.946625 0.111176
0.532990 0.947113 0.106110
0.587494 0.947540 0.100586
0.643097 0.947815 0.095123
0.698975 0.947998 0.090179
0.754578 0.948059 0.086395
0.809570 0.948059 0.084290
0.863708 0.947968 0.084076
0.916931 0.947845 0.086426
0.969177 0.947693 0.091370
1.000000 0.947723 0.096375
0.338959 0.995880 0.157532
0.348755 0.995972 0.157013
0.365326 0.996185 0.155914
0.390350 0.996460 0.154358
0.423157 0.996857 0.152069
0.462311 0.997314 0.149384
0.506378 0.997864 0.145782
0.554077 0.998352 0.142120
0.604340 0.998810 0.138184
0.655975 0.999207 0.134277
0.708466 0.999512 0.130798
0.761139 0.999756 0.127838
0.813782 0.999908 0.125824
0.865997 1.000000 0.124939
0.917816 1.000000 0.125549
0.969116 1.000000 0.127838
1.000000 1.000000 0.132019
0.000000 0.000000 0.152283
0.041870 0.000000 0.152954
0.098724 0.000000 0.154175
0.160278 0.000000 0.154907
0.227509 0.000000 0.155060
0.299866 0.000000 0.154938
0.374512 0.000000 0.154572
0.449493 0.000000 0.153961
0.523987 0.000000 0.153046
0.597900 0.000000 0.151733
0.670898 0.000000 0.150085
0.742645 0.000000 0.147949
0.812714 0.000000 0.145355
0.880646 0.000000 0.142426
0.946075 0.000000 0.139160
0.999512 0.000000 0.135590
1.000000 0.000000 0.132019
0.000336 0.040924 0.153076
0.044983 0.040558 0.153442
0.101349 0.038574 0.154572
