luts/Harsh Negative BW.CUBE
# kravix mobile - LUTs Pack
LUT_3D_SIZE 17
0.000000 0.000000 0.000000
0.005005 0.005005 0.005005
0.010071 0.010071 0.010071
0.017487 0.017487 0.017487
0.028137 0.028137 0.028137
0.043060 0.043060 0.043060
0.061035 0.061035 0.061035
0.080994 0.080994 0.080994
0.103088 0.103088 0.103088
0.126953 0.126953 0.126953
0.152679 0.152679 0.152679
0.179779 0.179779 0.179779
0.208130 0.208130 0.208130
0.237549 0.237549 0.237549
0.267944 0.267944 0.267944
0.299164 0.299164 0.299103
0.331116 0.331146 0.331055
0.004242 0.004242 0.004242
0.009644 0.009644 0.009644
0.016724 0.016724 0.016724
0.026947 0.026947 0.026947
0.041382 0.041382 0.041382
0.059113 0.059113 0.059113
0.078796 0.078796 0.078796
0.100647 0.100647 0.100647
0.124420 0.124420 0.124420
0.149841 0.149841 0.149841
0.176849 0.176849 0.176849
0.205139 0.205139 0.205139
0.234344 0.234344 0.234344
0.264648 0.264648 0.264648
0.295685 0.295685 0.295685
0.327698 0.327759 0.327637
0.360016 0.360107 0.360016
0.008850 0.008850 0.008850
0.015961 0.015961 0.015961
0.025604 0.025604 0.025604
0.039734 0.039734 0.039734
0.057098 0.057098 0.057098
0.076569 0.076569 0.076569
0.098206 0.098206 0.098206
0.121765 0.121765 0.121765
0.147034 0.147034 0.147034
0.173859 0.173859 0.173859
0.201965 0.201965 0.201965
0.231110 0.231110 0.231110
0.261353 0.261353 0.261353
0.292389 0.292389 0.292358
0.324158 0.324188 0.324097
0.356506 0.356567 0.356476
0.389374 0.389465 0.389374
0.014832 0.014832 0.014832
0.024353 0.024353 0.024353
0.038147 0.038147 0.038147
0.055023 0.055023 0.055023
0.074371 0.074371 0.074371
0.095795 0.095795 0.095795
0.119141 0.119141 0.119141
0.144287 0.144287 0.144287
0.170929 0.170929 0.170929
0.198914 0.198914 0.198914
0.227966 0.227966 0.227966
0.258087 0.258087 0.258087
0.289001 0.289001 0.289001
0.320770 0.320801 0.320709
0.353027 0.353119 0.352997
0.385864 0.385925 0.385864
0.419128 0.419220 0.419128
0.023071 0.023071 0.023071
0.036255 0.036255 0.036255
0.053101 0.053101 0.053101
0.072205 0.072205 0.072205
0.093445 0.093445 0.093445
0.116547 0.116547 0.116547
0.141449 0.141449 0.141449
0.167969 0.167969 0.167969
0.195831 0.195831 0.195831
0.224792 0.224792 0.224792
0.254761 0.254761 0.254761
0.285645 0.285645 0.285645
0.317322 0.317322 0.317261
0.349518 0.349609 0.349518
0.382324 0.382416 0.382324
0.415527 0.415619 0.415527
0.448883 0.448975 0.448883
0.034607 0.034607 0.034607
0.051208 0.051208 0.051208
0.070007 0.070007 0.070007
0.090973 0.090973 0.090973
0.114014 0.114014 0.114014
0.138855 0.138855 0.138855
0.165070 0.165070 0.165070
0.192810 0.192810 0.192810
0.221680 0.221680 0.221680
0.251526 0.251526 0.251526
0.282288 0.282288 0.282288
0.313843 0.313873 0.313812
0.346039 0.346130 0.346008
0.378754 0.378845 0.378754
0.411926 0.412018 0.411926
0.445343 0.445435 0.445343
0.478851 0.478912 0.478851
0.049316 0.049316 0.049316
0.067932 0.067932 0.067932
0.088654 0.088654 0.088654
0.111420 0.111420 0.111420
0.135986 0.135986 0.135986
0.162201 0.162201 0.162201
0.189758 0.189758 0.189758
0.218445 0.218445 0.218445
0.248260 0.248260 0.248260
0.278931 0.278931 0.278931
0.310394 0.310425 0.310364
0.342560 0.342621 0.342499
0.375214 0.375305 0.375214
0.408325 0.408417 0.408325
0.441742 0.441803 0.441742
0.475250 0.475342 0.475250
0.508789 0.508850 0.508759
0.065735 0.065735 0.065735
0.086304 0.086304 0.086304
0.108765 0.108765 0.108765
0.133270 0.133270 0.133270
0.159302 0.159302 0.159302
0.186707 0.186707 0.186707
0.215363 0.215363 0.215363
0.245026 0.245026 0.245026
0.275635 0.275635 0.275604
0.306976 0.307007 0.306946
0.339081 0.339142 0.339050
0.371643 0.371765 0.371643
0.404785 0.404877 0.404785
0.438110 0.438171 0.438110
0.471710 0.471771 0.471710
0.505188 0.505249 0.505157
0.538574 0.538635 0.538544
0.084076 0.084076 0.084076
0.106384 0.106384 0.106384
0.130493 0.130493 0.130493
0.156372 0.156372 0.156372
0.183655 0.183655 0.183655
0.212250 0.212250 0.212250
0.241791 0.241791 0.241791
0.272278 0.272278 0.272278
0.303589 0.303619 0.303589
0.335571 0.335602 0.335541
0.368134 0.368225 0.368103
0.401154 0.401245 0.401154
0.434540 0.434631 0.434540
0.467987 0.468079 0.467987
0.501617 0.501678 0.501587
0.535004 0.535065 0.534973
0.568146 0.568237 0.568115
0.103882 0.103882 0.103882
0.127960 0.127960 0.127960
0.153503 0.153503 0.153503
0.180725 0.180725 0.180725
0.209076 0.209076 0.209076
0.238525 0.238525 0.238525
0.268982 0.268982 0.268982
0.300171 0.300171 0.300140
0.332062 0.332123 0.332031
0.364594 0.364685 0.364594
0.397644 0.397736 0.397644
0.430908 0.430969 0.430908
0.464417 0.464478 0.464417
0.497955 0.498016 0.497955
0.531372 0.531464 0.531342
0.564606 0.564697 0.564575
0.597290 0.597412 0.597290
0.125305 0.125305 0.125305
0.150909 0.150909 0.150909
0.177704 0.177704 0.177704
0.206024 0.206024 0.206024
0.235352 0.235352 0.235352
0.265625 0.265625 0.265625
0.296753 0.296753 0.296722
0.328644 0.328705 0.328583
0.361115 0.361206 0.361115
0.394043 0.394135 0.394043
0.427338 0.427429 0.427338
0.460815 0.460876 0.460815
0.494385 0.494446 0.494354
0.527832 0.527893 0.527802
0.561035 0.561157 0.561035
0.593842 0.593933 0.593842
0.626129 0.626221 0.626099
0.148010 0.148010 0.148010
0.174957 0.174957 0.174957
0.202942 0.202942 0.202942
0.232147 0.232147 0.232147
0.262360 0.262360 0.262360
0.293396 0.293396 0.293365
0.325195 0.325226 0.325134
0.357574 0.357666 0.357544
0.390442 0.390564 0.390442
0.423706 0.423798 0.423706
0.457184 0.457245 0.457184
0.490845 0.490906 0.490845
0.524261 0.524323 0.524231
0.557404 0.557495 0.557373
0.590302 0.590393 0.590302
0.622650 0.622772 0.622650
0.654205 0.654297 0.654205
0.172119 0.172119 0.172119
0.200043 0.200043 0.200043
0.229095 0.229095 0.229095
0.259064 0.259064 0.259064
0.290009 0.290009 0.290009
0.321808 0.321838 0.321747
0.354126 0.354187 0.354095
0.386932 0.387024 0.386932
0.420135 0.420197 0.420135
0.453552 0.453613 0.453552
0.487122 0.487213 0.487122
0.520599 0.520691 0.520599
0.553864 0.553925 0.553833
0.586761 0.586853 0.586761
0.619202 0.619324 0.619202
0.650940 0.651031 0.650909
0.681763 0.681885 0.681763
0.197083 0.197083 0.197083
0.226105 0.226105 0.226105
0.256012 0.256012 0.256012
0.286774 0.286774 0.286743
0.318359 0.318390 0.318298
0.350586 0.350677 0.350586
0.383331 0.383423 0.383331
0.416565 0.416656 0.416565
0.450012 0.450073 0.450012
0.483521 0.483612 0.483521
0.517059 0.517120 0.517059
0.550415 0.550507 0.550385
0.583282 0.583344 0.583252
0.615631 0.615723 0.615631
0.647583 0.647675 0.647552
0.678467 0.678558 0.678436
0.708435 0.708557 0.708405
0.223083 0.223083 0.223083
0.253143 0.253143 0.253143
0.283478 0.283478 0.283478
0.315002 0.315033 0.314941
0.347137 0.347229 0.347137
0.379913 0.380005 0.379913
0.412933 0.412994 0.412933
0.446411 0.446503 0.446411
0.479950 0.480042 0.479950
0.513428 0.513489 0.513397
0.546783 0.546875 0.546753
0.579773 0.579865 0.579742
0.612305 0.612427 0.612305
0.644165 0.644257 0.644165
0.675232 0.675323 0.675201
0.705261 0.705383 0.705231
0.734100 0.734192 0.734070
0.250031 0.250031 0.250031
0.280640 0.280640 0.280640
0.311676 0.311707 0.311615
0.343750 0.343811 0.343719
0.376404 0.376495 0.376404
0.409485 0.409546 0.409485
0.442780 0.442871 0.442780
0.476349 0.476440 0.476349
0.509888 0.509949 0.509857
0.543243 0.543335 0.543243
0.576324 0.576416 0.576324
0.608795 0.608887 0.608795
0.640808 0.640900 0.640778
0.671967 0.672058 0.671967
0.702026 0.702148 0.701996
0.730957 0.731049 0.730957
0.758636 0.758759 0.758636
0.277802 0.277802 0.277802
0.309021 0.309021 0.308960
0.340515 0.340576 0.340454
0.373016 0.373138 0.373016
0.406006 0.406097 0.406006
0.439301 0.439362 0.439301
0.472778 0.472839 0.472778
0.506348 0.506409 0.506317
0.539703 0.539764 0.539673
0.572784 0.572845 0.572754
0.605469 0.605591 0.605469
0.637360 0.637451 0.637360
0.668671 0.668762 0.668640
0.698883 0.699005 0.698883
0.727936 0.728027 0.727936
0.755676 0.755798 0.755676
0.781952 0.782074 0.781921
0.003845 0.003845 0.003845
0.008911 0.008911 0.008911
0.015991 0.015991 0.015991
0.025879 0.025879 0.025879
0.040192 0.040192 0.040192
0.057648 0.057648 0.057648
0.077057 0.077057 0.077057
0.098816 0.098816 0.098816
0.122437 0.122437 0.122437
0.147797 0.147797 0.147797
0.174561 0.174561 0.174561
0.202759 0.202759 0.202759
0.231995 0.231995 0.231995
0.262238 0.262238 0.262238
0.293274 0.293274 0.293274
0.325073 0.325134 0.325043
0.357513 0.357605 0.357513
0.008484 0.008484 0.008484
0.015259 0.015259 0.015259
0.024841 0.024841 0.024841
0.038574 0.038574 0.038574
0.055634 0.055634 0.055634
0.075043 0.075043 0.075043
0.096375 0.096375 0.096375
0.119812 0.119812 0.119812
0.145050 0.145050 0.145050
0.171722 0.171722 0.171722
0.199738 0.199738 0.199738
0.228821 0.228821 0.228821
0.259003 0.259003 0.259003
0.289917 0.289917 0.289917
0.321655 0.321686 0.321594
0.354004 0.354095 0.353973
0.386810 0.386902 0.386810
0.014404 0.014404 0.014404
0.023682 0.023682 0.023682
0.036835 0.036835 0.036835
0.053589 0.053589 0.053589
0.072754 0.072754 0.072754
0.094025 0.094025 0.094025
0.117279 0.117279 0.117279
0.142242 0.142242 0.142242
0.168762 0.168762 0.168762
0.196625 0.196625 0.196625
0.225647 0.225647 0.225647
0.255646 0.255646 0.255646
0.286530 0.286530 0.286530
0.318268 0.318268 0.318207
0.350433 0.350525 0.350403
0.383240 0.383331 0.383240
0.416473 0.416565 0.416473
0.022400 0.022400 0.022400
0.035187 0.035187 0.035187
0.051636 0.051636 0.051636
0.070770 0.070770 0.070770
0.091675 0.091675 0.091675
0.114716 0.114716 0.114716
0.139557 0.139557 0.139557
0.165863 0.165863 0.165863
0.193604 0.193604 0.193604
0.222473 0.222473 0.222473
0.252411 0.252411 0.252411
0.283234 0.283234 0.283203
0.314819 0.314850 0.314758
0.346954 0.347046 0.346924
0.379730 0.379822 0.379730
0.412872 0.412964 0.412872
0.446228 0.446289 0.446228
0.033478 0.033478 0.033478
0.049927 0.049927 0.049927
0.068542 0.068542 0.068542
0.089417 0.089417 0.089417
0.112091 0.112091 0.112091
0.136749 0.136749 0.136749
0.162964 0.162964 0.162964
0.190552 0.190552 0.190552
0.219360 0.219360 0.219360
0.249146 0.249146 0.249146
0.279816 0.279816 0.279816
0.311310 0.311310 0.311249
0.343475 0.343567 0.343445
0.376160 0.376251 0.376160
0.409271 0.409363 0.409271
0.442688 0.442749 0.442688
0.476166 0.476257 0.476166
0.047882 0.047882 0.047882
0.066406 0.066406 0.066406
0.086914 0.086914 0.086914
0.109650 0.109650 0.109650
0.134033 0.134033 0.134033
0.160095 0.160095 0.160095
0.187531 0.187531 0.187531
0.216217 0.216217 0.216217
0.245880 0.245880 0.245880
0.276520 0.276520 0.276520
0.307892 0.307922 0.307861
0.339966 0.340027 0.339935
0.372589 0.372681 0.372589
0.405731 0.405823 0.405731
0.439087 0.439178 0.439087
0.472595 0.472687 0.472595
0.506165 0.506226 0.506134
0.064209 0.064209 0.064209
0.084686 0.084686 0.084686
0.107056 0.107056 0.107056
0.131317 0.131317 0.131317
0.157166 0.157166 0.157166
0.184570 0.184570 0.184570
0.213104 0.213104 0.213104
0.242645 0.242645 0.242645
0.273132 0.273132 0.273132
0.304504 0.304535 0.304474
0.336517 0.336578 0.336456
0.369080 0.369171 0.369049
0.402100 0.402191 0.402100
0.435455 0.435516 0.435455
0.468994 0.469055 0.468994
0.502533 0.502594 0.502502
0.535919 0.536011 0.535889
0.082336 0.082336 0.082336
0.104614 0.104614 0.104614
0.128601 0.128601 0.128601
0.154358 0.154358 0.154358
0.181519 0.181519 0.181519
0.209930 0.209930 0.209930
0.239410 0.239410 0.239410
0.269897 0.269897 0.269897
0.301086 0.301117 0.301056
0.333038 0.333069 0.332977
0.365570 0.365662 0.365540
0.398529 0.398621 0.398529
0.431854 0.431946 0.431854
0.465393 0.465454 0.465393
0.498901 0.498962 0.498871
0.532349 0.532410 0.532318
0.565552 0.565613 0.565521
0.102051 0.102051 0.102051
0.126038 0.126038 0.126038
0.151459 0.151459 0.151459
0.178558 0.178558 0.178558
0.206818 0.206818 0.206818
0.236176 0.236176 0.236176
0.266510 0.266510 0.266510
0.297699 0.297729 0.297668
0.329620 0.329651 0.329559
0.362030 0.362122 0.362030
0.394958 0.395050 0.394958
0.428284 0.428345 0.428284
0.461731 0.461792 0.461731
0.495300 0.495392 0.495300
0.528717 0.528778 0.528687
0.561951 0.562042 0.561920
0.594788 0.594879 0.594757
0.123291 0.123291 0.123291
0.148773 0.148773 0.148773
0.175568 0.175568 0.175568
0.203705 0.203705 0.203705
0.232941 0.232941 0.232941
0.263184 0.263184 0.263184
0.294250 0.294250 0.294220
0.326111 0.326141 0.326080
0.358521 0.358612 0.358490
0.391418 0.391510 0.391418
0.424622 0.424713 0.424622
0.458099 0.458191 0.458099
0.491669 0.491730 0.491669
0.525146 0.525238 0.525116
0.558380 0.558472 0.558350
0.591217 0.591309 0.591217
0.623566 0.623657 0.623566
0.145905 0.145905 0.145905
0.172791 0.172791 0.172791
0.200623 0.200623 0.200623
0.229797 0.229797 0.229797
0.259918 0.259918 0.259918
0.290924 0.290924 0.290894
0.322662 0.322693 0.322601
0.355011 0.355072 0.354980
0.387817 0.387909 0.387817
0.421082 0.421143 0.421082
0.454559 0.454620 0.454559
0.488037 0.488129 0.488037
0.521545 0.521606 0.521515
0.554810 0.554901 0.554779
0.587708 0.587799 0.587708
0.620087 0.620178 0.620087
0.651825 0.651917 0.651794
0.169769 0.169769 0.169769
0.197845 0.197845 0.197845
0.226593 0.226593 0.226593
0.256653 0.256653 0.256653
0.287537 0.287537 0.287537
0.319214 0.319244 0.319183
0.351471 0.351532 0.351440
0.384277 0.384369 0.384277
0.417480 0.417572 0.417480
0.450928 0.451019 0.450928
0.484467 0.484528 0.484467
0.517883 0.517944 0.517883
0.551270 0.551331 0.551239
0.584167 0.584259 0.584167
0.616638 0.616730 0.616638
0.648438 0.648560 0.648438
0.679291 0.679382 0.679291
0.194855 0.194855 0.194855
0.223633 0.223633 0.223633
0.253418 0.253418 0.253418
0.284210 0.284210 0.284210
0.315765 0.315765 0.315704
0.348022 0.348083 0.347992
0.380737 0.380829 0.380737
0.413879 0.413971 0.413879
0.447327 0.447418 0.447327
0.480835 0.480896 0.480835
0.514343 0.514435 0.514343
0.547699 0.547791 0.547668
0.580658 0.580750 0.580627
0.613129 0.613251 0.613129
0.645050 0.645142 0.645020
0.676025 0.676117 0.675995
0.705994 0.706116 0.705994
0.220612 0.220612 0.220612
0.250397 0.250397 0.250397
0.280945 0.280945 0.280945
0.312439 0.312469 0.312378
0.344543 0.344604 0.344513
0.377228 0.377319 0.377228
0.410370 0.410461 0.410370
0.443726 0.443817 0.443726
0.477264 0.477325 0.477264
0.510742 0.510803 0.510712
0.544098 0.544189 0.544067
0.577148 0.577271 0.577148
0.609680 0.609802 0.609680
0.641571 0.641663 0.641541
0.672729 0.672821 0.672699
0.702850 0.702972 0.702850
0.731750 0.731873 0.731720
0.247345 0.247345 0.247345
0.277863 0.277863 0.277863
0.309143 0.309143 0.309082
0.341217 0.341278 0.341156
0.373718 0.373810 0.373718
0.406799 0.406891 0.406799
0.440125 0.440216 0.440125
0.473694 0.473785 0.473724
0.507202 0.507263 0.507172
0.540588 0.540680 0.540558
0.573669 0.573761 0.573639
0.606232 0.606323 0.606201
0.638184 0.638275 0.638153
0.669464 0.669556 0.669434
0.699615 0.699707 0.699585
0.728668 0.728790 0.728638
0.756439 0.756561 0.756409
0.275055 0.275055 0.275055
0.306091 0.306091 0.306061
0.337799 0.337860 0.337769
0.370209 0.370300 0.370209
0.403229 0.403320 0.403229
0.436584 0.436646 0.436584
0.470062 0.470154 0.470062
0.503632 0.503693 0.503632
0.536987 0.537079 0.536957
0.570129 0.570221 0.570099
0.602692 0.602783 0.602692
0.634857 0.634949 0.634827
0.666107 0.666199 0.666077
0.696472 0.696594 0.696442
0.725647 0.725769 0.725647
0.753479 0.753601 0.753479
0.779816 0.779938 0.779816
0.302826 0.302826 0.302765
0.334991 0.335022 0.334961
0.366974 0.367065 0.366974
0.399750 0.399841 0.399750
0.433044 0.433136 0.433044
0.466583 0.466644 0.466583
0.500031 0.500092 0.500031
0.533478 0.533569 0.533447
0.566589 0.566650 0.566559
0.599335 0.599426 0.599335
0.631409 0.631500 0.631409
0.662842 0.662933 0.662811
0.693268 0.693390 0.693268
0.722626 0.722748 0.722595
0.750610 0.750732 0.750580
0.777069 0.777191 0.777069
0.801880 0.802002 0.801849
0.008057 0.008057 0.008057
0.014496 0.014496 0.014496
0.023682 0.023682 0.023682
0.037079 0.037079 0.037079
0.054047 0.054047 0.054047
0.073212 0.073212 0.073212
0.094513 0.094513 0.094513
0.117767 0.117767 0.117767
0.142822 0.142822 0.142822
0.169403 0.169403 0.169403
0.197327 0.197327 0.197327
0.226349 0.226349 0.226349
0.256409 0.256409 0.256409
0.287323 0.287323 0.287292
0.319031 0.319061 0.318970
0.351288 0.351379 0.351288
0.384064 0.384155 0.384064
0.013672 0.013672 0.013672
0.022888 0.022888 0.022888
0.035675 0.035675 0.035675
0.052277 0.052277 0.052277
0.071259 0.071259 0.071259
0.092224 0.092224 0.092224
0.115326 0.115326 0.115326
0.140137 0.140137 0.140137
0.166534 0.166534 0.166534
0.194336 0.194336 0.194336
0.223236 0.223236 0.223236
0.253174 0.253174 0.253174
0.283966 0.283966 0.283936
0.315582 0.315613 0.315521
0.347778 0.347839 0.347717
0.380524 0.380615 0.380524
0.413666 0.413757 0.413666
0.021393 0.021393 0.021393
0.034088 0.034088 0.034088
0.050446 0.050446 0.050446
0.069092 0.069092 0.069092
0.089874 0.089874 0.089874
0.112762 0.112762 0.112762
0.137390 0.137390 0.137390
0.163635 0.163635 0.163635
0.191223 0.191223 0.191223
0.220062 0.220062 0.220062
0.249908 0.249908 0.249908
0.280579 0.280579 0.280579
0.312103 0.312103 0.312042
0.344238 0.344299 0.344208
0.376953 0.377045 0.376953
0.410034 0.410126 0.410034
0.443420 0.443512 0.443420
0.032379 0.032379 0.032379
0.048401 0.048401 0.048401
0.067017 0.067017 0.067017
0.087616 0.087616 0.087616
0.110229 0.110229 0.110229
0.134674 0.134674 0.134674
0.160767 0.160767 0.160767
0.188232 0.188232 0.188232
0.216949 0.216949 0.216949
0.246643 0.246643 0.246643
0.277252 0.277252 0.277252
0.308685 0.308716 0.308655
0.340790 0.340851 0.340759
0.373444 0.373535 0.373444
0.406525 0.406586 0.406525
0.439880 0.439972 0.439880
0.473480 0.473572 0.473480
0.046570 0.046570 0.046570
0.064789 0.064789 0.064789
0.085205 0.085205 0.085205
0.107697 0.107697 0.107697
0.131989 0.131989 0.131989
0.157867 0.157867 0.157867
0.185242 0.185242 0.185242
0.213776 0.213776 0.213776
0.243378 0.243378 0.243378
0.273926 0.273926 0.273926
0.305267 0.305267 0.305206
0.337280 0.337341 0.337250
0.369873 0.369965 0.369873
0.402924 0.403015 0.402924
0.436279 0.436371 0.436279
0.469818 0.469879 0.469818
0.503326 0.503387 0.503296
0.062653 0.062653 0.062653
0.082916 0.082916 0.082916
0.105133 0.105133 0.105133
0.129303 0.129303 0.129303
0.155029 0.155029 0.155029
0.182220 0.182220 0.182220
0.210663 0.210663 0.210663
0.240173 0.240173 0.240173
0.270630 0.270630 0.270630
0.301849 0.301880 0.301819
0.333832 0.333893 0.333801
0.366333 0.366425 0.366333
0.399384 0.399475 0.399384
0.432678 0.432739 0.432678
0.466217 0.466309 0.466217
0.499725 0.499817 0.499725
0.533142 0.533234 0.533112
0.080475 0.080475 0.080475
0.102631 0.102631 0.102631
0.126556 0.126556 0.126556
0.152191 0.152191 0.152191
0.179230 0.179230 0.179230
0.207581 0.207581 0.207581
0.236938 0.236938 0.236938
0.267273 0.267273 0.267273
0.298462 0.298492 0.298431
0.330353 0.330414 0.330322
0.362823 0.362915 0.362793
0.395752 0.395844 0.395752
0.429077 0.429169 0.429077
0.462585 0.462646 0.462585
0.496124 0.496185 0.496094
0.529572 0.529633 0.529541
0.562775 0.562836 0.562744
0.100159 0.100159 0.100159
0.123962 0.123962 0.123962
0.149323 0.149323 0.149323
0.176208 0.176208 0.176208
0.204437 0.204437 0.204437
0.233734 0.233734 0.233734
0.263977 0.263977 0.263977
0.295074 0.295074 0.295044
0.326935 0.326965 0.326904
0.359283 0.359375 0.359253
0.392212 0.392303 0.392212
0.425476 0.425537 0.425476
0.458984 0.459045 0.458984
0.492493 0.492554 0.492462
0.525970 0.526031 0.525940
0.559204 0.559296 0.559174
0.592010 0.592102 0.592010
0.121277 0.121277 0.121277
0.146576 0.146576 0.146576
0.173248 0.173248 0.173248
0.201355 0.201355 0.201355
0.230499 0.230499 0.230499
0.260681 0.260681 0.260681
0.291687 0.291687 0.291656
0.323456 0.323486 0.323395
0.355804 0.355896 0.355804
0.388641 0.388733 0.388641
0.421875 0.421967 0.421875
0.455353 0.455414 0.455353
0.488892 0.488953 0.488892
0.522369 0.522430 0.522339
0.555634 0.555725 0.555603
0.588531 0.588623 0.588501
0.620850 0.620941 0.620850
0.143768 0.143768 0.143768
0.170471 0.170471 0.170471
0.198242 0.198242 0.198242
0.227325 0.227325 0.227325
0.257385 0.257385 0.257385
0.288300 0.288300 0.288300
0.319977 0.320007 0.319916
0.352295 0.352356 0.352264
0.385101 0.385193 0.385101
0.418243 0.418335 0.418243
0.451721 0.451813 0.451721
0.485260 0.485352 0.485260
0.518768 0.518829 0.518738
0.552032 0.552124 0.552002
0.584991 0.585083 0.584961
0.617401 0.617493 0.617401
0.649109 0.649200 0.649078
0.167511 0.167511 0.167511
0.195343 0.195343 0.195343
0.224182 0.224182 0.224182
0.254181 0.254181 0.254181
0.284943 0.284943 0.284912
0.316528 0.316559 0.316467
0.348755 0.348816 0.348724
0.381531 0.381622 0.381531
0.414703 0.414795 0.414703
0.448120 0.448181 0.448120
0.481628 0.481720 0.481628
0.515106 0.515198 0.515106
0.548462 0.548553 0.548431
0.581451 0.581543 0.581421
0.613922 0.614014 0.613922
0.645752 0.645874 0.645752
0.676727 0.676849 0.676697
0.192413 0.192413 0.192413
0.221222 0.221222 0.221222
0.250946 0.250946 0.250946
0.281616 0.281616 0.281616
0.313110 0.313141 0.313080
0.345276 0.345337 0.345245
0.377991 0.378082 0.377991
0.411102 0.411194 0.411102
0.444519 0.444611 0.444519
0.478027 0.478088 0.478027
0.511536 0.511597 0.511505
0.544891 0.544983 0.544861
0.577911 0.578003 0.577911
0.610413 0.610535 0.610413
0.642365 0.642456 0.642365
0.673431 0.673523 0.673431
0.703552 0.703644 0.703522
0.218079 0.218079 0.218079
0.247833 0.247833 0.247833
0.278351 0.278351 0.278351
0.309723 0.309753 0.309662
0.341797 0.341858 0.341766
0.374481 0.374542 0.374481
0.407532 0.407623 0.407532
0.440918 0.441010 0.440918
0.474426 0.474487 0.474426
0.507935 0.507996 0.507935
0.541290 0.541382 0.541290
0.574371 0.574463 0.574371
0.606964 0.607056 0.606934
0.638916 0.639038 0.638916
0.670135 0.670227 0.670105
0.700317 0.700439 0.700317
0.729340 0.729462 0.729340
0.244690 0.244690 0.244690
0.275299 0.275299 0.275299
0.306488 0.306519 0.306427
0.338409 0.338470 0.338379
0.370941 0.371033 0.370941
0.403992 0.404053 0.403992
0.437286 0.437378 0.437286
0.470825 0.470886 0.470825
0.504333 0.504425 0.504333
0.537720 0.537781 0.537689
0.570801 0.570892 0.570801
0.603485 0.603577 0.603485
0.635529 0.635620 0.635498
0.666809 0.666901 0.666779
0.697113 0.697235 0.697113
0.726288 0.726379 0.726257
0.754089 0.754211 0.754089
0.272217 0.272217 0.272217
0.303223 0.303223 0.303162
0.335052 0.335114 0.334991
0.367493 0.367584 0.367493
0.400452 0.400513 0.400452
0.433746 0.433838 0.433746
0.467224 0.467285 0.467224
0.500793 0.500854 0.500763
0.534180 0.534241 0.534149
0.567291 0.567383 0.567291
0.600006 0.600098 0.600006
0.632111 0.632202 0.632080
0.663483 0.663574 0.663452
0.693909 0.694000 0.693878
0.723206 0.723328 0.723206
0.751160 0.751282 0.751160
0.777618 0.777740 0.777618
0.300171 0.300171 0.300110
0.332092 0.332153 0.332031
0.364105 0.364197 0.364105
0.397003 0.397095 0.397003
0.430206 0.430298 0.430206
0.463684 0.463745 0.463684
0.497162 0.497223 0.497131
0.530640 0.530701 0.530579
0.563782 0.563873 0.563751
0.596527 0.596649 0.596527
0.628723 0.628815 0.628693
0.660156 0.660278 0.660156
0.690704 0.690796 0.690674
0.720093 0.720215 0.720093
0.748230 0.748352 0.748230
0.774841 0.774963 0.774811
0.799774 0.799896 0.799774
0.328705 0.328735 0.328644
0.360931 0.361053 0.360931
0.393616 0.393707 0.393616
0.426758 0.426849 0.426758
0.460144 0.460236 0.460144
0.493683 0.493744 0.493683
0.527039 0.527100 0.527008
0.560272 0.560333 0.560242
0.593048 0.593170 0.593048
0.625305 0.625397 0.625305
0.656860 0.656952 0.656830
0.687469 0.687592 0.687439
0.717072 0.717194 0.717072
0.745331 0.745422 0.745300
0.772095 0.772217 0.772095
0.797241 0.797363 0.797241
0.820557 0.820648 0.820526
0.013245 0.013245 0.013245
0.021698 0.021698 0.021698
0.034363 0.034363 0.034363
0.050598 0.050598 0.050598
0.069489 0.069489 0.069489
0.090363 0.090363 0.090363
0.113312 0.113312 0.113312
0.138031 0.138031 0.138031
0.164307 0.164307 0.164307
0.191986 0.191986 0.191986
0.220795 0.220795 0.220795
0.250671 0.250671 0.250671
0.281403 0.281403 0.281403
0.312958 0.312958 0.312927
0.345154 0.345245 0.345123
0.377838 0.377930 0.377838
0.411011 0.411102 0.411011
0.020599 0.020599 0.020599
0.032867 0.032867 0.032867
0.049042 0.049042 0.049042
