luts/Honey_Bloom.CUBE
# kravix mobile - LUTs Pack
LUT_3D_SIZE 9
0.000000 0.000000 0.000000
0.180549 0.025017 0.024814
0.357643 0.049126 0.048775
0.523945 0.071728 0.071251
0.663743 0.092010 0.091369
0.776646 0.110016 0.109260
0.870384 0.126312 0.125458
0.950954 0.141503 0.140606
1.000000 0.151367 0.150391
0.000000 0.154957 0.000000
0.151478 0.156402 0.000647
0.342533 0.180335 0.024088
0.514836 0.188719 0.048497
0.659479 0.190641 0.071434
0.775462 0.185534 0.093346
0.870661 0.176008 0.114472
0.951323 0.154425 0.137148
1.000000 0.151367 0.150391
0.000000 0.314072 0.000000
0.134312 0.312810 0.000007
0.307869 0.318241 0.000898
0.496388 0.343245 0.021398
0.649765 0.355953 0.042118
0.771415 0.362271 0.061070
0.870941 0.364807 0.078650
0.955981 0.365776 0.095332
1.000000 0.364525 0.114837
0.000000 0.470505 0.000000
0.097380 0.469652 0.000000
0.292809 0.469952 0.000000
0.461594 0.477688 0.000801
0.633116 0.502550 0.018086
0.761406 0.512365 0.036210
0.866943 0.520068 0.052737
0.956846 0.525720 0.068317
1.000000 0.525062 0.093018
0.000000 0.612244 0.000000
0.034247 0.611650 0.000000
0.275913 0.610062 0.000000
0.446182 0.613296 0.000000
0.601136 0.621506 0.000511
0.748995 0.644945 0.015024
0.858589 0.651283 0.031281
0.951937 0.656563 0.046486
1.000000 0.653518 0.073273
0.000000 0.731976 0.000000
0.000000 0.731522 0.000000
0.251905 0.730294 0.000000
0.434521 0.730909 0.000000
0.586409 0.734207 0.000000
0.718888 0.742109 0.000215
0.849655 0.765408 0.012670
0.946115 0.769416 0.027689
1.000000 0.762062 0.055904
0.000000 0.835113 0.000000
0.000000 0.834743 0.000000
0.222362 0.833794 0.000000
0.421002 0.832184 0.000257
0.576958 0.835663 0.000000
0.705296 0.838244 0.000000
0.819496 0.845032 0.000000
0.939715 0.869718 0.010928
1.000000 0.858322 0.040611
0.000000 0.926807 0.000000
0.000000 0.926491 0.000000
0.184570 0.925686 0.000000
0.403133 0.924348 0.000000
0.566906 0.925699 0.000011
0.697324 0.928500 0.000000
0.807687 0.930544 0.000000
0.907383 0.934711 0.000000
1.000000 0.946281 0.026638
0.000000 1.000000 0.000000
0.000000 1.000000 0.000000
0.126778 1.000000 0.000000
0.382065 1.000000 0.000000
0.555160 1.000000 0.000870
0.686699 1.000000 0.005600
0.794388 1.000000 0.009743
0.887687 1.000000 0.013478
0.971954 1.000000 0.016998
0.000000 0.000000 0.160999
0.159212 0.000701 0.159199
0.339519 0.024649 0.173895
0.510364 0.048613 0.183936
0.655264 0.071127 0.188273
0.772055 0.092514 0.186322
0.868475 0.113288 0.179658
0.950614 0.134559 0.165667
1.000000 0.151367 0.150391
0.000000 0.154953 0.154867
0.152332 0.152571 0.152356
0.338237 0.165508 0.164772
0.510585 0.172445 0.171445
0.655862 0.173702 0.172300
0.772611 0.167958 0.166538
0.868857 0.158216 0.157644
0.950558 0.141268 0.141126
1.000000 0.151367 0.150391
0.000000 0.314072 0.137092
0.126179 0.314703 0.126101
0.310778 0.317058 0.117362
0.496933 0.336664 0.122442
0.649612 0.347205 0.117176
0.771831 0.354007 0.106045
0.871257 0.360324 0.081989
0.956006 0.361292 0.096168
1.000000 0.359731 0.115509
0.000000 0.470505 0.101155
0.082987 0.471068 0.082974
0.291956 0.470066 0.071156
0.463952 0.478168 0.051425
0.635262 0.501944 0.036982
0.762038 0.511081 0.036504
0.867349 0.518310 0.053075
0.957001 0.523553 0.068682
1.000000 0.522367 0.093353
0.000000 0.612244 0.040561
0.011257 0.612585 0.011599
0.271859 0.610995 0.001285
0.445329 0.614185 0.000000
0.601958 0.622304 0.000526
0.749623 0.644765 0.015139
0.858964 0.650528 0.031471
0.952132 0.655365 0.046701
1.000000 0.652137 0.073492
0.000000 0.731976 0.000000
0.000000 0.732114 0.000000
0.246493 0.730904 0.000000
0.432757 0.731321 0.000079
0.586058 0.734735 0.000000
0.719399 0.742621 0.000222
0.849998 0.765225 0.012730
0.946267 0.768809 0.027798
1.000000 0.761240 0.056049
0.000000 0.835113 0.000000
0.000000 0.835091 0.000000
0.215725 0.834142 0.000000
0.418546 0.832523 0.000200
0.575950 0.835974 0.000000
0.705158 0.838580 0.000000
0.819830 0.845329 0.000000
0.939907 0.869528 0.011001
1.000000 0.857735 0.040704
0.000000 0.926807 0.000000
0.000000 0.926653 0.000000
0.175966 0.925842 0.000000
0.399940 0.924515 0.000000
0.565448 0.925759 0.000008
0.696694 0.928621 0.000000
0.807441 0.930693 0.000000
0.907514 0.934849 0.000000
1.000000 0.946068 0.026695
0.000000 1.000000 0.000000
0.000000 1.000000 0.000000
0.112227 1.000000 0.000000
0.378510 1.000000 0.000000
0.553388 1.000000 0.000830
0.685542 1.000000 0.005600
0.794082 1.000000 0.009651
0.887494 1.000000 0.013478
0.971954 1.000000 0.016998
0.000000 0.000000 0.325149
0.158587 0.000000 0.323943
0.321588 0.001139 0.321611
0.494382 0.022658 0.332698
0.643215 0.043331 0.341637
0.763366 0.062033 0.347983
0.862934 0.079262 0.352423
0.948236 0.095636 0.355294
1.000000 0.107094 0.353019
0.000000 0.154981 0.322164
0.145969 0.146035 0.323091
0.320343 0.139249 0.320413
0.494115 0.146004 0.328754
0.643110 0.145184 0.336473
0.763232 0.135754 0.342140
0.862660 0.120638 0.346025
0.947828 0.096810 0.348502
1.000000 0.108489 0.345892
0.000000 0.314066 0.313991
0.125641 0.314460 0.314376
0.309394 0.309885 0.309625
0.488741 0.320166 0.319226
0.640569 0.326319 0.325218
0.761782 0.330239 0.328985
0.861742 0.332574 0.331176
0.946895 0.333727 0.332276
1.000000 0.330296 0.328726
0.000000 0.470505 0.300071
0.082348 0.471128 0.296606
0.286325 0.470471 0.286277
0.466325 0.472244 0.279747
0.630552 0.485986 0.290040
0.757985 0.491691 0.292465
0.861702 0.494580 0.293272
0.950327 0.496988 0.292303
1.000000 0.499697 0.294318
0.000000 0.612244 0.281094
0.010281 0.612625 0.275709
0.261702 0.612592 0.261642
0.447512 0.610801 0.253859
0.605631 0.617182 0.244394
0.747459 0.631714 0.249103
0.856987 0.637336 0.251197
0.950458 0.642177 0.248117
1.000000 0.642418 0.254509
0.000000 0.731976 0.257544
0.000000 0.732139 0.250810
0.233600 0.732067 0.233500
0.430513 0.730086 0.224914
0.588880 0.732117 0.213795
0.722849 0.739160 0.200665
0.848886 0.755808 0.197909
0.945314 0.759258 0.197360
1.000000 0.754670 0.202032
0.000000 0.835113 0.228737
0.000000 0.835106 0.220499
0.199648 0.834868 0.199502
0.412129 0.833288 0.189310
0.576930 0.833736 0.175971
0.707744 0.837454 0.159040
0.822954 0.843873 0.138332
0.940083 0.864546 0.121627
1.000000 0.853630 0.134056
0.000000 0.926807 0.192213
0.000000 0.926659 0.181838
0.154522 0.926230 0.154148
0.392121 0.924888 0.139881
0.564021 0.924198 0.120003
0.696955 0.927668 0.100006
0.808979 0.930618 0.082594
0.909972 0.935427 0.059639
1.000000 0.944689 0.050769
0.000000 1.000000 0.139046
0.000000 1.000000 0.121299
0.091530 1.000000 0.092010
0.369544 1.000000 0.079170
0.549416 1.000000 0.062504
0.683971 1.000000 0.041395
0.792631 1.000000 0.009621
0.886903 1.000000 0.013478
0.971954 1.000000 0.016998
0.000000 0.000000 0.486778
0.158588 0.000000 0.485981
0.320713 0.000000 0.483793
0.481065 0.001287 0.481086
0.632961 0.020069 0.488287
0.756421 0.038063 0.494339
0.858793 0.054567 0.499027
0.946639 0.070072 0.502647
1.000000 0.080590 0.502518
0.000000 0.154963 0.484786
0.144067 0.144135 0.485623
0.316040 0.136167 0.483477
0.480468 0.123987 0.480490
0.632658 0.122266 0.485982
0.756134 0.112081 0.491223
0.858469 0.095716 0.495381
0.946197 0.070630 0.498732
1.000000 0.081279 0.498363
0.000000 0.314034 0.479396
0.124054 0.311050 0.480221
0.301771 0.301824 0.479912
0.476371 0.296575 0.476527
0.630306 0.304370 0.479796
0.754480 0.308333 0.483918
0.857054 0.310138 0.487165
0.944837 0.310268 0.489709
1.000000 0.305268 0.488800
0.000000 0.470505 0.470434
0.082303 0.470951 0.470887
0.285547 0.470002 0.469952
0.463707 0.464350 0.464103
0.622918 0.471265 0.470282
0.749899 0.475486 0.474376
0.853940 0.477917 0.476676
0.942610 0.479405 0.478046
1.000000 0.478227 0.476937
0.000000 0.612244 0.458605
0.010281 0.612625 0.457012
0.261070 0.612664 0.452118
0.443432 0.610561 0.443396
0.606580 0.611674 0.437734
0.743174 0.620676 0.447154
0.851893 0.623299 0.449432
0.943417 0.623671 0.450358
1.000000 0.624849 0.455362
0.000000 0.731976 0.444603
0.000000 0.732139 0.441887
0.232810 0.732128 0.434591
0.423457 0.731047 0.423433
0.589872 0.728957 0.417379
0.724336 0.733891 0.410494
0.844862 0.743622 0.416022
0.940962 0.746677 0.421211
1.000000 0.746226 0.431607
0.000000 0.835113 0.428849
0.000000 0.835106 0.425319
0.198687 0.834908 0.416342
0.403308 0.834052 0.403287
0.574976 0.831957 0.396969
0.709547 0.833230 0.389563
0.824816 0.838102 0.381774
0.935208 0.850062 0.382713
1.000000 0.844601 0.401639
0.000000 0.926807 0.410972
0.000000 0.926659 0.406899
0.153314 0.926258 0.396496
0.381828 0.925332 0.381778
0.559433 0.923597 0.375123
0.698902 0.922642 0.368039
0.811586 0.925725 0.359183
0.913028 0.929603 0.350083
1.000000 0.934220 0.361658
0.000000 1.000000 0.390217
0.000000 1.000000 0.385779
0.089776 1.000000 0.374152
0.357789 1.000000 0.357718
0.542900 1.000000 0.350582
0.687380 1.000000 0.343188
0.800250 1.000000 0.338891
0.895768 1.000000 0.334041
0.981140 1.000000 0.327599
0.000000 0.000000 0.631881
0.158563 0.000000 0.631316
0.320690 0.000000 0.629795
0.480299 0.000000 0.627279
0.624588 0.001205 0.624603
0.750427 0.017647 0.628313
0.855297 0.033741 0.631481
0.945316 0.048877 0.633839
1.000000 0.058991 0.633774
0.000000 0.154974 0.630476
0.143367 0.143440 0.630994
0.314604 0.135453 0.629512
0.477725 0.122039 0.626968
0.624090 0.103378 0.624130
0.750059 0.091836 0.626808
0.854897 0.074788 0.629406
0.944823 0.049169 0.631565
1.000000 0.059412 0.631228
0.000000 0.314132 0.626697
0.123401 0.309635 0.627221
0.298000 0.298046 0.627557
0.470215 0.291437 0.625040
0.621838 0.284533 0.621899
0.748429 0.289333 0.622667
0.853430 0.291525 0.624238
0.943425 0.291563 0.625678
1.000000 0.286198 0.624809
0.000000 0.470491 0.620420
0.081863 0.469064 0.620888
0.282168 0.464613 0.621151
0.456467 0.456520 0.619317
0.615689 0.452039 0.615863
0.744116 0.458039 0.615853
0.850151 0.461091 0.617150
0.940682 0.462650 0.618031
1.000000 0.460831 0.616802
0.000000 0.612236 0.612175
0.010274 0.612525 0.612470
0.260914 0.612362 0.612297
0.442702 0.610034 0.609971
0.603946 0.604530 0.604355
0.736619 0.608400 0.607527
0.844980 0.610609 0.609633
0.936946 0.611527 0.610466
1.000000 0.610466 0.609482
0.000000 0.731976 0.602579
0.000000 0.732139 0.601616
0.232807 0.732128 0.598948
0.423007 0.731086 0.594098
0.587689 0.728282 0.587666
0.724640 0.728886 0.582918
0.840759 0.734999 0.589661
0.936287 0.735621 0.590860
1.000000 0.735350 0.595636
0.000000 0.835113 0.591663
0.000000 0.835106 0.590020
0.198687 0.834908 0.585617
0.402754 0.834087 0.578748
0.571150 0.832316 0.571123
0.710671 0.830212 0.566380
0.825827 0.833867 0.560839
0.931713 0.840937 0.564904
1.000000 0.839737 0.578854
0.000000 0.926807 0.579620
0.000000 0.926659 0.577367
0.153312 0.926258 0.571794
0.381174 0.925354 0.563285
0.554536 0.923905 0.554513
0.697633 0.921869 0.549630
0.812979 0.922495 0.543980
0.914518 0.925792 0.537892
1.000000 0.928410 0.548914
0.000000 1.000000 0.565873
0.000000 1.000000 0.563242
0.089768 1.000000 0.556561
0.357067 1.000000 0.546860
0.536980 1.000000 0.536957
0.684013 1.000000 0.531862
0.803002 1.000000 0.527268
0.900114 1.000000 0.526114
0.986389 1.000000 0.524093
0.000000 0.000000 0.754032
0.158579 0.000000 0.753606
0.320673 0.000000 0.752457
0.480303 0.000000 0.750522
0.624064 0.000000 0.748087
0.745508 0.001001 0.745543
0.852248 0.015852 0.746935
0.944146 0.030676 0.748055
1.000000 0.040600 0.747292
0.000000 0.154990 0.752963
0.143042 0.143112 0.753232
0.313977 0.135126 0.752107
0.476770 0.121713 0.750175
0.622476 0.101912 0.747703
0.745081 0.075160 0.745082
0.851821 0.056641 0.745726
0.943654 0.030859 0.746490
1.000000 0.040883 0.745453
0.000000 0.314095 0.750101
0.123073 0.308985 0.750376
0.296085 0.296126 0.750615
0.467179 0.289504 0.748744
0.617920 0.281490 0.746202
0.743387 0.272925 0.743405
0.850374 0.275128 0.742629
0.942224 0.275370 0.742493
1.000000 0.269921 0.740965
0.000000 0.470502 0.745351
0.081634 0.468076 0.745607
0.280268 0.461629 0.745845
0.451659 0.451709 0.745065
0.609654 0.446135 0.742500
0.739425 0.440953 0.739488
0.847201 0.445595 0.737457
0.939480 0.448018 0.736735
1.000000 0.446528 0.734821
0.000000 0.612238 0.739168
0.010222 0.611450 0.739377
0.259293 0.608993 0.739510
0.438343 0.604418 0.738618
0.598310 0.598356 0.735980
0.732646 0.594592 0.732778
0.842069 0.598217 0.731019
0.935428 0.599688 0.730579
1.000000 0.598496 0.728790
0.000000 0.731976 0.731947
0.000000 0.732083 0.732055
0.232741 0.731958 0.731928
0.422799 0.730765 0.730729
0.587187 0.727844 0.727801
0.722636 0.723059 0.722954
0.835332 0.724777 0.724064
0.930591 0.725360 0.724564
1.000000 0.724527 0.723750
0.000000 0.835113 0.723840
0.000000 0.835106 0.723224
0.198687 0.834908 0.721457
0.402754 0.834087 0.718308
0.570953 0.832318 0.714246
0.709878 0.829474 0.709862
0.826083 0.829726 0.705951
0.928274 0.834146 0.709889
1.000000 0.833790 0.714635
0.000000 0.926807 0.715073
0.000000 0.926659 0.713728
0.153311 0.926258 0.710753
0.381173 0.925354 0.706101
0.554291 0.923914 0.700873
0.696268 0.921922 0.696260
0.814599 0.919891 0.692539
0.915516 0.922484 0.688041
1.000000 0.924559 0.697244
0.000000 1.000000 0.704872
0.000000 1.000000 0.703449
0.089768 1.000000 0.699436
0.357067 1.000000 0.693628
0.536667 1.000000 0.687311
0.682253 1.000000 0.682246
0.802900 1.000000 0.678469
0.903623 1.000000 0.676752
0.990498 1.000000 0.676491
0.000000 0.000000 0.859138
0.158540 0.000000 0.858769
0.320738 0.000000 0.857839
0.480238 0.000000 0.856313
0.624104 0.000000 0.854355
0.745243 0.000000 0.852074
0.849668 0.000727 0.849697
0.943124 0.014654 0.849347
1.000000 0.024368 0.848206
0.000000 0.154909 0.858274
0.142842 0.142921 0.858362
0.313616 0.134944 0.857452
0.476220 0.121568 0.855893
0.621825 0.101761 0.853913
0.744087 0.074049 0.851617
0.849168 0.041197 0.849181
0.942610 0.014718 0.848458
1.000000 0.024590 0.846786
0.000000 0.314100 0.855963
0.122908 0.308638 0.856071
0.294955 0.295023 0.856073
0.465403 0.288359 0.854567
0.615757 0.280379 0.852543
0.740849 0.270941 0.850220
0.847677 0.260798 0.847698
0.941181 0.260819 0.845851
1.000000 0.255457 0.843575
0.000000 0.470534 0.852160
0.081491 0.467589 0.852240
0.279176 0.459876 0.852248
0.448689 0.448741 0.851688
0.605808 0.443117 0.849683
0.735157 0.437127 0.847296
0.844589 0.431061 0.844620
0.938459 0.434386 0.841639
1.000000 0.433505 0.838716
0.000000 0.612286 0.847225
0.010187 0.610749 0.847275
0.258265 0.606842 0.847226
0.435380 0.600626 0.846621
0.593654 0.593676 0.845045
0.727479 0.589255 0.842616
0.839796 0.585040 0.839833
0.934501 0.588147 0.836332
1.000000 0.587791 0.833435
0.000000 0.731986 0.841475
0.000000 0.731374 0.841510
0.231871 0.729742 0.841397
0.420142 0.726769 0.840676
0.582894 0.722898 0.839021
0.718639 0.718657 0.836233
0.833294 0.715402 0.833378
0.929424 0.716943 0.830682
1.000000 0.716101 0.828481
0.000000 0.835130 0.835102
0.000000 0.835079 0.835055
0.198657 0.834822 0.834806
0.402648 0.833916 0.833886
0.570767 0.832083 0.832063
0.709610 0.829199 0.829176
0.824988 0.825227 0.825171
0.923668 0.825396 0.824876
1.000000 0.824527 0.824030
0.000000 0.926807 0.828066
0.000000 0.926659 0.827511
0.153311 0.926258 0.826013
0.381173 0.925354 0.823604
0.554291 0.923914 0.820668
0.696247 0.921916 0.817621
0.814775 0.919357 0.814769
0.916119 0.919340 0.811447
1.000000 0.922026 0.817119
0.000000 1.000000 0.820190
0.000000 1.000000 0.819282
0.089768 1.000000 0.816839
0.357067 1.000000 0.813226
0.536667 1.000000 0.809276
0.682225 1.000000 0.805716
0.803251 1.000000 0.803251
0.906607 1.000000 0.800315
0.993988 1.000000 0.800743
0.000000 0.000000 0.952366
0.158609 0.000000 0.952080
0.320652 0.000000 0.951303
0.480261 0.000000 0.950026
0.623981 0.000000 0.948378
0.745225 0.000000 0.946517
0.849497 0.000000 0.944431
0.942188 0.000401 0.942178
1.000000 0.009582 0.940350
0.000000 0.155008 0.951648
0.142731 0.142801 0.951581
0.313373 0.134827 0.950840
0.475860 0.121440 0.949563
0.621401 0.101654 0.947926
0.743610 0.073958 0.946033
0.848628 0.040402 0.943954
0.941669 0.000401 0.941681
1.000000 0.009703 0.939501
0.000000 0.314007 0.949734
0.122797 0.308344 0.949703
0.294245 0.294291 0.949448
0.464276 0.287635 0.948219
0.614363 0.279664 0.946555
0.739221 0.270242 0.944639
0.845853 0.259499 0.942514
0.940204 0.247631 0.940204
1.000000 0.242094 0.937143
0.000000 0.470533 0.946590
0.081402 0.467210 0.946529
0.278457 0.458744 0.946306
0.446670 0.446723 0.945655
0.603241 0.441081 0.944005
0.732150 0.435126 0.942048
0.841476 0.428485 0.939908
0.937505 0.421476 0.937513
1.000000 0.421218 0.933433
0.000000 0.612198 0.942505
0.010174 0.610312 0.942446
0.257604 0.605453 0.942185
0.433384 0.598036 0.941506
0.590281 0.590309 0.940243
0.723584 0.585859 0.938284
0.835679 0.581179 0.936093
0.933620 0.576262 0.933638
1.000000 0.577166 0.928946
0.000000 0.731954 0.937780
0.000000 0.730866 0.937705
0.231265 0.728111 0.937390
0.418209 0.723835 0.936671
0.579526 0.719018 0.935352
0.714646 0.714667 0.933456
0.829137 0.711142 0.931232
0.928702 0.707493 0.928720
1.000000 0.708012 0.924143
0.000000 0.835156 0.932548
0.000000 0.834558 0.932433
0.198162 0.833177 0.932077
0.400887 0.830935 0.931268
0.567605 0.828056 0.929906
0.705927 0.825102 0.927945
0.822260 0.822277 0.925406
0.922863 0.819372 0.922895
1.000000 0.818797 0.919420
0.000000 0.926801 0.926804
0.000000 0.926649 0.926629
0.153302 0.926212 0.926208
0.381135 0.925273 0.925266
0.554214 0.923809 0.923797
0.696151 0.921799 0.921792
0.814691 0.919237 0.919225
0.916033 0.916114 0.916094
1.000000 0.915001 0.914746
0.000000 1.000000 0.920464
0.000000 1.000000 0.919822
0.089768 1.000000 0.918513
0.357067 1.000000 0.916343
0.536667 1.000000 0.913799
0.682225 1.000000 0.911349
0.803314 1.000000 0.909200
0.907628 1.000000 0.907618
0.997135 1.000000 0.906746
0.000000 0.000000 1.000000
0.158649 0.000000 1.000000
0.320633 0.000000 1.000000
0.480381 0.000000 1.000000
0.624069 0.000000 1.000000
0.745144 0.000000 1.000000
0.849579 0.000000 1.000000
0.942116 0.000000 1.000000
1.000000 0.000000 1.000000
0.000000 0.154961 1.000000
0.142636 0.142710 1.000000
0.313195 0.134763 1.000000
0.475532 0.121372 1.000000
0.621027 0.101585 1.000000
0.743215 0.073906 1.000000
0.848179 0.040355 1.000000
0.941284 0.000000 1.000000
1.000000 0.000000 1.000000
0.000000 0.314018 1.000000
0.122714 0.308155 1.000000
0.293739 0.293785 1.000000
0.463498 0.287122 1.000000
0.613377 0.279148 1.000000
0.738068 0.269743 1.000000
0.844669 0.259029 1.000000
0.938944 0.246798 1.000000
1.000000 0.232644 1.000000
0.000000 0.470471 1.000000
0.081352 0.466884 1.000000
0.277956 0.457934 1.000000
0.445244 0.445266 1.000000
0.601385 0.439608 1.000000
0.730081 0.433675 1.000000
0.839132 0.427064 1.000000
0.935066 0.419743 1.000000
1.000000 0.411556 1.000000
0.000000 0.612351 1.000000
0.010161 0.610087 1.000000
0.257145 0.604462 1.000000
0.431929 0.596169 1.000000
0.587707 0.587761 1.000000
0.720616 0.583296 1.000000
0.832397 0.578613 1.000000
0.930220 0.573452 1.000000
1.000000 0.567734 1.000000
0.000000 0.731895 1.000000
0.000000 0.730576 1.000000
0.230845 0.726990 1.000000
0.416822 0.721702 1.000000
0.576967 0.716065 1.000000
0.711380 0.711409 1.000000
0.825536 0.707881 1.000000
0.924961 0.704058 1.000000
1.000000 0.699817 1.000000
0.000000 0.835037 1.000000
0.000000 0.834205 1.000000
0.197792 0.832002 1.000000
0.399568 0.828540 1.000000
0.565113 0.824863 1.000000
0.702682 0.821521 1.000000
0.819065 0.819082 1.000000
0.919562 0.816118 1.000000
1.000000 0.812798 1.000000
0.000000 0.926849 1.000000
0.000000 0.926208 1.000000
0.153005 0.924928 1.000000
0.379900 0.922850 1.000000
0.551813 0.920473 1.000000
0.693045 0.918054 1.000000
0.811661 0.915939 1.000000
0.914331 0.914334 1.000000
1.000000 0.911636 1.000000
0.000000 1.000000 1.000000
0.000000 1.000000 1.000000
0.089768 1.000000 1.000000
0.357067 1.000000 1.000000
0.536667 1.000000 1.000000
0.682225 1.000000 1.000000
0.803314 1.000000 1.000000
0.907658 1.000000 1.000000
1.000000 1.000000 1.000000
