luts/Honey_Bloom.CUBE
# kravix mobile - LUTs Pack
LUT_3D_SIZE 5
0.000000 0.000000 0.000000
0.357643 0.049126 0.048775
0.663743 0.092010 0.091369
0.870384 0.126312 0.125458
1.000000 0.151367 0.150391
0.000000 0.314072 0.000000
0.307869 0.318241 0.000898
0.649765 0.355953 0.042118
0.870941 0.364807 0.078650
1.000000 0.364525 0.114837
0.000000 0.612244 0.000000
0.275913 0.610062 0.000000
0.601136 0.621506 0.000511
0.858589 0.651283 0.031281
1.000000 0.653518 0.073273
0.000000 0.835113 0.000000
0.222362 0.833794 0.000000
0.576958 0.835663 0.000000
0.819496 0.845032 0.000000
1.000000 0.858322 0.040611
0.000000 1.000000 0.000000
0.126778 1.000000 0.000000
0.555160 1.000000 0.000870
0.794388 1.000000 0.009743
0.971954 1.000000 0.016998
0.000000 0.000000 0.325149
0.321588 0.001139 0.321611
0.643215 0.043331 0.341637
0.862934 0.079262 0.352423
1.000000 0.107094 0.353019
0.000000 0.314066 0.313991
0.309394 0.309885 0.309625
0.640569 0.326319 0.325218
0.861742 0.332574 0.331176
1.000000 0.330296 0.328726
0.000000 0.612244 0.281094
0.261702 0.612592 0.261642
0.605631 0.617182 0.244394
0.856987 0.637336 0.251197
1.000000 0.642418 0.254509
0.000000 0.835113 0.228737
0.199648 0.834868 0.199502
0.576930 0.833736 0.175971
0.822954 0.843873 0.138332
1.000000 0.853630 0.134056
0.000000 1.000000 0.139046
0.091530 1.000000 0.092010
0.549416 1.000000 0.062504
0.792631 1.000000 0.009621
0.971954 1.000000 0.016998
0.000000 0.000000 0.631881
0.320690 0.000000 0.629795
0.624588 0.001205 0.624603
0.855297 0.033741 0.631481
1.000000 0.058991 0.633774
0.000000 0.314132 0.626697
0.298000 0.298046 0.627557
0.621838 0.284533 0.621899
0.853430 0.291525 0.624238
1.000000 0.286198 0.624809
0.000000 0.612236 0.612175
0.260914 0.612362 0.612297
0.603946 0.604530 0.604355
0.844980 0.610609 0.609633
1.000000 0.610466 0.609482
0.000000 0.835113 0.591663
0.198687 0.834908 0.585617
0.571150 0.832316 0.571123
0.825827 0.833867 0.560839
1.000000 0.839737 0.578854
0.000000 1.000000 0.565873
0.089768 1.000000 0.556561
0.536980 1.000000 0.536957
0.803002 1.000000 0.527268
0.986389 1.000000 0.524093
0.000000 0.000000 0.859138
0.320738 0.000000 0.857839
0.624104 0.000000 0.854355
0.849668 0.000727 0.849697
1.000000 0.024368 0.848206
0.000000 0.314100 0.855963
0.294955 0.295023 0.856073
0.615757 0.280379 0.852543
0.847677 0.260798 0.847698
1.000000 0.255457 0.843575
0.000000 0.612286 0.847225
0.258265 0.606842 0.847226
0.593654 0.593676 0.845045
0.839796 0.585040 0.839833
1.000000 0.587791 0.833435
0.000000 0.835130 0.835102
0.198657 0.834822 0.834806
0.570767 0.832083 0.832063
0.824988 0.825227 0.825171
1.000000 0.824527 0.824030
0.000000 1.000000 0.820190
0.089768 1.000000 0.816839
0.536667 1.000000 0.809276
0.803251 1.000000 0.803251
0.993988 1.000000 0.800743
0.000000 0.000000 1.000000
0.320633 0.000000 1.000000
0.624069 0.000000 1.000000
0.849579 0.000000 1.000000
1.000000 0.000000 1.000000
0.000000 0.314018 1.000000
0.293739 0.293785 1.000000
0.613377 0.279148 1.000000
0.844669 0.259029 1.000000
1.000000 0.232644 1.000000
0.000000 0.612351 1.000000
0.257145 0.604462 1.000000
0.587707 0.587761 1.000000
0.832397 0.578613 1.000000
1.000000 0.567734 1.000000
0.000000 0.835037 1.000000
0.197792 0.832002 1.000000
0.565113 0.824863 1.000000
0.819065 0.819082 1.000000
1.000000 0.812798 1.000000
0.000000 1.000000 1.000000
0.089768 1.000000 1.000000
0.536667 1.000000 1.000000
0.803314 1.000000 1.000000
1.000000 1.000000 1.000000
