luts/Honey_Bloom.CUBE
# kravix mobile - LUTs Pack
LUT_3D_SIZE 17
0.000000 0.000000 0.000000
0.090799 0.012630 0.012512
0.180549 0.025017 0.024814
0.269911 0.037188 0.036919
0.357643 0.049126 0.048775
0.442796 0.060690 0.060251
0.523945 0.071728 0.071251
0.597696 0.082190 0.081592
0.663743 0.092010 0.091369
0.723028 0.101242 0.100544
0.776646 0.110016 0.109260
0.825501 0.118342 0.117548
0.870384 0.126312 0.125458
0.912012 0.134022 0.133137
0.950954 0.141503 0.140606
0.987468 0.148793 0.147873
1.000000 0.151367 0.150391
0.000000 0.076774 0.000000
0.074696 0.077102 0.000376
0.170707 0.090310 0.012365
0.262389 0.096450 0.025498
0.352124 0.099921 0.038767
0.439107 0.100455 0.052194
0.522006 0.096935 0.065886
0.597147 0.090418 0.079568
0.663285 0.091951 0.091296
0.722642 0.101184 0.100485
0.776304 0.109957 0.109201
0.825215 0.118292 0.117489
0.870128 0.126261 0.125399
0.911777 0.133991 0.133083
0.950756 0.141468 0.140554
0.987302 0.148764 0.147818
1.000000 0.151367 0.150391
0.000000 0.154957 0.000000
0.066814 0.154189 0.000000
0.151478 0.156402 0.000647
0.250063 0.171296 0.011731
0.342533 0.180335 0.024088
0.430901 0.185536 0.036413
0.514836 0.188719 0.048497
0.591343 0.190464 0.060158
0.659479 0.190641 0.071434
0.720516 0.189019 0.082463
0.775462 0.185534 0.093346
0.825258 0.180800 0.104081
0.870661 0.176008 0.114472
0.912646 0.167825 0.125309
0.951323 0.154425 0.137148
0.986900 0.148714 0.147733
1.000000 0.151367 0.150391
0.000000 0.234377 0.000000
0.051528 0.233807 0.000000
0.144009 0.233800 0.000000
0.229486 0.237118 0.000823
0.329352 0.253146 0.011012
0.420563 0.261982 0.022812
0.507208 0.269199 0.034232
0.585772 0.273756 0.045251
0.655323 0.276371 0.055832
0.717492 0.278144 0.065930
0.773582 0.279231 0.075602
0.824531 0.279679 0.084952
0.871196 0.279483 0.094055
0.914264 0.278470 0.103016
0.954442 0.276905 0.111903
0.991574 0.274565 0.121082
1.000000 0.269485 0.129623
0.000000 0.314072 0.000000
0.025899 0.313659 0.000000
0.134312 0.312810 0.000007
0.221572 0.314127 0.000000
0.307869 0.318241 0.000898
0.407905 0.335260 0.010170
0.496388 0.343245 0.021398
0.577530 0.350157 0.032015
0.649765 0.355953 0.042118
0.714096 0.360228 0.051746
0.771415 0.362271 0.061070
0.823333 0.363630 0.070022
0.870941 0.364807 0.078650
0.914912 0.365398 0.087077
0.955981 0.365776 0.095332
0.993841 0.365990 0.103958
1.000000 0.364525 0.114837
0.000000 0.393149 0.000000
0.001189 0.392826 0.000000
0.118963 0.392127 0.000000
0.214247 0.391890 0.000000
0.299227 0.393860 0.000000
0.385573 0.398843 0.000885
0.484659 0.416819 0.009243
0.567728 0.423763 0.019777
0.641689 0.429876 0.029716
0.707781 0.435198 0.039115
0.767279 0.439847 0.048034
0.821150 0.443491 0.056623
0.870248 0.446185 0.064926
0.915083 0.447144 0.073109
0.956865 0.447821 0.081125
0.995358 0.448453 0.089648
1.000000 0.447367 0.103123
0.000000 0.470505 0.000000
0.000000 0.470211 0.000000
0.097380 0.469652 0.000000
0.203975 0.468702 0.000000
0.292809 0.469952 0.000000
0.376225 0.471884 0.000000
0.461594 0.477688 0.000801
0.557436 0.496682 0.008201
0.633116 0.502550 0.018086
0.700660 0.507806 0.027377
0.761406 0.512365 0.036210
0.816494 0.516444 0.044635
0.866943 0.520068 0.052737
0.913558 0.523321 0.060577
0.956846 0.525720 0.068317
0.996470 0.527529 0.076749
1.000000 0.525062 0.093018
0.000000 0.544332 0.000000
0.000000 0.544127 0.000000
0.070440 0.543625 0.000000
0.190564 0.542830 0.000000
0.285364 0.542574 0.000000
0.370404 0.544640 0.000000
0.451723 0.546332 0.000000
0.534208 0.552716 0.000676
0.624296 0.572004 0.007214
0.693289 0.576828 0.016474
0.755290 0.581044 0.025248
0.811458 0.584840 0.033579
0.862850 0.588163 0.041592
0.910317 0.591179 0.049346
0.954583 0.593896 0.056925
0.995321 0.596174 0.065249
1.000000 0.593050 0.083060
0.000000 0.612244 0.000000
0.000000 0.612038 0.000000
0.034247 0.611650 0.000000
0.174662 0.610978 0.000000
0.275913 0.610062 0.000000
0.364132 0.611325 0.000021
0.446182 0.613296 0.000000
0.523953 0.614768 0.000000
0.601136 0.621506 0.000511
0.685729 0.641174 0.006295
0.748995 0.644945 0.015024
0.806273 0.648251 0.023340
0.858589 0.651283 0.031281
0.906912 0.653999 0.038986
0.951937 0.656563 0.046486
0.993420 0.658523 0.054633
1.000000 0.653518 0.073273
0.000000 0.674517 0.000000
0.000000 0.674337 0.000000
0.000000 0.674002 0.000000
0.155718 0.673433 0.000000
0.264522 0.672637 0.000000
0.357099 0.672519 0.000000
0.440505 0.674532 0.000000
0.519010 0.676243 0.000000
0.591002 0.677520 0.000000
0.662496 0.684332 0.000353
0.742596 0.704551 0.005481
0.800906 0.707551 0.013762
0.854192 0.710255 0.021696
0.903339 0.712619 0.029329
0.949067 0.714799 0.036758
0.991428 0.716471 0.044794
1.000000 0.709578 0.064305
0.000000 0.731976 0.000000
0.000000 0.731839 0.000000
0.000000 0.731522 0.000000
0.132295 0.731003 0.000000
0.251905 0.730294 0.000000
0.348922 0.729382 0.000040
0.434521 0.730909 0.000000
0.513756 0.732734 0.000000
0.586409 0.734207 0.000000
0.652520 0.735365 0.000000
0.718888 0.742109 0.000215
0.795442 0.763089 0.004768
0.849655 0.765408 0.012670
0.899624 0.767600 0.020262
0.946115 0.769416 0.027689
0.989250 0.770759 0.035557
1.000000 0.762062 0.055904
0.000000 0.785288 0.000000
0.000000 0.785150 0.000000
0.000000 0.784881 0.000000
0.102478 0.784429 0.000000
0.237903 0.783809 0.000000
0.339116 0.782997 0.000000
0.428303 0.783162 0.000087
0.508492 0.785137 0.000000
0.581783 0.786712 0.000000
0.648196 0.787956 0.000000
0.709195 0.789022 0.000000
0.771020 0.795501 0.000079
0.844948 0.817591 0.004111
0.895751 0.819336 0.011713
0.942996 0.820812 0.019112
0.986903 0.822006 0.026827
1.000000 0.811394 0.048034
0.000000 0.835113 0.000000
0.000000 0.834995 0.000000
0.000000 0.834743 0.000000
0.075286 0.834371 0.000000
0.222362 0.833794 0.000000
0.328556 0.833042 0.000000
0.421002 0.832184 0.000257
0.502784 0.834055 0.000000
0.576958 0.835663 0.000000
0.644018 0.837083 0.000000
0.705296 0.838244 0.000000
0.761902 0.839173 0.000000
0.819496 0.845032 0.000000
0.891475 0.868115 0.003617
0.939715 0.869718 0.010928
0.984458 0.870469 0.018533
1.000000 0.858322 0.040611
0.000000 0.882105 0.000000
0.000000 0.882016 0.000000
0.000000 0.881792 0.000000
0.036806 0.881398 0.000000
0.204883 0.880897 0.000000
0.317035 0.880239 0.000000
0.412568 0.879428 0.000000
0.497161 0.880065 0.000025
0.572148 0.881849 0.000000
0.639720 0.883326 0.000000
0.701471 0.884531 0.000000
0.758230 0.885548 0.000000
0.811109 0.886400 0.000000
0.864547 0.891060 0.000000
0.935714 0.915805 0.003208
0.981832 0.917107 0.010529
1.000000 0.903187 0.033485
0.000000 0.926807 0.000000
0.000000 0.926689 0.000000
0.000000 0.926491 0.000000
0.000000 0.926152 0.000000
0.184570 0.925686 0.000000
0.304736 0.925062 0.000000
0.403133 0.924348 0.000000
0.490567 0.924043 0.000028
0.566906 0.925699 0.000011
0.635361 0.927232 0.000000
0.697324 0.928500 0.000000
0.754514 0.929591 0.000000
0.807687 0.930544 0.000000
0.857451 0.931362 0.000000
0.907383 0.934711 0.000000
0.978452 0.961364 0.002891
1.000000 0.946281 0.026638
0.000000 0.969675 0.000000
0.000000 0.969587 0.000000
0.000000 0.969389 0.000000
0.000000 0.969093 0.000000
0.160176 0.968670 0.000000
0.291064 0.968095 0.000000
0.392952 0.967455 0.000000
0.482980 0.966682 0.000000
0.561460 0.967682 0.000028
0.630728 0.969316 0.000000
0.693288 0.970666 0.000000
0.750718 0.971815 0.000000
0.804106 0.972831 0.000000
0.854165 0.973692 0.000000
0.901547 0.974432 0.000000
0.948353 0.976506 0.000000
0.999514 0.987669 0.020052
0.000000 1.000000 0.000000
0.000000 1.000000 0.000000
0.000000 1.000000 0.000000
0.000000 1.000000 0.000000
0.126778 1.000000 0.000000
0.276136 1.000000 0.000000
0.382065 1.000000 0.000000
0.474182 1.000000 0.000000
0.555160 1.000000 0.000870
0.624657 1.000000 0.003351
0.686699 1.000000 0.005600
0.742843 1.000000 0.007738
0.794388 1.000000 0.009743
0.842533 1.000000 0.011641
0.887687 1.000000 0.013478
0.930721 1.000000 0.015198
0.971954 1.000000 0.016998
0.000000 0.000000 0.080452
0.079348 0.000384 0.079326
0.169841 0.012648 0.087852
0.260660 0.025530 0.094671
0.350080 0.038568 0.099253
0.437154 0.051826 0.100916
0.520451 0.065194 0.099378
0.596416 0.078717 0.094072
0.663771 0.091710 0.091369
0.723028 0.101242 0.100544
0.776646 0.110016 0.109260
0.825501 0.118342 0.117548
0.870384 0.126312 0.125458
0.912012 0.134022 0.133137
0.950954 0.141503 0.140606
0.987468 0.148793 0.147873
1.000000 0.151367 0.150391
0.000000 0.076774 0.076689
0.075144 0.075285 0.075130
0.168390 0.083587 0.083141
0.260703 0.088542 0.088049
0.350729 0.091368 0.090770
0.438096 0.091561 0.091184
0.521599 0.088274 0.087924
0.597332 0.084556 0.084180
0.663613 0.091980 0.091354
0.722916 0.101228 0.100542
0.776523 0.109987 0.109229
0.825369 0.118321 0.117518
0.870254 0.126281 0.125428
0.911891 0.133993 0.133110
0.950833 0.141473 0.140577
0.987330 0.148765 0.147845
1.000000 0.151367 0.150391
0.000000 0.154957 0.068511
0.064388 0.154845 0.064356
0.152871 0.155794 0.061003
0.250517 0.167879 0.064596
0.342800 0.175202 0.065720
0.431362 0.180736 0.063126
0.515874 0.185096 0.057482
0.591934 0.187398 0.060874
0.659925 0.187105 0.072149
0.720881 0.185049 0.083266
0.775735 0.181025 0.094258
0.825418 0.176785 0.104914
0.870783 0.171267 0.115446
0.912541 0.161597 0.126642
0.951096 0.147989 0.138643
0.986955 0.148714 0.147737
1.000000 0.151367 0.150391
0.000000 0.234377 0.053485
0.045114 0.234793 0.045168
0.143458 0.234177 0.040290
0.231014 0.237530 0.032948
0.330730 0.252283 0.032226
0.422436 0.261168 0.029026
0.507979 0.268011 0.034771
0.586289 0.272264 0.045572
0.655648 0.274598 0.056173
0.717818 0.276265 0.066293
0.773834 0.277295 0.075991
0.824698 0.277550 0.085373
0.871322 0.277172 0.094503
0.914320 0.276227 0.103479
0.954338 0.274271 0.112424
0.991528 0.271802 0.121617
1.000000 0.266381 0.130175
0.000000 0.314072 0.028324
0.016680 0.314494 0.016767
0.131612 0.313672 0.011355
0.221257 0.314866 0.004231
0.308780 0.319112 0.001687
0.408630 0.335306 0.010249
0.497013 0.342817 0.021541
0.578071 0.349509 0.032217
0.650182 0.354990 0.042321
0.714375 0.359052 0.051974
0.771634 0.361091 0.061293
0.823509 0.362402 0.070282
0.871065 0.363274 0.078940
0.914972 0.363966 0.087347
0.955943 0.364302 0.095624
0.993812 0.364374 0.104251
1.000000 0.363035 0.115096
0.000000 0.393149 0.001967
0.000000 0.393461 0.000021
0.115255 0.392823 0.000000
0.212960 0.392502 0.000000
0.299150 0.394467 0.000000
0.386124 0.399397 0.000898
0.485264 0.416914 0.009303
0.568213 0.423539 0.019882
0.642064 0.429443 0.029829
0.708084 0.434574 0.039236
0.767545 0.439109 0.048198
0.821334 0.442639 0.056793
0.870381 0.445229 0.065121
0.915117 0.446148 0.073291
0.956881 0.446710 0.081304
0.995367 0.447312 0.089848
1.000000 0.446210 0.103320
0.000000 0.470505 0.000000
0.000000 0.470744 0.000000
0.092407 0.470211 0.000000
0.202199 0.469270 0.000000
0.292174 0.470451 0.000000
0.376273 0.472399 0.000000
0.462040 0.478141 0.000808
0.557871 0.496763 0.008273
0.633502 0.502438 0.018156
0.700947 0.507432 0.027485
0.761641 0.511894 0.036320
0.816700 0.515902 0.044763
0.867076 0.519381 0.052870
0.913643 0.522639 0.060714
0.956900 0.525064 0.068420
0.996515 0.526669 0.076898
1.000000 0.524108 0.093112
0.000000 0.544332 0.000000
0.000000 0.544521 0.000000
0.065400 0.544061 0.000000
0.188326 0.543279 0.000000
0.284333 0.543003 0.000000
0.369990 0.545063 0.000000
0.451726 0.546748 0.000000
0.534552 0.553127 0.000676
0.624622 0.572159 0.007234
0.693586 0.576732 0.016538
0.755513 0.580819 0.025311
0.811631 0.584426 0.033658
0.862980 0.587698 0.041684
0.910402 0.590644 0.049448
0.954657 0.593325 0.057027
0.995363 0.595699 0.065325
1.000000 0.592422 0.083147
0.000000 0.612244 0.000000
0.000000 0.612378 0.000000
0.026234 0.611988 0.000000
0.171960 0.611337 0.000000
0.274573 0.610382 0.000000
0.363432 0.611638 0.000021
0.445976 0.613601 0.000000
0.523987 0.615106 0.000000
0.601445 0.621793 0.000519
0.686013 0.641221 0.006332
0.749225 0.644847 0.015078
0.806459 0.648086 0.023394
0.858726 0.651018 0.031351
0.907021 0.653682 0.039069
0.952009 0.656103 0.046556
0.993475 0.658035 0.054736
1.000000 0.652976 0.073361
0.000000 0.674517 0.000000
0.000000 0.674613 0.000000
0.000000 0.674272 0.000000
0.152535 0.673711 0.000000
0.262931 0.672902 0.000000
0.356300 0.672618 0.000130
0.440134 0.674789 0.000000
0.518785 0.676475 0.000000
0.591006 0.677768 0.000000
0.662689 0.684576 0.000353
0.742796 0.704676 0.005491
0.801075 0.707512 0.013792
0.854311 0.710106 0.021730
0.903426 0.712424 0.029378
0.949149 0.714532 0.036832
0.991483 0.716080 0.044883
1.000000 0.709274 0.064334
0.000000 0.731976 0.000000
0.000000 0.732028 0.000000
0.000000 0.731730 0.000000
0.128214 0.731237 0.000000
0.250120 0.730503 0.000000
0.347913 0.729603 0.000040
0.434053 0.731002 0.000080
0.513420 0.732929 0.000000
0.586309 0.734383 0.000000
0.652519 0.735565 0.000000
0.719076 0.742313 0.000215
0.795610 0.763240 0.004772
0.849766 0.765330 0.012681
0.899717 0.767341 0.020316
0.946174 0.769146 0.027735
0.989277 0.770569 0.035618
1.000000 0.761771 0.055956
0.000000 0.785288 0.000000
0.000000 0.785311 0.000000
0.000000 0.785039 0.000000
0.097902 0.784580 0.000000
0.235928 0.783971 0.000000
0.337973 0.783164 0.000000
0.427535 0.783299 0.000087
0.508000 0.785244 0.000000
0.581583 0.786838 0.000000
0.648150 0.788103 0.000000
0.709218 0.789146 0.000000
0.771160 0.795602 0.000085
0.845071 0.817544 0.004137
0.895836 0.819237 0.011734
0.943063 0.820676 0.019150
0.986931 0.821798 0.026867
1.000000 0.811233 0.048083
0.000000 0.835113 0.000000
0.000000 0.835110 0.000000
0.000000 0.834875 0.000000
0.070971 0.834481 0.000000
0.220201 0.833889 0.000000
0.327266 0.833180 0.000000
0.420133 0.832291 0.000257
0.502325 0.834137 0.000000
0.576676 0.835738 0.000000
0.643820 0.837183 0.000000
0.705287 0.838358 0.000000
0.761958 0.839271 0.000000
0.819607 0.845142 0.000000
0.891556 0.868199 0.003617
0.939789 0.869621 0.010971
0.984506 0.870452 0.018550
1.000000 0.858150 0.040633
0.000000 0.882105 0.000000
0.000000 0.882075 0.000000
0.000000 0.881871 0.000000
0.029531 0.881483 0.000000
0.202385 0.880974 0.000000
0.315677 0.880315 0.000000
0.411542 0.879532 0.000000
0.496511 0.880161 0.000011
0.571750 0.881930 0.000000
0.639419 0.883399 0.000000
0.701365 0.884592 0.000000
0.758268 0.885621 0.000000
0.811186 0.886488 0.000000
0.864629 0.891142 0.000000
0.935779 0.915878 0.003208
0.981860 0.917094 0.010536
1.000000 0.902989 0.033510
0.000000 0.926807 0.000000
0.000000 0.926746 0.000000
0.000000 0.926550 0.000000
0.000000 0.926208 0.000000
0.181806 0.925729 0.000000
0.303102 0.925121 0.000000
0.402044 0.924405 0.000000
0.489812 0.924090 0.000028
0.566418 0.925708 0.000011
0.634960 0.927274 0.000000
0.697018 0.928548 0.000000
0.754349 0.929629 0.000000
0.807579 0.930599 0.000000
0.857501 0.931420 0.000000
0.907433 0.934763 0.000000
0.978480 0.961391 0.002893
1.000000 0.946256 0.026642
0.000000 0.969675 0.000000
0.000000 0.969614 0.000000
0.000000 0.969443 0.000000
0.000000 0.969122 0.000000
0.156788 0.968700 0.000000
0.289463 0.968125 0.000000
0.391927 0.967466 0.000000
0.482257 0.966710 0.000000
0.560858 0.967697 0.000024
0.630281 0.969343 0.000000
0.692842 0.970677 0.000000
0.750518 0.971837 0.000000
0.803917 0.972858 0.000000
0.853994 0.973721 0.000000
0.901575 0.974459 0.000000
0.948378 0.976531 0.000000
0.999514 0.987669 0.020052
0.000000 1.000000 0.000000
0.000000 1.000000 0.000000
0.000000 1.000000 0.000000
0.000000 1.000000 0.000000
0.121795 1.000000 0.000000
0.274330 1.000000 0.000000
0.380892 1.000000 0.000000
0.473314 1.000000 0.000000
0.554787 1.000000 0.000870
0.624050 1.000000 0.003351
0.686244 1.000000 0.005600
0.742581 1.000000 0.007700
0.794309 1.000000 0.009657
0.842360 1.000000 0.011641
0.887659 1.000000 0.013478
0.930721 1.000000 0.015198
0.971954 1.000000 0.016998
0.000000 0.000000 0.160999
0.078959 0.000000 0.160180
0.159212 0.000701 0.159199
0.249753 0.012361 0.166861
0.339519 0.024649 0.173895
0.426800 0.036773 0.179629
0.510364 0.048613 0.183936
0.586844 0.060069 0.186863
0.655264 0.071127 0.188273
0.716632 0.081903 0.188144
0.772055 0.092514 0.186322
0.822441 0.103091 0.182842
0.868475 0.113288 0.179658
0.910992 0.123566 0.174632
0.950614 0.134559 0.165667
0.987468 0.146765 0.152329
1.000000 0.151367 0.150391
0.000000 0.076774 0.159010
0.073089 0.073148 0.159011
0.157883 0.070235 0.157917
0.249613 0.074434 0.164436
0.339745 0.076404 0.170654
0.427172 0.075121 0.175787
0.510748 0.069604 0.179696
0.587230 0.063871 0.182153
0.655584 0.072158 0.183046
0.716950 0.083060 0.182354
0.772317 0.093843 0.179787
0.822593 0.104437 0.176669
0.868580 0.114675 0.173102
0.911076 0.125311 0.166616
0.950619 0.136951 0.155162
0.987331 0.148717 0.147856
1.000000 0.151367 0.150391
0.000000 0.154953 0.154867
0.064142 0.154765 0.154665
0.152332 0.152571 0.152356
0.246467 0.160024 0.159397
0.338237 0.165508 0.164772
0.426561 0.169598 0.168726
0.510585 0.172445 0.171445
0.587340 0.173871 0.172688
0.655862 0.173702 0.172300
0.717287 0.171669 0.169951
0.772611 0.167958 0.166538
0.822869 0.164319 0.163552
0.868857 0.158216 0.157644
0.911321 0.147437 0.147164
0.950558 0.141268 0.141126
0.987030 0.148736 0.147759
1.000000 0.151367 0.150391
0.000000 0.234377 0.147781
0.044865 0.234824 0.145656
0.140549 0.234412 0.140492
0.232185 0.235306 0.137785
0.328739 0.245389 0.144301
0.419596 0.251558 0.147533
0.505177 0.256076 0.149193
0.583601 0.259948 0.148877
0.653260 0.263273 0.146659
0.716140 0.265944 0.142457
0.771916 0.268043 0.138963
0.823403 0.269436 0.132130
0.871656 0.270386 0.119282
0.914885 0.271218 0.106039
0.954332 0.269271 0.113399
0.991335 0.266314 0.122689
1.000000 0.260062 0.131142
0.000000 0.314072 0.137092
0.016330 0.314523 0.133568
0.126179 0.314703 0.126101
0.221790 0.313715 0.122040
0.310778 0.317058 0.117362
0.408299 0.329481 0.120750
0.496933 0.336664 0.122442
0.578067 0.342896 0.120352
0.649612 0.347205 0.117176
0.713494 0.350836 0.113473
0.771831 0.354007 0.106045
0.823685 0.357403 0.094230
0.871257 0.360324 0.081989
0.915097 0.361208 0.087860
0.956006 0.361292 0.096168
0.993726 0.361191 0.104817
1.000000 0.359731 0.115509
0.000000 0.393149 0.122113
0.000000 0.393483 0.117431
0.108035 0.393802 0.107898
0.210981 0.392770 0.103133
0.300376 0.393705 0.096498
0.388331 0.398384 0.088378
0.485668 0.413090 0.087767
0.568838 0.419698 0.088150
0.643035 0.425819 0.084248
0.709477 0.431664 0.075760
0.769464 0.436981 0.062446
0.821886 0.440918 0.058635
0.870568 0.443344 0.065460
0.915237 0.444121 0.073649
0.956974 0.444702 0.081695
0.995360 0.445204 0.090208
1.000000 0.444004 0.103606
0.000000 0.470505 0.101155
0.000000 0.470762 0.094979
0.082987 0.471068 0.082974
0.198344 0.470191 0.077867
0.291956 0.470066 0.071156
0.377585 0.472609 0.062146
0.463952 0.478168 0.051425
0.559269 0.495762 0.043950
0.635262 0.501944 0.036982
0.701982 0.506854 0.031869
0.762038 0.511081 0.036504
0.817030 0.514839 0.044963
0.867349 0.518310 0.053075
0.913847 0.521331 0.060959
0.957001 0.523553 0.068682
0.996496 0.524879 0.077183
1.000000 0.522367 0.093353
0.000000 0.544332 0.074506
0.000000 0.544535 0.068309
0.053681 0.544790 0.053910
0.183645 0.544065 0.047239
0.282715 0.543030 0.038154
0.369754 0.545568 0.025071
0.452192 0.547693 0.010611
0.535478 0.553965 0.002477
0.625267 0.572316 0.007310
0.694070 0.576534 0.016631
0.755902 0.580381 0.025430
0.811974 0.583803 0.033823
0.863236 0.586935 0.041855
0.910616 0.589709 0.049635
0.954770 0.592292 0.057228
0.995417 0.594495 0.065557
1.000000 0.591268 0.083334
0.000000 0.612244 0.040561
0.000000 0.612390 0.030736
0.011257 0.612585 0.011599
0.166468 0.611950 0.006653
0.271859 0.610995 0.001285
0.362060 0.612127 0.000039
0.445329 0.614185 0.000000
0.524138 0.615673 0.000000
0.601958 0.622304 0.000526
0.686515 0.641407 0.006375
0.749623 0.644765 0.015139
0.806760 0.647734 0.023490
0.858964 0.650528 0.031471
0.907184 0.653103 0.039179
0.952132 0.655365 0.046701
0.993556 0.657240 0.054884
1.000000 0.652137 0.073492
0.000000 0.674517 0.000991
0.000000 0.674623 0.000000
0.000000 0.674746 0.000000
0.145870 0.674193 0.000000
0.259787 0.673389 0.000000
0.354492 0.673081 0.000106
0.439146 0.675184 0.000000
0.518441 0.676908 0.000000
0.591157 0.678255 0.000000
0.663095 0.684984 0.000360
0.743179 0.704800 0.005536
0.801411 0.707360 0.013862
0.854546 0.709758 0.021804
0.903593 0.711984 0.029466
0.949262 0.713994 0.036924
0.991539 0.715477 0.044973
1.000000 0.708414 0.064478
0.000000 0.731976 0.000000
0.000000 0.732035 0.000000
0.000000 0.732114 0.000000
0.119391 0.731636 0.000000
0.246493 0.730904 0.000000
0.345811 0.729997 0.000000
0.432757 0.731321 0.000079
0.512738 0.733251 0.000000
0.586058 0.734735 0.000000
0.652674 0.735903 0.000000
0.719399 0.742621 0.000222
0.795885 0.763303 0.004803
0.849998 0.765225 0.012730
0.899865 0.767086 0.020381
0.946267 0.768809 0.027798
0.989332 0.770015 0.035704
1.000000 0.761240 0.056049
0.000000 0.785288 0.000000
0.000000 0.785316 0.000000
0.000000 0.785344 0.000000
0.090770 0.784909 0.000000
0.231936 0.784265 0.000000
0.335542 0.783466 0.000000
0.426022 0.783379 0.000212
0.507064 0.785525 0.000000
0.581094 0.787088 0.000000
0.647960 0.788411 0.000000
0.709292 0.789418 0.000000
0.771419 0.795861 0.000085
0.845298 0.817693 0.004148
0.896003 0.819086 0.011785
0.943179 0.820453 0.019197
0.986994 0.821425 0.026928
1.000000 0.810795 0.048143
0.000000 0.835113 0.000000
0.000000 0.835113 0.000000
0.000000 0.835091 0.000000
0.061581 0.834708 0.000000
0.215725 0.834142 0.000000
0.324646 0.833403 0.000000
0.418546 0.832523 0.000200
0.501241 0.834288 0.000000
0.575950 0.835974 0.000000
0.643513 0.837368 0.000000
0.705158 0.838580 0.000000
0.762015 0.839492 0.000000
0.819830 0.845329 0.000000
0.891696 0.868202 0.003641
0.939907 0.869528 0.011001
0.984555 0.870154 0.018599
1.000000 0.857735 0.040704
0.000000 0.882105 0.000000
0.000000 0.882077 0.000000
0.000000 0.882032 0.000000
0.015482 0.881676 0.000000
0.197421 0.881153 0.000000
0.312825 0.880484 0.000000
0.409772 0.879685 0.000000
0.495163 0.880313 0.000010
0.570844 0.882059 0.000000
0.638877 0.883507 0.000000
0.700960 0.884726 0.000000
0.758095 0.885779 0.000000
0.811114 0.886635 0.000000
0.864784 0.891279 0.000000
0.935851 0.915791 0.003230
0.981915 0.916921 0.010567
1.000000 0.902791 0.033538
0.000000 0.926807 0.000000
0.000000 0.926748 0.000000
0.000000 0.926653 0.000000
0.000000 0.926321 0.000000
0.175966 0.925842 0.000000
0.300044 0.925256 0.000000
0.399940 0.924515 0.000000
0.488448 0.924159 0.000028
0.565448 0.925759 0.000008
0.634198 0.927323 0.000000
0.696694 0.928621 0.000000
0.754033 0.929707 0.000000
0.807441 0.930693 0.000000
0.857414 0.931528 0.000000
0.907514 0.934849 0.000000
0.978554 0.961255 0.002896
1.000000 0.946068 0.026695
0.000000 0.969675 0.000000
0.000000 0.969616 0.000000
0.000000 0.969495 0.000000
0.000000 0.969161 0.000000
0.149529 0.968755 0.000000
0.286105 0.968206 0.000000
0.389651 0.967524 0.000000
0.480621 0.966766 0.000000
0.559770 0.967703 0.000024
0.629354 0.969370 0.000000
0.692297 0.970729 0.000000
0.750126 0.971892 0.000000
0.803727 0.972913 0.000000
0.853846 0.973777 0.000000
0.901412 0.974493 0.000000
0.948421 0.976560 0.000000
0.999514 0.987669 0.020052
0.000000 1.000000 0.000000
0.000000 1.000000 0.000000
0.000000 1.000000 0.000000
0.000000 1.000000 0.000000
0.112227 1.000000 0.000000
0.270698 1.000000 0.000000
0.378510 1.000000 0.000000
0.471578 1.000000 0.000000
0.553388 1.000000 0.000830
0.623142 1.000000 0.003304
0.685542 1.000000 0.005600
0.741964 1.000000 0.007700
0.794082 1.000000 0.009651
0.842304 1.000000 0.011576
0.887494 1.000000 0.013478
0.930546 1.000000 0.015198
0.971954 1.000000 0.016998
0.000000 0.000000 0.242900
0.078962 0.000000 0.242379
0.158613 0.000000 0.241273
0.240308 0.000958 0.240303
0.329850 0.011999 0.246907
0.417789 0.023741 0.253353
0.502054 0.035115 0.258833
0.579555 0.045985 0.263365
0.648887 0.056353 0.267030
0.711102 0.066229 0.269890
0.767290 0.075731 0.271993
0.818467 0.084933 0.273434
0.865316 0.093863 0.274252
0.908703 0.102626 0.274468
0.949215 0.111343 0.273949
0.987043 0.119994 0.272797
1.000000 0.124247 0.266755
0.000000 0.076774 0.241586
0.070581 0.070637 0.242168
0.155638 0.066970 0.241069
