luts/Instant Snap.CUBE
# kravix mobile - LUTs Pack
LUT_3D_SIZE 5
0.000000 0.000000 0.000000
0.176471 0.003922 0.000000
0.513725 0.000000 0.000000
0.843137 0.000000 0.000000
1.000000 0.149020 0.039216
0.000000 0.184314 0.000000
0.196078 0.223529 0.000000
0.600000 0.215686 0.000000
0.866667 0.223529 0.000000
1.000000 0.325490 0.062745
0.000000 0.482353 0.007843
0.129412 0.486275 0.019608
0.541176 0.521569 0.000000
0.858824 0.529412 0.000000
1.000000 0.572549 0.149020
0.000000 0.713725 0.098039
0.227451 0.709804 0.105882
0.517647 0.713725 0.003922
0.788235 0.737255 0.000000
1.000000 0.784314 0.000000
0.576471 0.960784 0.490196
0.623529 0.960784 0.498039
0.741176 0.956863 0.517647
0.870588 0.968627 0.478431
1.000000 0.988235 0.388235
0.000000 0.000000 0.200000
0.250980 0.000000 0.243137
0.509804 0.000000 0.215686
0.823529 0.000000 0.211765
1.000000 0.121569 0.211765
0.000000 0.215686 0.235294
0.235294 0.254902 0.262745
0.600000 0.247059 0.250980
0.850980 0.227451 0.223529
1.000000 0.298039 0.223529
0.000000 0.537255 0.250980
0.211765 0.537255 0.266667
0.572549 0.552941 0.200000
0.866667 0.549020 0.247059
1.000000 0.572549 0.305882
0.000000 0.733333 0.262745
0.258824 0.733333 0.274510
0.533333 0.721569 0.239216
0.792157 0.745098 0.125490
1.000000 0.776471 0.203922
0.568627 0.964706 0.533333
0.615686 0.960784 0.541176
0.737255 0.960784 0.560784
0.862745 0.968627 0.529412
1.000000 0.988235 0.450980
0.000000 0.000000 0.505882
0.274510 0.000000 0.552941
0.749020 0.000000 0.623529
0.768627 0.188235 0.509804
1.000000 0.188235 0.505882
0.000000 0.196078 0.498039
0.278431 0.219608 0.556863
0.741176 0.188235 0.631373
0.792157 0.337255 0.533333
1.000000 0.309804 0.498039
0.015686 0.521569 0.545098
0.356863 0.568627 0.580392
0.666667 0.627451 0.623529
0.850980 0.580392 0.564706
1.000000 0.564706 0.521569
0.298039 0.776471 0.588235
0.419608 0.776471 0.584314
0.588235 0.756863 0.541176
0.807843 0.768627 0.494118
1.000000 0.803922 0.564706
0.521569 0.972549 0.643137
0.576471 0.968627 0.647059
0.709804 0.968627 0.654902
0.850980 0.968627 0.654902
1.000000 0.988235 0.600000
0.227451 0.000000 0.764706
0.411765 0.000000 0.780392
0.741176 0.000000 0.823529
0.992157 0.000000 0.847059
1.000000 0.384314 0.768627
0.203922 0.184314 0.749020
0.392157 0.188235 0.772549
0.733333 0.109804 0.815686
0.980392 0.243137 0.847059
0.988235 0.498039 0.772549
0.000000 0.427451 0.670588
0.215686 0.450980 0.705882
0.635294 0.521569 0.776471
0.917647 0.603922 0.831373
0.949020 0.654902 0.776471
0.360784 0.733333 0.752941
0.458824 0.745098 0.764706
0.650980 0.768627 0.780392
0.854902 0.843137 0.831373
0.984314 0.807843 0.784314
0.580392 0.976471 0.858824
0.611765 0.976471 0.854902
0.698039 0.976471 0.839216
0.827451 0.976471 0.811765
1.000000 0.992157 0.788235
0.623529 0.156863 0.984314
0.682353 0.121569 0.988235
0.839216 0.000000 0.996078
1.000000 0.000000 1.000000
1.000000 0.274510 1.000000
0.611765 0.333333 0.980392
0.670588 0.321569 0.980392
0.815686 0.266667 0.988235
1.000000 0.207843 1.000000
1.000000 0.407843 1.000000
0.501961 0.541176 0.964706
0.580392 0.545098 0.964706
0.752941 0.545098 0.976471
0.952941 0.556863 0.992157
1.000000 0.643137 0.996078
0.439216 0.764706 0.949020
0.482353 0.768627 0.949020
0.588235 0.756863 0.952941
0.850980 0.780392 0.976471
1.000000 0.843137 0.992157
0.650980 0.968627 0.984314
0.670588 0.968627 0.984314
0.737255 0.972549 0.988235
0.839216 0.976471 0.988235
1.000000 1.000000 1.000000
