luts/Instant Snap.CUBE
# kravix mobile - LUTs Pack
LUT_3D_SIZE 9
0.000000 0.000000 0.000000
0.043137 0.003922 0.000000
0.176471 0.003922 0.000000
0.325490 0.000000 0.000000
0.513725 0.000000 0.000000
0.705882 0.000000 0.000000
0.843137 0.000000 0.000000
0.956863 0.000000 0.000000
1.000000 0.149020 0.039216
0.000000 0.050980 0.003922
0.062745 0.070588 0.000000
0.192157 0.066667 0.000000
0.356863 0.050980 0.000000
0.537255 0.000000 0.000000
0.721569 0.000000 0.000000
0.850980 0.000000 0.000000
0.960784 0.035294 0.000000
1.000000 0.203922 0.043137
0.000000 0.184314 0.000000
0.011765 0.188235 0.000000
0.196078 0.223529 0.000000
0.388235 0.215686 0.000000
0.600000 0.215686 0.000000
0.749020 0.207843 0.000000
0.866667 0.223529 0.000000
0.960784 0.239216 0.000000
1.000000 0.325490 0.062745
0.000000 0.349020 0.000000
0.000000 0.349020 0.000000
0.160784 0.368627 0.000000
0.372549 0.388235 0.000000
0.607843 0.392157 0.000000
0.768627 0.400000 0.000000
0.886275 0.411765 0.000000
0.968627 0.407843 0.015686
1.000000 0.454902 0.094118
0.000000 0.482353 0.007843
0.000000 0.494118 0.015686
0.129412 0.486275 0.019608
0.333333 0.505882 0.000000
0.541176 0.521569 0.000000
0.729412 0.521569 0.000000
0.858824 0.529412 0.000000
0.968627 0.552941 0.062745
1.000000 0.572549 0.149020
0.000000 0.596078 0.035294
0.000000 0.607843 0.050980
0.133333 0.596078 0.054902
0.333333 0.607843 0.011765
0.498039 0.615686 0.000000
0.674510 0.631373 0.000000
0.823529 0.635294 0.000000
0.941176 0.654902 0.000000
1.000000 0.686275 0.137255
0.000000 0.713725 0.098039
0.000000 0.713725 0.101961
0.227451 0.709804 0.105882
0.376471 0.701961 0.105882
0.517647 0.713725 0.003922
0.650980 0.729412 0.000000
0.788235 0.737255 0.000000
0.909804 0.745098 0.000000
1.000000 0.784314 0.000000
0.254902 0.835294 0.227451
0.298039 0.835294 0.227451
0.376471 0.831373 0.227451
0.478431 0.827451 0.235294
0.580392 0.827451 0.215686
0.686275 0.839216 0.168627
0.796078 0.850980 0.058824
0.905882 0.866667 0.000000
1.000000 0.874510 0.000000
0.576471 0.960784 0.490196
0.592157 0.960784 0.494118
0.623529 0.960784 0.498039
0.678431 0.960784 0.505882
0.741176 0.956863 0.517647
0.796078 0.960784 0.501961
0.870588 0.968627 0.478431
0.945098 0.976471 0.443137
1.000000 0.988235 0.388235
0.007843 0.000000 0.054902
0.070588 0.000000 0.066667
0.152941 0.000000 0.062745
0.333333 0.000000 0.066667
0.513725 0.000000 0.082353
0.698039 0.000000 0.078431
0.827451 0.000000 0.078431
0.941176 0.000000 0.082353
1.000000 0.121569 0.109804
0.000000 0.054902 0.066667
0.070588 0.074510 0.082353
0.200000 0.074510 0.086275
0.364706 0.062745 0.086275
0.541176 0.007843 0.082353
0.709804 0.000000 0.090196
0.839216 0.000000 0.090196
0.952941 0.062745 0.090196
1.000000 0.192157 0.113725
0.000000 0.211765 0.109804
0.019608 0.211765 0.094118
0.207843 0.227451 0.082353
0.407843 0.231373 0.086275
0.600000 0.231373 0.098039
0.745098 0.227451 0.101961
0.862745 0.231373 0.090196
0.956863 0.243137 0.101961
1.000000 0.321569 0.129412
0.000000 0.360784 0.105882
0.000000 0.372549 0.109804
0.180392 0.372549 0.101961
0.392157 0.400000 0.019608
0.603922 0.407843 0.000000
0.772549 0.407843 0.090196
0.878431 0.403922 0.109804
0.964706 0.415686 0.129412
1.000000 0.450980 0.160784
0.000000 0.498039 0.117647
0.000000 0.509804 0.117647
0.168627 0.494118 0.117647
0.360784 0.513725 0.066667
0.549020 0.533333 0.000000
0.725490 0.525490 0.000000
0.862745 0.537255 0.011765
0.964706 0.556863 0.168627
1.000000 0.572549 0.200000
0.000000 0.615686 0.125490
0.000000 0.619608 0.137255
0.168627 0.607843 0.137255
0.356863 0.607843 0.121569
0.517647 0.619608 0.023529
0.682353 0.639216 0.000000
0.823529 0.643137 0.000000
0.941176 0.654902 0.000000
1.000000 0.690196 0.219608
0.000000 0.717647 0.160784
0.000000 0.721569 0.160784
0.227451 0.717647 0.160784
0.384314 0.709804 0.164706
0.513725 0.713725 0.113725
0.650980 0.725490 0.000000
0.788235 0.741176 0.000000
0.909804 0.745098 0.000000
1.000000 0.776471 0.000000
0.274510 0.843137 0.266667
0.309804 0.843137 0.266667
0.384314 0.839216 0.266667
0.478431 0.827451 0.262745
0.588235 0.827451 0.254902
0.686275 0.839216 0.211765
0.796078 0.850980 0.145098
0.905882 0.866667 0.000000
1.000000 0.874510 0.000000
0.576471 0.964706 0.501961
0.592157 0.960784 0.505882
0.623529 0.960784 0.513725
0.674510 0.960784 0.517647
0.741176 0.956863 0.529412
0.800000 0.960784 0.517647
0.866667 0.968627 0.494118
0.941176 0.976471 0.458824
1.000000 0.988235 0.407843
0.000000 0.000000 0.200000
0.086275 0.000000 0.219608
0.250980 0.000000 0.243137
0.309804 0.015686 0.207843
0.509804 0.000000 0.215686
0.690196 0.000000 0.196078
0.823529 0.000000 0.211765
0.937255 0.000000 0.203922
1.000000 0.121569 0.211765
0.000000 0.058824 0.200000
0.074510 0.070588 0.227451
0.258824 0.047059 0.250980
0.325490 0.125490 0.227451
0.533333 0.054902 0.235294
0.705882 0.000000 0.215686
0.831373 0.007843 0.207843
0.941176 0.086275 0.207843
1.000000 0.196078 0.219608
0.000000 0.215686 0.235294
0.062745 0.215686 0.247059
0.235294 0.254902 0.262745
0.435294 0.254902 0.258824
0.600000 0.247059 0.250980
0.733333 0.227451 0.239216
0.850980 0.227451 0.223529
0.949020 0.247059 0.223529
1.000000 0.298039 0.223529
0.000000 0.400000 0.278431
0.000000 0.419608 0.286275
0.219608 0.411765 0.266667
0.431373 0.435294 0.243137
0.635294 0.423529 0.247059
0.768627 0.419608 0.262745
0.870588 0.407843 0.250980
0.960784 0.419608 0.254902
1.000000 0.450980 0.266667
0.000000 0.537255 0.250980
0.000000 0.549020 0.270588
0.211765 0.537255 0.266667
0.388235 0.533333 0.247059
0.572549 0.552941 0.200000
0.741176 0.541176 0.184314
0.866667 0.549020 0.247059
0.960784 0.564706 0.298039
1.000000 0.572549 0.305882
0.000000 0.639216 0.258824
0.000000 0.643137 0.258824
0.211765 0.631373 0.254902
0.380392 0.619608 0.254902
0.529412 0.635294 0.219608
0.694118 0.650980 0.156863
0.835294 0.650980 0.101961
0.941176 0.666667 0.211765
1.000000 0.701961 0.349020
0.000000 0.733333 0.262745
0.062745 0.733333 0.266667
0.258824 0.733333 0.274510
0.407843 0.729412 0.270588
0.533333 0.721569 0.239216
0.658824 0.733333 0.200000
0.792157 0.745098 0.125490
0.913725 0.752941 0.000000
1.000000 0.776471 0.203922
0.258824 0.843137 0.333333
0.305882 0.843137 0.337255
0.384314 0.843137 0.337255
0.486275 0.835294 0.333333
0.584314 0.827451 0.333333
0.690196 0.839216 0.305882
0.796078 0.850980 0.250980
0.905882 0.866667 0.172549
1.000000 0.874510 0.000000
0.568627 0.964706 0.533333
0.588235 0.964706 0.541176
0.615686 0.960784 0.541176
0.670588 0.960784 0.549020
0.737255 0.960784 0.560784
0.800000 0.960784 0.552941
0.862745 0.968627 0.529412
0.937255 0.976471 0.501961
1.000000 0.988235 0.450980
0.000000 0.000000 0.360784
0.027451 0.000000 0.380392
0.270588 0.000000 0.419608
0.505882 0.000000 0.439216
0.525490 0.000000 0.368627
0.654902 0.070588 0.372549
0.803922 0.000000 0.356863
0.929412 0.000000 0.337255
1.000000 0.000000 0.321569
0.000000 0.074510 0.352941
0.062745 0.062745 0.384314
0.274510 0.015686 0.419608
0.521569 0.000000 0.462745
0.541176 0.129412 0.384314
0.662745 0.156863 0.388235
0.811765 0.054902 0.368627
0.933333 0.000000 0.333333
1.000000 0.172549 0.337255
0.000000 0.196078 0.337255
0.015686 0.215686 0.364706
0.266667 0.250980 0.423529
0.533333 0.231373 0.478431
0.560784 0.290196 0.423529
0.713725 0.266667 0.407843
0.843137 0.219608 0.364706
0.937255 0.247059 0.352941
1.000000 0.286275 0.349020
0.000000 0.376471 0.403922
0.031373 0.400000 0.427451
0.290196 0.427451 0.443137
0.501961 0.470588 0.474510
0.643137 0.447059 0.450980
0.756863 0.427451 0.419608
0.858824 0.427451 0.400000
0.945098 0.415686 0.376471
1.000000 0.447059 0.384314
0.000000 0.564706 0.450980
0.015686 0.588235 0.466667
0.301961 0.584314 0.462745
0.470588 0.576471 0.450980
0.611765 0.584314 0.411765
0.760784 0.572549 0.415686
0.866667 0.588235 0.443137
0.949020 0.568627 0.423529
1.000000 0.576471 0.415686
0.129412 0.674510 0.443137
0.231373 0.678431 0.462745
0.282353 0.674510 0.419608
0.439216 0.654902 0.411765
0.568627 0.650980 0.392157
0.721569 0.670588 0.360784
0.843137 0.666667 0.352941
0.941176 0.682353 0.415686
1.000000 0.725490 0.490196
0.078431 0.772549 0.423529
0.168627 0.764706 0.419608
0.298039 0.752941 0.403922
0.435294 0.752941 0.415686
0.549020 0.729412 0.388235
0.670588 0.741176 0.356863
0.800000 0.756863 0.317647
0.917647 0.760784 0.274510
1.000000 0.788235 0.392157
0.258824 0.850980 0.431373
0.309804 0.858824 0.439216
0.384314 0.850980 0.435294
0.486275 0.843137 0.431373
0.588235 0.835294 0.431373
0.686275 0.839216 0.411765
0.792157 0.850980 0.380392
0.901961 0.866667 0.325490
1.000000 0.878431 0.247059
0.549020 0.964706 0.580392
0.572549 0.968627 0.588235
0.603922 0.964706 0.588235
0.658824 0.964706 0.592157
0.721569 0.960784 0.596078
0.792157 0.960784 0.603922
0.862745 0.968627 0.588235
0.937255 0.980392 0.560784
1.000000 0.988235 0.525490
0.000000 0.000000 0.505882
0.039216 0.000000 0.521569
0.274510 0.000000 0.552941
0.545098 0.000000 0.607843
0.749020 0.000000 0.623529
0.725490 0.000000 0.525490
0.768627 0.188235 0.509804
0.894118 0.180392 0.509804
1.000000 0.188235 0.505882
0.000000 0.066667 0.501961
0.070588 0.050980 0.529412
0.294118 0.000000 0.556863
0.552941 0.000000 0.615686
0.749020 0.000000 0.623529
0.729412 0.101961 0.533333
0.776471 0.247059 0.525490
0.898039 0.223529 0.509804
1.000000 0.231373 0.505882
0.000000 0.196078 0.498039
0.074510 0.215686 0.525490
0.278431 0.219608 0.556863
0.533333 0.200000 0.607843
0.741176 0.188235 0.631373
0.729412 0.294118 0.549020
0.792157 0.337255 0.533333
0.913725 0.309804 0.517647
1.000000 0.309804 0.498039
0.000000 0.341176 0.498039
0.000000 0.360784 0.509804
0.231373 0.380392 0.521569
0.486275 0.423529 0.588235
0.713725 0.458824 0.631373
0.721569 0.474510 0.572549
0.823529 0.454902 0.556863
0.929412 0.411765 0.517647
1.000000 0.419608 0.494118
0.015686 0.521569 0.545098
0.200000 0.552941 0.568627
0.356863 0.568627 0.580392
0.509804 0.584314 0.596078
0.666667 0.627451 0.623529
0.768627 0.603922 0.596078
0.850980 0.580392 0.564706
0.929412 0.564706 0.537255
1.000000 0.564706 0.521569
0.164706 0.694118 0.603922
0.266667 0.705882 0.615686
0.384314 0.701961 0.607843
0.517647 0.705882 0.603922
0.619608 0.690196 0.580392
0.737255 0.694118 0.556863
0.850980 0.701961 0.568627
0.933333 0.709804 0.592157
1.000000 0.713725 0.584314
0.298039 0.776471 0.588235
0.349020 0.780392 0.600000
0.419608 0.776471 0.584314
0.478431 0.776471 0.556863
0.588235 0.756863 0.541176
0.690196 0.764706 0.525490
0.807843 0.768627 0.494118
0.921569 0.772549 0.486275
1.000000 0.803922 0.564706
0.384314 0.862745 0.588235
0.400000 0.866667 0.584314
0.400000 0.866667 0.556863
0.494118 0.858824 0.549020
0.596078 0.850980 0.541176
0.694118 0.843137 0.529412
0.792157 0.854902 0.505882
0.898039 0.870588 0.474510
1.000000 0.886275 0.443137
0.521569 0.972549 0.643137
0.537255 0.972549 0.654902
0.576471 0.968627 0.647059
0.635294 0.968627 0.650980
0.709804 0.968627 0.654902
0.784314 0.964706 0.662745
0.850980 0.968627 0.654902
0.929412 0.980392 0.635294
1.000000 0.988235 0.600000
0.000000 0.000000 0.639216
0.137255 0.000000 0.650980
0.317647 0.000000 0.670588
0.537255 0.000000 0.709804
0.768627 0.000000 0.749020
0.890196 0.000000 0.749020
0.866667 0.000000 0.658824
0.898039 0.258824 0.635294
0.964706 0.380392 0.654902
0.015686 0.043137 0.635294
0.168627 0.027451 0.650980
0.329412 0.000000 0.678431
0.541176 0.000000 0.709804
0.764706 0.000000 0.749020
0.890196 0.000000 0.749020
0.866667 0.152941 0.662745
0.898039 0.305882 0.639216
0.968627 0.403922 0.658824
0.043137 0.215686 0.643137
0.168627 0.211765 0.650980
0.333333 0.196078 0.674510
0.525490 0.192157 0.701961
0.760784 0.129412 0.745098
0.878431 0.180392 0.749020
0.862745 0.329412 0.670588
0.890196 0.403922 0.647059
0.972549 0.431373 0.654902
0.000000 0.321569 0.596078
0.000000 0.337255 0.619608
0.266667 0.368627 0.647059
0.486275 0.392157 0.682353
0.705882 0.400000 0.725490
0.850980 0.435294 0.745098
0.843137 0.478431 0.674510
0.874510 0.513725 0.670588
0.984314 0.501961 0.662745
0.000000 0.458824 0.607843
0.145098 0.494118 0.623529
0.278431 0.498039 0.627451
0.435294 0.529412 0.639216
0.654902 0.576471 0.701961
0.811765 0.607843 0.737255
0.819608 0.615686 0.690196
0.894118 0.588235 0.674510
1.000000 0.564706 0.643137
0.262745 0.639216 0.662745
0.313725 0.643137 0.670588
0.411765 0.654902 0.674510
0.525490 0.670588 0.690196
0.658824 0.701961 0.705882
0.776471 0.745098 0.737255
0.843137 0.721569 0.709804
0.917647 0.701961 0.682353
0.996078 0.698039 0.662745
0.372549 0.807843 0.737255
0.392157 0.800000 0.733333
0.462745 0.800000 0.733333
0.552941 0.796078 0.717647
0.647059 0.796078 0.709804
0.729412 0.788235 0.690196
0.819608 0.792157 0.670588
0.913725 0.800000 0.678431
0.992157 0.827451 0.721569
0.431373 0.878431 0.725490
0.458824 0.882353 0.717647
0.498039 0.874510 0.713725
0.564706 0.874510 0.705882
0.619608 0.878431 0.682353
0.701961 0.862745 0.662745
0.796078 0.862745 0.650980
0.898039 0.878431 0.635294
0.996078 0.890196 0.631373
0.572549 0.976471 0.764706
0.584314 0.972549 0.764706
0.607843 0.972549 0.760784
0.631373 0.972549 0.745098
0.682353 0.972549 0.725490
0.760784 0.968627 0.725490
0.847059 0.968627 0.729412
0.921569 0.980392 0.713725
1.000000 0.988235 0.690196
0.227451 0.000000 0.764706
0.290196 0.000000 0.772549
0.411765 0.000000 0.780392
0.572549 0.000000 0.800000
0.741176 0.000000 0.823529
0.913725 0.000000 0.850980
0.992157 0.000000 0.847059
0.968627 0.156863 0.768627
1.000000 0.384314 0.768627
0.223529 0.011765 0.756863
0.290196 0.003922 0.764706
0.403922 0.000000 0.776471
0.572549 0.000000 0.800000
0.737255 0.000000 0.819608
0.913725 0.000000 0.854902
0.992157 0.000000 0.850980
0.964706 0.231373 0.768627
0.996078 0.423529 0.764706
0.203922 0.184314 0.749020
0.278431 0.196078 0.760784
0.392157 0.188235 0.772549
0.549020 0.152941 0.792157
0.733333 0.109804 0.815686
0.898039 0.090196 0.847059
0.980392 0.243137 0.847059
0.956863 0.364706 0.768627
0.988235 0.498039 0.772549
0.086275 0.317647 0.725490
0.215686 0.337255 0.741176
0.352941 0.337255 0.752941
0.513725 0.349020 0.772549
0.690196 0.356863 0.807843
0.862745 0.392157 0.839216
0.956863 0.447059 0.839216
0.937255 0.501961 0.776471
0.968627 0.576471 0.776471
0.000000 0.427451 0.670588
0.000000 0.443137 0.690196
0.215686 0.450980 0.705882
0.443137 0.486275 0.745098
0.635294 0.521569 0.776471
0.811765 0.576471 0.819608
0.917647 0.603922 0.831373
0.913725 0.631373 0.780392
0.949020 0.654902 0.776471
0.145098 0.592157 0.713725
0.215686 0.596078 0.717647
0.301961 0.592157 0.721569
0.423529 0.600000 0.725490
0.552941 0.619608 0.733333
0.752941 0.690196 0.792157
0.886275 0.737255 0.831373
0.890196 0.729412 0.788235
0.964706 0.717647 0.788235
0.360784 0.733333 0.752941
0.400000 0.741176 0.760784
0.458824 0.745098 0.764706
0.549020 0.752941 0.768627
0.650980 0.768627 0.780392
0.760784 0.800000 0.800000
0.854902 0.843137 0.831373
0.905882 0.815686 0.803922
0.984314 0.807843 0.784314
0.474510 0.890196 0.835294
0.494118 0.894118 0.839216
0.533333 0.894118 0.835294
0.596078 0.894118 0.831373
0.666667 0.890196 0.823529
0.745098 0.890196 0.811765
0.811765 0.882353 0.788235
0.898039 0.890196 0.776471
0.988235 0.905882 0.788235
0.580392 0.976471 0.858824
0.592157 0.980392 0.858824
0.611765 0.976471 0.854902
0.650980 0.976471 0.850980
0.698039 0.976471 0.839216
0.752941 0.980392 0.819608
0.827451 0.976471 0.811765
0.909804 0.980392 0.803922
1.000000 0.992157 0.788235
0.411765 0.000000 0.874510
0.443137 0.000000 0.878431
0.517647 0.000000 0.882353
0.631373 0.000000 0.890196
0.760784 0.000000 0.901961
0.905882 0.000000 0.921569
1.000000 0.000000 0.941176
1.000000 0.000000 0.929412
1.000000 0.325490 0.878431
0.400000 0.015686 0.866667
0.454902 0.003922 0.882353
0.517647 0.000000 0.878431
0.627451 0.000000 0.886275
0.756863 0.000000 0.901961
0.894118 0.000000 0.917647
1.000000 0.000000 0.937255
1.000000 0.074510 0.933333
1.000000 0.368627 0.878431
0.392157 0.211765 0.866667
0.427451 0.196078 0.870588
0.505882 0.184314 0.874510
0.611765 0.160784 0.882353
0.752941 0.121569 0.898039
0.878431 0.090196 0.913725
1.000000 0.117647 0.933333
1.000000 0.294118 0.925490
1.000000 0.458824 0.874510
0.317647 0.337255 0.847059
0.372549 0.345098 0.854902
0.462745 0.341176 0.862745
0.588235 0.341176 0.874510
0.713725 0.341176 0.886275
0.858824 0.360784 0.905882
0.980392 0.400000 0.929412
1.000000 0.470588 0.925490
1.000000 0.552941 0.870588
0.000000 0.431373 0.819608
0.160784 0.435294 0.831373
0.337255 0.450980 0.839216
0.501961 0.470588 0.850980
0.666667 0.501961 0.874510
0.807843 0.529412 0.890196
0.937255 0.560784 0.921569
1.000000 0.607843 0.917647
0.996078 0.662745 0.874510
0.000000 0.556863 0.792157
0.000000 0.564706 0.800000
0.176471 0.560784 0.796078
0.352941 0.564706 0.807843
0.541176 0.584314 0.835294
0.745098 0.643137 0.866667
0.890196 0.690196 0.905882
0.976471 0.733333 0.917647
0.980392 0.749020 0.878431
0.235294 0.698039 0.819608
0.278431 0.701961 0.823529
0.345098 0.705882 0.823529
0.435294 0.705882 0.823529
0.541176 0.713725 0.823529
0.662745 0.737255 0.831373
0.827451 0.784314 0.874510
0.945098 0.835294 0.913725
0.960784 0.835294 0.886275
0.474510 0.843137 0.858824
0.486275 0.843137 0.858824
0.521569 0.843137 0.862745
0.584314 0.847059 0.862745
0.654902 0.854902 0.870588
0.741176 0.870588 0.874510
0.831373 0.894118 0.890196
0.925490 0.929412 0.921569
0.980392 0.909804 0.898039
0.600000 0.984314 0.941176
0.607843 0.980392 0.941176
0.631373 0.984314 0.941176
0.670588 0.984314 0.941176
0.713725 0.984314 0.937255
0.772549 0.984314 0.933333
0.835294 0.984314 0.917647
0.898039 0.984314 0.898039
1.000000 0.996078 0.890196
0.623529 0.156863 0.984314
0.643137 0.152941 0.988235
0.682353 0.121569 0.988235
0.749020 0.047059 0.988235
0.839216 0.000000 0.996078
0.929412 0.000000 1.000000
1.000000 0.000000 1.000000
1.000000 0.000000 1.000000
1.000000 0.274510 1.000000
0.615686 0.207843 0.980392
0.639216 0.211765 0.984314
0.678431 0.192157 0.984314
0.741176 0.160784 0.988235
0.827451 0.101961 0.992157
0.929412 0.000000 1.000000
1.000000 0.000000 1.000000
1.000000 0.000000 1.000000
1.000000 0.329412 1.000000
0.611765 0.333333 0.980392
0.627451 0.329412 0.980392
0.670588 0.321569 0.980392
0.737255 0.290196 0.984314
0.815686 0.266667 0.988235
0.913725 0.235294 0.996078
1.000000 0.207843 1.000000
1.000000 0.211765 1.000000
1.000000 0.407843 1.000000
0.568627 0.439216 0.972549
0.603922 0.443137 0.976471
0.643137 0.435294 0.976471
0.713725 0.427451 0.980392
0.800000 0.419608 0.984314
0.890196 0.411765 0.992157
0.984314 0.407843 0.996078
1.000000 0.435294 1.000000
1.000000 0.537255 1.000000
0.501961 0.541176 0.964706
0.533333 0.549020 0.968627
0.580392 0.545098 0.964706
0.658824 0.545098 0.972549
0.752941 0.545098 0.976471
0.854902 0.549020 0.984314
0.952941 0.556863 0.992157
1.000000 0.580392 1.000000
1.000000 0.643137 0.996078
0.396078 0.654902 0.945098
0.427451 0.650980 0.952941
0.470588 0.643137 0.956863
0.549020 0.631373 0.964706
0.682353 0.650980 0.968627
0.800000 0.662745 0.976471
0.917647 0.682353 0.988235
1.000000 0.709804 0.992157
1.000000 0.752941 0.992157
0.439216 0.764706 0.949020
0.454902 0.768627 0.952941
0.482353 0.768627 0.949020
0.525490 0.760784 0.949020
0.588235 0.756863 0.952941
0.701961 0.745098 0.964706
0.850980 0.780392 0.976471
0.968627 0.815686 0.992157
1.000000 0.843137 0.992157
0.552941 0.882353 0.968627
0.556863 0.878431 0.964706
0.580392 0.882353 0.968627
0.611765 0.882353 0.968627
0.654902 0.878431 0.968627
0.717647 0.878431 0.968627
0.776471 0.874510 0.968627
0.913725 0.898039 0.984314
1.000000 0.929412 0.996078
0.650980 0.968627 0.984314
0.654902 0.964706 0.980392
0.670588 0.968627 0.984314
0.698039 0.972549 0.984314
0.737255 0.972549 0.988235
0.780392 0.972549 0.984314
0.839216 0.976471 0.988235
0.913725 0.988235 0.992157
1.000000 1.000000 1.000000
