luts/Instant Snap.CUBE
# kravix mobile - LUTs Pack
LUT_3D_SIZE 17
0.000000 0.000000 0.000000
0.013725 0.000000 0.000000
0.043137 0.003922 0.000000
0.103921 0.009804 0.000000
0.176471 0.003922 0.000000
0.252941 0.000000 0.000000
0.325490 0.000000 0.000000
0.429412 0.000000 0.000000
0.513725 0.000000 0.000000
0.611765 0.000000 0.000000
0.705882 0.000000 0.000000
0.784314 0.000000 0.000000
0.843137 0.000000 0.000000
0.907844 0.000000 0.000000
0.956863 0.000000 0.000000
0.994117 0.027451 0.005882
1.000000 0.149020 0.039216
0.000000 0.015686 0.001961
0.018627 0.018627 0.000981
0.052942 0.025490 0.000000
0.113726 0.030392 0.000000
0.184314 0.029412 0.001961
0.257843 0.014706 0.000000
0.339216 0.001961 0.000000
0.434314 0.000000 0.000000
0.523529 0.000000 0.000000
0.621568 0.000000 0.000000
0.711765 0.000000 0.000000
0.787255 0.000000 0.000000
0.849020 0.000000 0.000000
0.907843 0.000000 0.000000
0.958824 0.000000 0.000000
0.997059 0.057843 0.002941
1.000000 0.150981 0.025490
0.000000 0.050980 0.003922
0.025490 0.058824 0.001961
0.062745 0.070588 0.000000
0.129412 0.068628 0.000000
0.192157 0.066667 0.000000
0.270588 0.058824 0.000000
0.356863 0.050980 0.000000
0.452941 0.007843 0.000000
0.537255 0.000000 0.000000
0.639216 0.000000 0.000000
0.721569 0.000000 0.000000
0.792156 0.000000 0.000000
0.850980 0.000000 0.000000
0.909804 0.000000 0.000000
0.960784 0.035294 0.000000
0.996078 0.121568 0.003921
1.000000 0.203922 0.043137
0.000000 0.125490 0.001961
0.007843 0.115686 0.001961
0.041176 0.125490 0.000000
0.121569 0.136274 0.000000
0.215686 0.147059 0.000000
0.297059 0.142157 0.000000
0.376470 0.135294 0.000000
0.475490 0.124510 0.000000
0.564706 0.101961 0.000000
0.662745 0.100981 0.000000
0.741177 0.090196 0.000000
0.802941 0.074510 0.000000
0.858823 0.096078 0.000000
0.914706 0.120588 0.000000
0.962745 0.164706 0.000000
0.998039 0.206863 0.006863
1.000000 0.260784 0.050980
0.000000 0.184314 0.000000
0.000000 0.196078 0.000000
0.011765 0.188235 0.000000
0.092157 0.203922 0.000000
0.196078 0.223529 0.000000
0.292157 0.213726 0.000000
0.388235 0.215686 0.000000
0.515686 0.225490 0.000000
0.600000 0.215686 0.000000
0.684314 0.209804 0.000000
0.749020 0.207843 0.000000
0.817647 0.219608 0.000000
0.866667 0.223529 0.000000
0.919608 0.229412 0.000000
0.960784 0.239216 0.000000
0.998039 0.274509 0.009804
1.000000 0.325490 0.062745
0.000000 0.276471 0.000000
0.000000 0.278431 0.000000
0.000000 0.274509 0.000000
0.063725 0.278431 0.000000
0.174510 0.294118 0.000000
0.288235 0.307843 0.000000
0.400000 0.319608 0.000000
0.507843 0.313725 0.000000
0.611765 0.315686 0.000000
0.699020 0.317647 0.000000
0.774510 0.317647 0.000000
0.828431 0.316667 0.000000
0.880393 0.311765 0.000000
0.925490 0.322549 0.000000
0.966666 0.335294 0.001961
1.000000 0.352941 0.027451
1.000000 0.386274 0.078432
0.000000 0.349020 0.000000
0.000000 0.354902 0.000000
0.000000 0.349020 0.000000
0.043138 0.349020 0.001961
0.160784 0.368627 0.000000
0.256863 0.382353 0.000000
0.372549 0.388235 0.000000
0.503922 0.392157 0.000000
0.607843 0.392157 0.000000
0.688236 0.394118 0.000000
0.768627 0.400000 0.000000
0.833333 0.401961 0.000000
0.886275 0.411765 0.000000
0.927450 0.409804 0.000000
0.968627 0.407843 0.015686
0.998039 0.419608 0.045098
1.000000 0.454902 0.094118
0.000000 0.413725 0.000000
0.000000 0.433334 0.003922
0.000000 0.425490 0.005882
0.029412 0.424510 0.009804
0.147058 0.427451 0.000000
0.250000 0.441177 0.000000
0.347058 0.454902 0.000000
0.470588 0.463725 0.000000
0.578431 0.462746 0.000000
0.664706 0.466667 0.000000
0.743138 0.468627 0.000000
0.821569 0.470588 0.000000
0.876471 0.478432 0.000000
0.930392 0.489216 0.022549
0.968627 0.484314 0.047059
1.000000 0.501961 0.086275
1.000000 0.515686 0.125490
0.000000 0.482353 0.007843
0.000000 0.496078 0.011765
0.000000 0.494118 0.015686
0.009804 0.486274 0.019608
0.129412 0.486275 0.019608
0.237255 0.496078 0.000000
0.333333 0.505882 0.000000
0.433334 0.511764 0.000000
0.541176 0.521569 0.000000
0.641177 0.523529 0.000000
0.729412 0.521569 0.000000
0.800000 0.531373 0.000000
0.858824 0.529412 0.000000
0.919608 0.545098 0.000000
0.968627 0.552941 0.062745
0.998039 0.566666 0.123530
1.000000 0.572549 0.149020
0.000000 0.552941 0.023529
0.000000 0.557843 0.029412
0.000000 0.552941 0.029412
0.000000 0.548039 0.033334
0.127451 0.545098 0.037255
0.242157 0.545098 0.014706
0.325491 0.554902 0.000000
0.421569 0.563726 0.000000
0.513726 0.572549 0.000000
0.613725 0.583333 0.000000
0.696079 0.588235 0.000000
0.778431 0.586274 0.000000
0.845098 0.590196 0.000000
0.903921 0.599020 0.000000
0.954902 0.607843 0.000000
0.994117 0.622549 0.086274
1.000000 0.645098 0.186275
0.000000 0.596078 0.035294
0.000000 0.609804 0.047059
0.000000 0.607843 0.050980
0.005882 0.601961 0.049019
0.133333 0.596078 0.054902
0.249020 0.594118 0.043137
0.333333 0.607843 0.011765
0.419608 0.607843 0.000000
0.498039 0.615686 0.000000
0.584314 0.627451 0.000000
0.674510 0.631373 0.000000
0.752941 0.637255 0.000000
0.823529 0.635294 0.000000
0.890196 0.645098 0.000000
0.941176 0.654902 0.000000
0.986274 0.666667 0.001961
1.000000 0.686275 0.137255
0.000000 0.666667 0.070588
0.000000 0.667647 0.073529
0.000000 0.662745 0.072549
0.045098 0.663726 0.075490
0.168627 0.658824 0.074510
0.273529 0.650980 0.078432
0.352942 0.650980 0.054902
0.427451 0.663725 0.014706
0.501961 0.670589 0.000000
0.582353 0.674510 0.000000
0.656863 0.680392 0.000000
0.740196 0.692157 0.000000
0.803921 0.696079 0.000000
0.867647 0.694117 0.000000
0.925490 0.700000 0.000000
0.977451 0.716667 0.000000
1.000000 0.729412 0.021569
0.000000 0.713725 0.098039
0.000000 0.717647 0.103921
0.000000 0.713725 0.101961
0.131373 0.719607 0.107843
0.227451 0.709804 0.105882
0.309804 0.705882 0.105882
0.376471 0.701961 0.105882
0.441176 0.705882 0.070588
0.517647 0.713725 0.003922
0.586275 0.719608 0.000000
0.650980 0.729412 0.000000
0.721568 0.731372 0.000000
0.788235 0.737255 0.000000
0.854902 0.747058 0.000000
0.909804 0.745098 0.000000
0.966667 0.756862 0.000000
1.000000 0.784314 0.000000
0.094118 0.782353 0.162745
0.117647 0.780392 0.162745
0.162745 0.776471 0.156863
0.227451 0.772549 0.154902
0.298039 0.776471 0.164706
0.356863 0.766667 0.154902
0.427451 0.772549 0.168627
0.479412 0.762745 0.143137
0.545098 0.774509 0.125491
0.605882 0.780392 0.079412
0.658824 0.780392 0.027451
0.729412 0.789216 0.012745
0.786274 0.792157 0.000000
0.846078 0.800000 0.000000
0.905882 0.809804 0.000000
0.961765 0.812745 0.000000
1.000000 0.827451 0.000000
0.254902 0.835294 0.227451
0.286274 0.841176 0.235295
0.298039 0.835294 0.227451
0.337255 0.835294 0.231373
0.376471 0.831373 0.227451
0.425490 0.831373 0.231373
0.478431 0.827451 0.235294
0.537255 0.825490 0.229412
0.580392 0.827451 0.215686
0.641177 0.833333 0.194118
0.686275 0.839216 0.168627
0.749019 0.847058 0.133333
0.796078 0.850980 0.058824
0.856862 0.858823 0.000000
0.905882 0.866667 0.000000
0.962746 0.872549 0.000000
1.000000 0.874510 0.000000
0.417648 0.901961 0.343137
0.428431 0.901961 0.344118
0.454902 0.905882 0.356862
0.472549 0.902941 0.350981
0.486274 0.896079 0.341176
0.528432 0.896079 0.347059
0.566666 0.894118 0.345098
0.622549 0.900000 0.369608
0.654902 0.894118 0.354902
0.697059 0.900980 0.345098
0.733333 0.900000 0.317647
0.781373 0.905882 0.299019
0.831373 0.919608 0.300000
0.873530 0.917647 0.239216
0.919608 0.921569 0.180392
0.971569 0.930392 0.128431
1.000000 0.933334 0.101961
0.576471 0.960784 0.490196
0.582353 0.962745 0.492157
0.592157 0.960784 0.494118
0.605882 0.960784 0.492157
0.623529 0.960784 0.498039
0.649020 0.960784 0.500000
0.678431 0.960784 0.505882
0.707843 0.956863 0.511764
0.741176 0.956863 0.517647
0.766667 0.958824 0.509804
0.796078 0.960784 0.501961
0.833333 0.966666 0.490197
0.870588 0.968627 0.478431
0.905882 0.972549 0.460784
0.945098 0.976471 0.443137
0.984314 0.982353 0.419608
1.000000 0.988235 0.388235
0.001961 0.000000 0.015686
0.015686 0.000981 0.017647
0.037255 0.001961 0.017647
0.100981 0.001961 0.021569
0.166666 0.000000 0.021569
0.252941 0.000000 0.023529
0.327451 0.000000 0.027451
0.428432 0.000000 0.026471
0.509804 0.000000 0.025490
0.607843 0.000000 0.025490
0.694118 0.000000 0.025490
0.768627 0.000000 0.023529
0.829412 0.000000 0.019608
0.895098 0.000000 0.023529
0.949020 0.000000 0.031372
0.988236 0.006863 0.038235
1.000000 0.111765 0.060785
0.000981 0.016667 0.019608
0.020098 0.019608 0.022059
0.053922 0.023529 0.022549
0.116667 0.025980 0.024510
0.181372 0.021569 0.026470
0.261275 0.012745 0.029412
0.340196 0.001961 0.025490
0.432843 0.000000 0.028431
0.516666 0.000000 0.025490
0.621568 0.000000 0.026471
0.700980 0.000000 0.021569
0.771569 0.000000 0.022059
0.835294 0.000000 0.021569
0.896078 0.000000 0.024020
0.949020 0.000000 0.028431
0.990196 0.043627 0.042157
1.000000 0.139215 0.059804
0.000000 0.060785 0.029412
0.016667 0.062745 0.027451
0.068628 0.070588 0.027451
0.130392 0.066667 0.023529
0.198039 0.064706 0.027451
0.276470 0.061765 0.030392
0.354902 0.052941 0.029412
0.448039 0.024510 0.029412
0.541176 0.001961 0.027451
0.642157 0.000000 0.027451
0.713725 0.000000 0.023529
0.782353 0.000000 0.024510
0.847058 0.000000 0.023530
0.901961 0.000000 0.022549
0.950981 0.041177 0.033334
0.992157 0.121569 0.042157
1.000000 0.190196 0.070588
0.000000 0.124510 0.034313
0.003921 0.136274 0.033823
0.051961 0.134314 0.031372
0.131372 0.142647 0.022059
0.209804 0.143137 0.016667
0.296078 0.140686 0.024510
0.376470 0.137255 0.029412
0.478921 0.135294 0.027941
0.570588 0.115686 0.026470
0.659313 0.111765 0.025980
0.731372 0.091176 0.022549
0.796078 0.097059 0.022549
0.850980 0.100981 0.025490
0.908333 0.129412 0.026961
0.955882 0.157843 0.037255
0.992647 0.188235 0.046079
1.000000 0.251961 0.080393
0.000000 0.196078 0.037255
0.000000 0.203922 0.035294
0.019608 0.194117 0.039216
0.110784 0.209804 0.024510
0.194117 0.217647 0.005882
0.303922 0.219608 0.004902
0.396079 0.225490 0.013725
0.514706 0.231373 0.025490
0.603921 0.229412 0.027451
0.682353 0.214706 0.025490
0.743137 0.207843 0.023529
0.805882 0.212745 0.024510
0.858824 0.209804 0.025490
0.913726 0.223529 0.030392
0.958824 0.239216 0.037255
0.997059 0.272549 0.054902
1.000000 0.294118 0.076470
0.000000 0.283333 0.043138
0.000000 0.279902 0.040196
0.000000 0.277451 0.043137
0.080392 0.281372 0.038235
0.179412 0.295098 0.018627
0.293137 0.314216 0.001961
0.407844 0.316667 0.000000
0.516177 0.320588 0.001961
0.613725 0.316667 0.010784
0.700000 0.320098 0.020588
0.770588 0.318628 0.025490
0.823039 0.313235 0.028432
0.872549 0.314706 0.033333
0.920588 0.319608 0.039706
0.963725 0.328431 0.049020
0.997059 0.346078 0.067647
1.000000 0.381373 0.103921
0.000000 0.349020 0.049020
0.000000 0.362745 0.048039
0.000000 0.356862 0.049020
0.049020 0.357843 0.051961
0.160784 0.366667 0.027451
0.271568 0.384314 0.005882
0.380393 0.390196 0.000000
0.509804 0.398039 0.000000
0.603921 0.396079 0.000000
0.690196 0.399020 0.000000
0.770588 0.400000 0.005882
0.830392 0.401961 0.033334
0.880392 0.405883 0.041176
0.925490 0.401961 0.050980
0.968627 0.411764 0.068628
0.997059 0.418627 0.084314
1.000000 0.443137 0.119608
0.000000 0.420588 0.050000
0.000000 0.440196 0.055392
0.000000 0.434314 0.057843
0.036275 0.429412 0.063235
0.148039 0.430392 0.049020
0.256373 0.444118 0.015686
0.353921 0.453921 0.000000
0.472059 0.463235 0.000000
0.579412 0.470588 0.000000
0.671078 0.463726 0.000000
0.746078 0.462745 0.000000
0.821569 0.475000 0.004902
0.878432 0.485294 0.029412
0.928921 0.485294 0.070098
0.969607 0.490196 0.095098
0.997549 0.497059 0.114706
1.000000 0.515686 0.147059
0.000000 0.496079 0.054902
0.000000 0.500000 0.062745
0.000000 0.498039 0.066667
0.011765 0.493137 0.066667
0.149020 0.488236 0.068627
0.247059 0.500980 0.036275
0.345098 0.505882 0.000000
0.450000 0.516667 0.000000
0.545098 0.527451 0.000000
0.649019 0.528431 0.000000
0.725490 0.523529 0.000000
0.800981 0.526471 0.000000
0.858824 0.531373 0.000000
0.919608 0.549020 0.019608
0.964706 0.556863 0.105882
0.998039 0.564706 0.147059
1.000000 0.572549 0.166667
0.000000 0.558823 0.071569
0.000000 0.561275 0.074510
0.000000 0.556863 0.075490
0.006372 0.554902 0.076471
0.137255 0.547059 0.081372
0.246569 0.550490 0.065196
0.335294 0.559804 0.025490
0.427941 0.566176 0.002451
0.516667 0.574510 0.000000
0.617647 0.583824 0.000000
0.699020 0.585294 0.000000
0.779412 0.586765 0.000000
0.845098 0.589216 0.000000
0.902941 0.598529 0.000000
0.953922 0.611765 0.019608
0.992647 0.623530 0.119118
1.000000 0.643137 0.206863
0.000000 0.609804 0.078432
0.000000 0.615686 0.089216
0.000000 0.609804 0.086275
0.009804 0.606863 0.087255
0.143137 0.603922 0.090196
0.257843 0.599020 0.088235
0.339216 0.603922 0.052941
0.423530 0.612745 0.011765
0.503922 0.619608 0.000000
0.596078 0.627451 0.000000
0.678432 0.635294 0.000000
0.755882 0.640196 0.000000
0.827451 0.639216 0.000000
0.887255 0.648039 0.000000
0.941176 0.654902 0.000000
0.987255 0.666667 0.034314
1.000000 0.688236 0.168627
0.000000 0.666667 0.100981
0.000000 0.672549 0.106863
0.000000 0.670588 0.106863
0.045588 0.665196 0.103922
0.183333 0.661765 0.104902
0.278922 0.655392 0.107353
0.356863 0.658823 0.098040
0.434804 0.663235 0.055882
0.505882 0.669608 0.012745
0.583333 0.675490 0.000000
0.657843 0.682353 0.000000
0.738725 0.693627 0.000000
0.806863 0.694118 0.000000
0.872549 0.698039 0.000000
0.925490 0.702941 0.000000
0.976471 0.716667 0.000000
1.000000 0.733333 0.053922
0.000000 0.715686 0.123529
0.000000 0.721569 0.128431
0.000000 0.719608 0.129412
0.127451 0.717647 0.128431
0.233333 0.719608 0.135294
0.310784 0.710784 0.131373
0.378432 0.701961 0.131373
0.447059 0.708824 0.103921
0.513726 0.719607 0.074510
0.586275 0.725490 0.013725
0.652941 0.725490 0.000000
0.724510 0.734314 0.000000
0.788235 0.741176 0.000000
0.857843 0.752941 0.000000
0.909804 0.745098 0.000000
0.964706 0.757843 0.000000
1.000000 0.776471 0.000000
0.082353 0.782353 0.176470
0.127941 0.784314 0.184314
0.175490 0.781372 0.180392
0.238726 0.777451 0.179412
0.299019 0.778432 0.180392
0.363725 0.773529 0.181863
0.423530 0.765686 0.175490
0.489706 0.768627 0.171078
0.545098 0.770588 0.147059
0.603431 0.777451 0.109314
0.665687 0.785294 0.055882
0.729412 0.790687 0.016176
0.788235 0.798039 0.000000
0.850980 0.802941 0.000000
0.904902 0.810784 0.000000
0.958823 0.811274 0.000000
1.000000 0.823530 0.000000
0.254902 0.835294 0.237255
0.287255 0.841177 0.249020
0.303921 0.837255 0.245098
0.339216 0.836275 0.245098
0.382353 0.835294 0.247058
0.431373 0.832353 0.246078
0.484314 0.829412 0.247058
0.536275 0.827451 0.248039
0.588235 0.827451 0.229411
0.634313 0.835294 0.214706
0.690196 0.839216 0.186275
0.748039 0.845098 0.146078
0.796078 0.850980 0.094117
0.851961 0.854902 0.012745
0.905882 0.866667 0.000000
0.962745 0.872549 0.000000
1.000000 0.874510 0.000000
0.407844 0.898039 0.344117
0.430882 0.901961 0.354902
0.438236 0.900000 0.350000
0.466667 0.901471 0.355882
0.493137 0.900000 0.355882
0.536765 0.901961 0.366667
0.572549 0.899020 0.365686
0.609804 0.891176 0.357353
0.660784 0.900000 0.373530
0.695098 0.898039 0.347549
0.733333 0.900000 0.329412
0.782353 0.905392 0.307353
0.827451 0.915686 0.297059
0.876471 0.921569 0.265686
0.920588 0.925490 0.218628
0.967157 0.928431 0.128921
1.000000 0.934314 0.100000
0.572549 0.960784 0.492157
0.585294 0.963726 0.499020
0.590196 0.962745 0.498039
0.606863 0.960784 0.500000
0.625490 0.960784 0.503922
0.649020 0.959804 0.505882
0.674510 0.956863 0.509804
0.706863 0.957843 0.516667
0.741176 0.956863 0.523529
0.770588 0.959804 0.517647
0.800000 0.962745 0.509804
0.832353 0.965686 0.498039
0.866667 0.968627 0.486274
0.903922 0.974510 0.469608
0.941176 0.976471 0.449020
0.985294 0.982353 0.423530
1.000000 0.988235 0.396079
0.007843 0.000000 0.054902
0.041176 0.000000 0.066667
0.070588 0.000000 0.066667
0.094117 0.003921 0.062745
0.152941 0.000000 0.062745
0.247059 0.000000 0.064706
0.333333 0.000000 0.066667
0.429412 0.000000 0.078432
0.513725 0.000000 0.082353
0.613725 0.000000 0.080392
0.698039 0.000000 0.078431
0.766667 0.000000 0.082353
0.827451 0.000000 0.078431
0.890196 0.000000 0.084314
0.941176 0.000000 0.082353
0.988236 0.021569 0.094118
1.000000 0.121569 0.109804
0.000000 0.021568 0.062745
0.024510 0.021569 0.069608
0.074510 0.021568 0.074510
0.112745 0.030392 0.070588
0.182353 0.023529 0.072549
0.269608 0.016667 0.073529
0.352942 0.007843 0.076470
0.432353 0.000981 0.082353
0.523529 0.000000 0.082353
0.623529 0.000000 0.082353
0.705882 0.000000 0.086275
0.777451 0.000000 0.086275
0.831373 0.000000 0.082353
0.896078 0.000000 0.086275
0.947059 0.000000 0.086275
0.990196 0.051961 0.095098
1.000000 0.137255 0.103921
0.000000 0.054902 0.066667
0.019608 0.068628 0.078432
0.070588 0.074510 0.082353
0.131373 0.074510 0.086275
0.200000 0.074510 0.086275
0.280392 0.074510 0.082353
0.364706 0.062745 0.086275
0.450981 0.045098 0.082353
0.541176 0.007843 0.082353
0.639215 0.000000 0.088235
0.709804 0.000000 0.090196
0.778431 0.000000 0.090196
0.839216 0.000000 0.090196
0.900000 0.003921 0.082353
0.952941 0.062745 0.090196
0.990196 0.129412 0.100000
1.000000 0.192157 0.113725
0.000000 0.143137 0.101961
0.004902 0.144118 0.098039
0.050980 0.143137 0.094117
0.135294 0.146079 0.082353
0.215687 0.147059 0.084314
0.300980 0.150981 0.088235
0.384314 0.154902 0.092157
0.486274 0.146079 0.093137
0.578431 0.135294 0.092157
0.663726 0.124510 0.096078
0.729412 0.111765 0.088235
0.796078 0.114706 0.091177
0.847058 0.109804 0.088235
0.906863 0.141177 0.091176
0.952941 0.164706 0.090196
0.991177 0.200000 0.103921
1.000000 0.243137 0.115686
0.000000 0.211765 0.109804
0.000000 0.211765 0.092157
0.019608 0.211765 0.094118
0.125490 0.213726 0.086275
0.207843 0.227451 0.082353
0.307843 0.233333 0.068627
0.407843 0.231373 0.086275
0.521568 0.243137 0.103921
0.600000 0.231373 0.098039
0.682353 0.229412 0.100000
0.745098 0.227451 0.101961
0.801961 0.219608 0.098039
0.862745 0.231373 0.090196
0.909804 0.227451 0.100000
0.956863 0.243137 0.101961
0.992157 0.270589 0.107843
1.000000 0.321569 0.129412
0.000000 0.294118 0.100000
0.000000 0.295098 0.105882
0.000000 0.300000 0.107843
0.105883 0.296079 0.107843
0.194117 0.309804 0.096078
0.302941 0.318628 0.055882
0.415687 0.323530 0.033334
0.521569 0.323530 0.062745
0.623529 0.333334 0.086275
0.705882 0.331372 0.102941
0.764706 0.323530 0.103921
0.820589 0.318627 0.105882
0.872549 0.317647 0.103921
0.920588 0.322549 0.109803
0.968627 0.339216 0.109803
0.996078 0.348039 0.116667
1.000000 0.370588 0.135294
0.000000 0.360784 0.105882
0.000000 0.376471 0.115686
0.000000 0.372549 0.109804
0.072549 0.372549 0.121569
0.180392 0.372549 0.101961
0.290196 0.386274 0.066666
0.392157 0.400000 0.019608
0.513725 0.405883 0.000000
0.603922 0.407843 0.000000
0.701961 0.401961 0.066666
0.772549 0.407843 0.090196
0.833333 0.405883 0.113726
0.878431 0.403922 0.109804
0.923529 0.403922 0.113725
0.964706 0.415686 0.129412
0.996078 0.423530 0.131373
1.000000 0.450980 0.160784
0.000000 0.435294 0.107843
0.000000 0.451961 0.117647
0.000000 0.452941 0.117647
0.043137 0.441176 0.118627
0.166666 0.437255 0.115686
0.266666 0.448039 0.090196
0.372549 0.460784 0.047059
0.480392 0.473529 0.006863
0.588236 0.478432 0.000000
0.678431 0.468627 0.000000
0.750981 0.476471 0.007843
0.819608 0.475490 0.050980
0.882353 0.480393 0.113726
0.925490 0.483333 0.131373
0.964706 0.488235 0.147059
0.998039 0.500981 0.159804
1.000000 0.521568 0.184314
0.000000 0.498039 0.117647
0.000000 0.509804 0.115686
0.000000 0.509804 0.117647
0.031372 0.503922 0.121568
0.168627 0.494118 0.117647
0.260784 0.501961 0.107843
0.360784 0.513725 0.066667
0.460785 0.521568 0.019608
0.549020 0.533333 0.000000
0.656863 0.529411 0.000000
0.725490 0.525490 0.000000
0.803921 0.529412 0.000000
0.862745 0.537255 0.011765
0.919608 0.545098 0.100000
0.964706 0.556863 0.168627
0.994117 0.560785 0.180392
1.000000 0.572549 0.200000
0.000000 0.568628 0.123529
0.000000 0.569608 0.124510
0.000000 0.568628 0.127451
0.001961 0.559804 0.125490
0.156863 0.556863 0.125490
0.256863 0.553921 0.116667
0.350981 0.564706 0.094117
0.438235 0.566667 0.041177
0.523529 0.574510 0.000000
0.617647 0.586275 0.000000
0.711764 0.588235 0.000000
0.780392 0.590196 0.000000
0.845098 0.590196 0.000000
0.903921 0.601961 0.012745
0.954902 0.611765 0.084313
0.992157 0.627451 0.177451
1.000000 0.645098 0.239216
0.000000 0.615686 0.125490
0.000000 0.621568 0.133333
0.000000 0.619608 0.137255
0.031372 0.615686 0.133333
0.168627 0.607843 0.137255
0.270589 0.601961 0.133333
0.356863 0.607843 0.121569
0.431372 0.617647 0.084314
0.517647 0.619608 0.023529
0.598040 0.631373 0.000000
0.682353 0.639216 0.000000
0.762745 0.643137 0.000000
0.823529 0.643137 0.000000
0.890196 0.649020 0.000000
0.941176 0.654902 0.000000
0.986274 0.668628 0.103921
1.000000 0.690196 0.219608
0.000000 0.668628 0.137255
0.000000 0.674510 0.145098
0.000000 0.672549 0.143138
0.048039 0.667647 0.147059
0.186275 0.666667 0.147058
0.292157 0.660784 0.147059
0.362745 0.658824 0.143138
0.439216 0.664706 0.114706
0.513725 0.670588 0.074510
0.584314 0.679412 0.017647
0.660784 0.686275 0.000000
0.736274 0.692157 0.000000
0.807843 0.694118 0.000000
0.872549 0.699020 0.000000
0.929412 0.705882 0.000000
0.976471 0.718627 0.012745
1.000000 0.733333 0.119608
0.000000 0.717647 0.160784
0.000000 0.731372 0.168627
0.000000 0.721569 0.160784
0.129412 0.719608 0.164706
0.227451 0.717647 0.160784
0.315686 0.711765 0.160784
0.384314 0.709804 0.164706
0.458823 0.717647 0.150981
0.513725 0.713725 0.113725
0.586275 0.727451 0.084313
0.650980 0.725490 0.000000
0.719607 0.733333 0.000000
0.788235 0.741176 0.000000
0.860784 0.750981 0.000000
0.909804 0.745098 0.000000
0.968627 0.760784 0.000000
1.000000 0.776471 0.000000
0.098039 0.786274 0.209804
0.124510 0.782353 0.204902
0.172549 0.778431 0.201960
0.249020 0.784313 0.211765
0.296078 0.774510 0.200000
0.365686 0.772549 0.203922
0.433333 0.774510 0.209804
0.492157 0.771568 0.202941
0.550980 0.778431 0.188235
0.602941 0.777451 0.149019
0.660784 0.782353 0.109803
0.733333 0.794118 0.055882
0.790196 0.800000 0.017647
0.850981 0.803921 0.000000
0.903922 0.805882 0.000000
0.961765 0.817647 0.000000
1.000000 0.829411 0.000000
0.274510 0.843137 0.266667
0.292157 0.843137 0.268628
0.309804 0.843137 0.266667
0.341176 0.837255 0.264706
0.384314 0.839216 0.266667
0.431372 0.835294 0.266667
0.478431 0.827451 0.262745
0.537255 0.829412 0.268628
0.588235 0.827451 0.254902
0.637255 0.833333 0.235295
0.686275 0.839216 0.211765
0.745098 0.845098 0.178431
0.796078 0.850980 0.145098
0.852941 0.856863 0.062745
0.905882 0.866667 0.000000
0.958824 0.868627 0.000000
1.000000 0.874510 0.000000
0.405883 0.900000 0.356863
0.439216 0.907843 0.375490
0.456863 0.909804 0.378432
0.472549 0.904902 0.376471
0.488235 0.898039 0.364706
0.528431 0.898039 0.370588
0.578431 0.901961 0.382353
0.613725 0.894118 0.376471
0.652941 0.894118 0.372549
0.693137 0.896078 0.360784
0.731372 0.900000 0.345098
0.780392 0.908824 0.332353
0.825490 0.909804 0.298039
0.870588 0.914706 0.271569
0.917647 0.919608 0.229411
0.967647 0.931372 0.165686
1.000000 0.935294 0.119608
0.576471 0.964706 0.501961
0.582353 0.962745 0.505882
0.592157 0.960784 0.505882
0.605882 0.960784 0.509804
0.623529 0.960784 0.513725
0.647059 0.960784 0.513725
0.674510 0.960784 0.517647
0.707844 0.958824 0.525490
0.741176 0.956863 0.529412
0.770588 0.958824 0.525490
0.800000 0.960784 0.517647
0.833333 0.966666 0.505883
0.866667 0.968627 0.494118
0.903922 0.974510 0.480393
0.941176 0.976471 0.458824
0.984314 0.982353 0.435294
1.000000 0.988235 0.407843
0.013725 0.000000 0.123530
0.039216 0.000000 0.135294
0.088235 0.000000 0.149020
0.150000 0.000000 0.150000
0.178431 0.003921 0.135294
0.234313 0.007843 0.136275
0.323530 0.001961 0.143138
0.416666 0.000000 0.143137
0.511765 0.000000 0.141176
0.619608 0.000000 0.143137
0.694118 0.000000 0.145098
0.766667 0.000000 0.146079
0.827451 0.000000 0.141177
0.889216 0.000000 0.145098
0.941176 0.000000 0.147058
0.987255 0.027451 0.148039
1.000000 0.125490 0.166667
0.000981 0.023529 0.130392
0.021569 0.020588 0.137255
0.076470 0.015686 0.150981
