luts/Master_Negative.CUBE
# kravix mobile - LUTs Pack
LUT_3D_SIZE 5
0.000000 0.023300 0.046632
0.161120 0.043931 0.066590
0.497932 0.084093 0.089174
0.721874 0.126421 0.108690
1.000000 0.188861 0.130877
0.028916 0.192828 0.081117
0.176913 0.179370 0.086809
0.507576 0.265400 0.097780
0.724758 0.350683 0.113985
1.000000 0.440696 0.148623
0.050156 0.544030 0.112688
0.238941 0.532906 0.190387
0.521035 0.522042 0.125704
0.733410 0.586725 0.119387
1.000000 0.647410 0.170642
0.060487 0.799039 0.184909
0.256489 0.792081 0.282582
0.572992 0.793851 0.339376
0.746365 0.772091 0.226993
1.000000 0.828962 0.194217
0.036027 1.000000 0.288289
0.223819 1.000000 0.371954
0.586847 1.000000 0.481605
0.810132 1.000000 0.474922
1.000000 1.000000 0.358877
0.031251 0.054612 0.189364
0.188800 0.046494 0.209796
0.522606 0.078553 0.273472
0.735714 0.111192 0.307820
1.000000 0.155734 0.341909
0.034821 0.204028 0.207660
0.188739 0.195758 0.212116
0.515114 0.223743 0.217700
0.729320 0.313420 0.284276
0.991531 0.392767 0.337514
0.093522 0.546548 0.304173
0.218418 0.544472 0.278721
0.526253 0.528527 0.316594
0.738109 0.572900 0.311788
1.000000 0.624063 0.374334
0.130510 0.800336 0.394049
0.280629 0.799023 0.373816
0.570199 0.779431 0.496941
0.749050 0.775402 0.418341
1.000000 0.821134 0.390768
0.130129 1.000000 0.477958
0.272374 1.000000 0.462394
0.589471 1.000000 0.556603
0.805386 1.000000 0.602655
1.000000 1.000000 0.512535
0.067262 0.110506 0.490944
0.255467 0.094957 0.505196
0.536995 0.087144 0.520592
0.762737 0.122210 0.575814
1.000000 0.161395 0.603403
0.065827 0.281941 0.514992
0.209339 0.268757 0.491463
0.535912 0.245762 0.520760
0.754528 0.316121 0.550149
1.000000 0.378149 0.559594
0.075502 0.562158 0.516533
0.236484 0.559091 0.518563
0.537438 0.548653 0.524285
0.751553 0.543999 0.499931
1.000000 0.592752 0.531975
0.135637 0.804150 0.585443
0.342351 0.802777 0.569940
0.535973 0.800656 0.548012
0.753964 0.782055 0.589441
1.000000 0.811231 0.558251
0.189639 1.000000 0.646342
0.420111 1.000000 0.626245
0.569390 1.000000 0.612741
0.802045 1.000000 0.740200
1.000000 1.000000 0.662089
0.103761 0.181628 0.720928
0.308843 0.176837 0.726833
0.586191 0.117052 0.745235
0.765713 0.127779 0.756283
1.000000 0.176318 0.809171
0.102525 0.392599 0.735500
0.287160 0.388342 0.712810
0.559030 0.343450 0.738979
0.764843 0.337758 0.756252
1.000000 0.410697 0.797147
0.104707 0.604639 0.751537
0.297856 0.588052 0.750942
0.525795 0.575189 0.729030
0.764309 0.562707 0.757061
1.000000 0.605127 0.774090
0.113939 0.822950 0.751156
0.320851 0.820951 0.752544
0.547677 0.817166 0.755245
0.766506 0.805814 0.761273
1.000000 0.791440 0.722408
0.206424 1.000000 0.816648
0.435294 1.000000 0.807630
0.604593 1.000000 0.789731
0.750790 1.000000 0.769574
1.000000 1.000000 0.814389
0.120104 0.303944 1.000000
0.384100 0.351308 0.979324
0.618189 0.235111 1.000000
0.816770 0.131716 1.000000
1.000000 0.184054 1.000000
0.114031 0.495827 1.000000
0.345129 0.492348 1.000000
0.579568 0.479881 1.000000
0.800870 0.385779 1.000000
1.000000 0.418677 1.000000
0.117678 0.668101 1.000000
0.353414 0.658808 1.000000
0.560723 0.649317 1.000000
0.771664 0.619211 1.000000
1.000000 0.617380 1.000000
0.125811 0.861997 1.000000
0.377401 0.847288 1.000000
0.579019 0.826917 1.000000
0.739239 0.813275 1.000000
1.000000 0.803067 1.000000
0.206851 1.000000 1.000000
0.438056 1.000000 1.000000
0.609995 1.000000 1.000000
0.769635 1.000000 1.000000
1.000000 1.000000 1.000000
