luts/Master_Negative.CUBE
# kravix mobile - LUTs Pack
LUT_3D_SIZE 17
0.000000 0.023300 0.046632
0.034516 0.027787 0.050919
0.080491 0.031952 0.056001
0.120699 0.037537 0.061158
0.161120 0.043931 0.066590
0.249180 0.051072 0.071626
0.337118 0.060700 0.077134
0.423301 0.071244 0.083452
0.497932 0.084093 0.089174
0.560113 0.095552 0.095079
0.616236 0.105623 0.100465
0.669657 0.114763 0.104891
0.721874 0.126421 0.108690
0.774365 0.138979 0.111513
0.829587 0.153460 0.114961
0.891661 0.169512 0.121218
1.000000 0.188861 0.130877
0.000000 0.047044 0.053101
0.036591 0.045182 0.053986
0.083055 0.052552 0.057252
0.122591 0.061067 0.063355
0.165438 0.070024 0.068711
0.253437 0.081178 0.073808
0.340826 0.091783 0.079194
0.424918 0.101854 0.085313
0.498711 0.110811 0.090883
0.560494 0.121050 0.096544
0.616571 0.133120 0.101579
0.669856 0.146548 0.105943
0.721950 0.161334 0.109545
0.774365 0.178927 0.112322
0.829587 0.199100 0.116304
0.891691 0.222461 0.123873
1.000000 0.248844 0.133822
0.010727 0.088807 0.061158
0.048386 0.085756 0.070497
0.085283 0.084382 0.063233
0.123629 0.094652 0.064363
0.169085 0.104082 0.069810
0.259083 0.111528 0.076387
0.345953 0.120699 0.082918
0.429419 0.131411 0.088014
0.500755 0.143526 0.093462
0.561715 0.157519 0.098924
0.617655 0.173785 0.103441
0.671000 0.192981 0.107576
0.722850 0.214633 0.110750
0.775418 0.240116 0.113603
0.830594 0.265599 0.118868
0.892668 0.290700 0.127382
1.000000 0.315053 0.137438
0.020996 0.130007 0.070436
0.055222 0.126864 0.082505
0.100023 0.126802 0.085329
0.125322 0.123583 0.074052
0.172152 0.134218 0.072999
0.262623 0.148028 0.076936
0.349966 0.160739 0.083955
0.433646 0.175570 0.090333
0.504097 0.192767 0.096544
0.563806 0.211704 0.101732
0.618631 0.235065 0.105806
0.671962 0.260304 0.109316
0.723873 0.285023 0.112016
0.776455 0.309255 0.115602
0.831708 0.331975 0.122469
0.893446 0.354055 0.132143
1.000000 0.376822 0.142367
0.028916 0.192828 0.081117
0.062745 0.188968 0.091188
0.105943 0.184009 0.102571
0.136049 0.184405 0.098863
0.176913 0.179370 0.086809
0.266300 0.195819 0.084733
0.353765 0.218204 0.085527
0.436851 0.242344 0.091127
0.507576 0.265400 0.097780
0.566964 0.287297 0.103014
0.621225 0.308751 0.107576
0.672999 0.329656 0.110933
0.724758 0.350683 0.113985
0.777386 0.372778 0.119188
0.832731 0.395285 0.127550
0.894530 0.417899 0.137392
1.000000 0.440696 0.148623
0.035279 0.289677 0.091051
0.069978 0.286091 0.100053
0.110307 0.280064 0.108919
0.140322 0.282490 0.111772
0.203708 0.277043 0.108309
0.272541 0.269169 0.098528
0.357595 0.289464 0.095583
0.441138 0.314244 0.094087
0.509728 0.336583 0.098115
0.569116 0.356420 0.103731
0.623941 0.376944 0.108400
0.675624 0.396811 0.111543
0.726680 0.417441 0.115465
0.778683 0.438788 0.123369
0.833432 0.459754 0.134249
0.895582 0.479225 0.144320
1.000000 0.497902 0.156420
0.041092 0.380911 0.100404
0.077409 0.378424 0.106783
0.114366 0.373709 0.112947
0.146990 0.368856 0.126970
0.222400 0.373800 0.122774
0.304295 0.371176 0.115755
0.363546 0.358907 0.107027
0.443885 0.377310 0.104997
0.513649 0.400824 0.102434
0.571725 0.423560 0.105013
0.625483 0.445441 0.108659
0.677897 0.464240 0.112047
0.729305 0.481971 0.116686
0.780484 0.499306 0.125628
0.835386 0.516091 0.136599
0.897612 0.532601 0.149554
1.000000 0.548928 0.164508
0.046265 0.470588 0.107591
0.083772 0.468528 0.111711
0.118151 0.464866 0.121019
0.150027 0.460258 0.143175
0.233173 0.460151 0.163622
0.323827 0.461616 0.146654
0.398444 0.462562 0.135698
0.450050 0.447425 0.112963
0.515862 0.463737 0.111391
0.575219 0.483848 0.109880
0.628717 0.502556 0.110430
0.679866 0.520623 0.112276
0.730663 0.536980 0.117296
0.782544 0.552422 0.127108
0.837842 0.568139 0.138964
0.900465 0.583627 0.152270
1.000000 0.599039 0.167941
0.050156 0.544030 0.112688
0.088670 0.542504 0.118959
0.121172 0.539956 0.136110
0.155032 0.536446 0.161410
0.238941 0.532906 0.190387
0.319844 0.540551 0.189700
0.415091 0.533288 0.176410
0.481987 0.537850 0.163943
0.521035 0.522042 0.125704
0.577157 0.535760 0.120455
0.631601 0.553246 0.116518
0.683177 0.570428 0.115343
0.733410 0.586725 0.119387
0.784360 0.602731 0.127626
0.839490 0.617533 0.140108
0.902342 0.632242 0.154330
1.000000 0.647410 0.170642
0.053956 0.611109 0.122240
0.092805 0.610086 0.134157
0.123796 0.608026 0.154528
0.160540 0.604898 0.182040
0.241077 0.601068 0.210391
0.338704 0.600824 0.235294
0.423117 0.605814 0.217960
0.493217 0.598947 0.203815
0.546807 0.601678 0.191135
0.582147 0.588556 0.146380
0.633860 0.601282 0.139818
0.685832 0.617456 0.133837
0.737011 0.633799 0.127886
0.787686 0.649424 0.133837
0.841749 0.665339 0.141207
0.904356 0.679789 0.155474
1.000000 0.693660 0.171939
0.056809 0.675517 0.139452
0.096117 0.674479 0.152865
0.126009 0.672648 0.176867
0.165454 0.669947 0.201740
0.247929 0.666758 0.231342
0.340261 0.664027 0.267918
0.427146 0.667689 0.281178
0.505852 0.668162 0.257023
0.557336 0.661128 0.234134
0.603510 0.661479 0.215549
0.638437 0.651606 0.173419
0.688228 0.663813 0.165072
0.739010 0.678782 0.157122
0.791043 0.694621 0.148348
0.845777 0.710079 0.151202
0.908675 0.725368 0.160357
1.000000 0.740414 0.172915
0.059068 0.737911 0.160861
0.098176 0.737026 0.176059
0.127352 0.735149 0.198032
0.169619 0.733028 0.222293
0.252781 0.730190 0.257176
0.338186 0.726497 0.293980
0.436576 0.726207 0.318791
0.498817 0.734874 0.308339
0.571771 0.728557 0.295216
0.617182 0.724071 0.274571
0.657252 0.720104 0.246235
0.692760 0.712566 0.199893
0.741939 0.724376 0.191943
0.793408 0.738567 0.184680
0.849226 0.754147 0.175219
0.914672 0.769390 0.172549
1.000000 0.784298 0.181323
0.060487 0.799039 0.184909
0.099428 0.798291 0.197940
0.128298 0.797040 0.218647
0.172580 0.794827 0.248966
0.256489 0.792081 0.282582
0.341604 0.788983 0.315160
0.434836 0.786511 0.343069
0.513985 0.788357 0.361837
0.572992 0.793851 0.339376
0.630060 0.787289 0.327382
0.674067 0.786252 0.311025
0.709529 0.777523 0.279500
0.746365 0.772091 0.226993
0.796582 0.783658 0.217487
0.851759 0.797665 0.210025
0.919646 0.813443 0.201144
1.000000 0.828962 0.194217
0.060975 0.862394 0.207080
0.099702 0.861875 0.219181
0.128710 0.860243 0.245731
0.173877 0.858106 0.276493
0.258289 0.855619 0.306020
0.343282 0.852689 0.334997
0.429419 0.849027 0.366567
0.516442 0.848737 0.393866
0.578927 0.852491 0.398505
0.635981 0.854719 0.372824
0.685145 0.847410 0.356085
0.730068 0.849454 0.342473
0.762295 0.835615 0.305806
0.801358 0.832029 0.262089
0.855558 0.844175 0.250462
0.923552 0.858061 0.241382
1.000000 0.874617 0.228489
0.060502 0.940291 0.231617
0.099016 0.939330 0.247074
0.128420 0.936706 0.274342
0.173693 0.934279 0.301427
0.258412 0.930617 0.328023
0.343679 0.926055 0.355230
0.429603 0.921126 0.389593
0.512688 0.917586 0.419028
0.588434 0.917159 0.437186
0.647440 0.918547 0.430686
0.695766 0.923140 0.411200
0.738842 0.913802 0.389960
0.786526 0.920897 0.377203
0.817700 0.898054 0.327230
0.860883 0.895430 0.294545
0.930694 0.910033 0.284291
1.000000 0.929641 0.276295
0.059052 1.000000 0.262211
0.097444 1.000000 0.276097
0.127489 1.000000 0.300130
0.171786 1.000000 0.324468
0.256718 1.000000 0.348928
0.342367 1.000000 0.379019
0.428412 1.000000 0.410941
0.504875 1.000000 0.439231
0.595056 1.000000 0.460472
0.663157 1.000000 0.476509
0.708476 1.000000 0.461295
0.753216 1.000000 0.444389
0.793591 1.000000 0.419928
0.846571 1.000000 0.412421
0.880003 1.000000 0.348684
0.939941 0.999634 0.323964
1.000000 1.000000 0.319127
0.036027 1.000000 0.288289
0.070665 1.000000 0.300420
0.113298 1.000000 0.322881
0.147066 1.000000 0.344884
0.223819 1.000000 0.371954
0.318471 1.000000 0.402777
0.411383 1.000000 0.429328
0.495918 1.000000 0.456352
0.586847 1.000000 0.481605
0.666773 1.000000 0.501213
0.721782 1.000000 0.504906
0.765820 1.000000 0.490196
0.810132 1.000000 0.474922
0.852674 1.000000 0.450904
0.919188 1.000000 0.441215
0.974121 1.000000 0.383993
1.000000 1.000000 0.358877
0.000000 0.028855 0.070573
0.038743 0.028168 0.074479
0.088991 0.032334 0.082399
0.123278 0.036347 0.083421
0.171862 0.042069 0.086534
0.262852 0.048203 0.090257
0.349386 0.055863 0.095827
0.432944 0.065858 0.100984
0.503639 0.076753 0.105287
0.563943 0.088090 0.108904
0.619608 0.099168 0.111742
0.672587 0.108125 0.115297
0.723934 0.118730 0.123247
0.775616 0.132143 0.135119
0.829862 0.147494 0.148669
0.890806 0.164370 0.164874
0.997208 0.185183 0.181399
0.000000 0.048676 0.074052
0.038697 0.047547 0.074861
0.087724 0.050187 0.075364
0.123827 0.056962 0.080568
0.169100 0.066392 0.086564
0.258381 0.077089 0.092363
0.342885 0.087098 0.097490
0.425574 0.097459 0.102083
0.497917 0.106706 0.106523
0.558572 0.115663 0.110094
0.613519 0.126879 0.112856
0.666377 0.139254 0.117723
0.719005 0.153765 0.126726
0.771634 0.169757 0.136995
0.826215 0.189197 0.149157
0.887831 0.210407 0.162966
0.992767 0.236133 0.177478
0.015610 0.089433 0.083589
0.042542 0.089021 0.080720
0.086625 0.085756 0.085695
0.125887 0.094255 0.084154
0.172457 0.101320 0.090074
0.263157 0.108888 0.095872
0.348592 0.116701 0.100664
0.430243 0.126390 0.104463
0.500877 0.137163 0.108186
0.560739 0.150317 0.111070
0.615366 0.164370 0.114214
0.667323 0.181765 0.119951
0.719417 0.201511 0.129397
0.771832 0.224948 0.140246
0.826368 0.250828 0.152514
0.887861 0.276432 0.166964
0.992889 0.301717 0.180972
0.028107 0.130434 0.091905
0.050355 0.130114 0.090089
0.100679 0.122683 0.105943
0.126207 0.125078 0.096635
0.175250 0.133944 0.091691
0.265309 0.144579 0.097032
0.352773 0.156344 0.102632
0.435706 0.169451 0.107256
0.504784 0.184741 0.110338
0.564004 0.202396 0.112764
0.618296 0.223728 0.116899
0.670192 0.247471 0.124483
0.721111 0.271199 0.134112
0.772885 0.295537 0.144869
0.827787 0.319417 0.158389
0.889448 0.341848 0.172366
0.996429 0.364096 0.186236
0.037385 0.193057 0.100847
0.058732 0.192844 0.099397
0.104753 0.184924 0.109712
0.135561 0.183825 0.111940
0.178500 0.181140 0.104982
0.268956 0.195087 0.101183
0.355550 0.215595 0.102953
0.439078 0.236118 0.107836
0.508904 0.257298 0.111208
0.567559 0.278370 0.114855
0.621637 0.299489 0.121889
0.673167 0.320378 0.130800
0.723720 0.340856 0.140444
0.774746 0.361059 0.151629
0.829175 0.382742 0.165103
0.890974 0.405188 0.179034
0.999573 0.427939 0.192309
0.045060 0.290120 0.107942
0.067369 0.289647 0.106661
0.110033 0.282612 0.113329
0.142428 0.273884 0.131487
0.202396 0.275898 0.122148
0.274098 0.270939 0.111070
0.359045 0.288380 0.108934
0.441886 0.311376 0.108904
0.510765 0.332113 0.111528
0.570413 0.350683 0.115801
0.624613 0.369497 0.124269
0.676097 0.388937 0.135119
0.726909 0.408804 0.147250
0.778103 0.429023 0.160952
0.831739 0.449516 0.173831
0.892439 0.469017 0.186450
1.000000 0.487892 0.199313
0.051377 0.381308 0.112886
0.075425 0.380850 0.111864
0.114382 0.376394 0.121538
0.146609 0.368536 0.146502
0.212680 0.372869 0.156985
0.300237 0.367926 0.143114
0.365164 0.360632 0.119051
0.444755 0.376089 0.115007
0.514336 0.398215 0.113359
0.572381 0.420066 0.116503
0.626566 0.440085 0.125673
0.678889 0.459007 0.137240
0.729717 0.475990 0.150576
0.780591 0.492454 0.165393
0.834607 0.508843 0.180392
0.895521 0.524712 0.194842
1.000000 0.540536 0.207370
0.057633 0.470939 0.122820
0.083101 0.470527 0.119829
0.118318 0.467033 0.136385
0.152697 0.461616 0.164202
0.231983 0.456428 0.194217
0.318730 0.461051 0.186358
0.395697 0.461173 0.173281
0.451194 0.448814 0.136767
0.516045 0.462364 0.130404
0.575677 0.481880 0.124605
0.629099 0.500481 0.128969
0.680461 0.517510 0.138170
0.731579 0.532509 0.152300
0.783490 0.547967 0.168704
0.838026 0.562722 0.183917
0.899458 0.577157 0.198230
1.000000 0.591867 0.211841
0.063554 0.544335 0.140017
0.088960 0.543969 0.136156
0.121645 0.541436 0.154864
0.158831 0.537820 0.183810
0.239429 0.532326 0.214115
0.328038 0.532921 0.235248
0.413184 0.533440 0.215198
0.480186 0.537224 0.202808
0.521691 0.522881 0.160464
0.576974 0.534295 0.151873
0.632029 0.551614 0.144457
0.683558 0.568185 0.145159
0.733852 0.584298 0.154269
0.785290 0.599329 0.169863
0.840482 0.613367 0.185931
0.903243 0.627512 0.200977
1.000000 0.641657 0.215366
0.068788 0.611399 0.161440
0.094225 0.611048 0.156588
0.124559 0.609552 0.177142
0.164874 0.606180 0.202777
0.249790 0.601984 0.234546
0.337041 0.598627 0.272023
0.414511 0.605463 0.266697
0.492363 0.599039 0.249027
0.548501 0.605478 0.235111
0.582513 0.589090 0.187045
0.633692 0.600244 0.178622
0.686122 0.616068 0.170459
0.737270 0.631922 0.166018
0.788052 0.647257 0.175418
0.842313 0.662516 0.186938
0.905440 0.676219 0.202152
1.000000 0.689738 0.217548
0.073762 0.675792 0.185275
0.098360 0.675441 0.180224
0.126940 0.673777 0.198383
0.170886 0.671153 0.223392
0.257618 0.667689 0.259739
0.341909 0.663203 0.297566
0.430991 0.663111 0.321263
0.501183 0.667750 0.301732
0.556603 0.661295 0.284047
0.605280 0.665217 0.267659
0.638590 0.651820 0.211780
0.688029 0.662684 0.203876
0.739223 0.677455 0.196765
0.791455 0.693004 0.189273
0.846128 0.708064 0.195575
0.909255 0.722942 0.204547
1.000000 0.737179 0.218479
0.077668 0.738140 0.207431
0.101381 0.737850 0.202426
0.128756 0.736431 0.219150
0.175784 0.733898 0.249882
0.263203 0.730953 0.284276
0.349508 0.727169 0.317830
0.435523 0.724468 0.345388
0.502113 0.729595 0.350973
0.569268 0.728588 0.334157
0.614588 0.722133 0.315648
0.658427 0.722972 0.297261
0.692821 0.712749 0.242344
0.741787 0.723384 0.231479
0.793576 0.737499 0.222629
0.849592 0.752560 0.213764
0.915099 0.767330 0.215396
1.000000 0.782071 0.225162
0.080659 0.799313 0.231998
0.103365 0.798962 0.225818
0.130236 0.797940 0.246479
0.179355 0.795926 0.277363
0.266819 0.793042 0.307271
0.354330 0.789624 0.336797
0.437034 0.785626 0.370062
0.513710 0.785657 0.395880
0.566812 0.793652 0.379431
0.628717 0.787533 0.365484
0.672221 0.784802 0.347082
0.710964 0.780377 0.324590
0.746410 0.772213 0.276921
0.796429 0.782788 0.266209
0.851881 0.796567 0.256550
0.920012 0.811887 0.244770
1.000000 0.826963 0.240131
0.082505 0.862669 0.262531
0.104555 0.862333 0.255619
0.130938 0.861479 0.275151
0.181613 0.859220 0.302037
0.269413 0.856474 0.328939
0.356710 0.853391 0.356756
0.442298 0.849638 0.392248
0.516060 0.847105 0.420447
0.578256 0.849180 0.434150
0.633433 0.852964 0.414557
0.684123 0.847532 0.399710
0.728450 0.848310 0.382650
0.763180 0.838544 0.349554
0.801419 0.832212 0.307271
0.855421 0.843427 0.297505
0.923644 0.856855 0.289631
1.000000 0.873228 0.279103
0.083207 0.940749 0.290639
0.104967 0.940154 0.284566
0.131060 0.938598 0.300999
0.182269 0.935347 0.325154
0.270344 0.932158 0.349630
0.357580 0.927352 0.380240
0.444160 0.921843 0.412604
0.515023 0.916213 0.441321
0.582605 0.916182 0.460761
0.646830 0.914076 0.463813
0.694026 0.919722 0.445563
0.738170 0.914031 0.427146
0.784741 0.919738 0.416617
0.817533 0.899748 0.372137
0.860945 0.895613 0.334752
0.930449 0.909133 0.326192
1.000000 0.927794 0.319265
0.068528 1.000000 0.315068
0.098726 1.000000 0.310292
0.127047 1.000000 0.324346
0.172549 1.000000 0.346212
0.261295 1.000000 0.373129
0.350942 1.000000 0.403830
0.441733 1.000000 0.430762
0.517876 1.000000 0.458000
0.589532 1.000000 0.482582
0.660609 1.000000 0.502174
0.707912 1.000000 0.492912
0.752407 1.000000 0.477577
0.792782 1.000000 0.453193
0.844785 1.000000 0.444862
0.879393 1.000000 0.395819
0.940063 0.999893 0.362371
1.000000 1.000000 0.356664
0.054856 1.000000 0.337514
0.079942 1.000000 0.332921
0.115846 1.000000 0.345251
0.151705 1.000000 0.369375
0.235798 1.000000 0.397772
0.331090 1.000000 0.423575
0.425498 1.000000 0.448722
0.508812 1.000000 0.474952
0.577722 1.000000 0.502373
0.660151 1.000000 0.521996
0.720668 1.000000 0.534051
0.764492 1.000000 0.520088
0.809384 1.000000 0.505882
0.851286 1.000000 0.482551
0.916976 1.000000 0.472557
0.973022 1.000000 0.424460
1.000000 1.000000 0.401968
0.011002 0.035126 0.100404
0.047257 0.032654 0.103746
0.089555 0.032761 0.105241
0.128099 0.038575 0.109758
0.180880 0.044038 0.111925
0.265171 0.048814 0.112703
0.354391 0.055406 0.114931
0.440909 0.063859 0.118364
0.510811 0.072541 0.122148
0.570092 0.084993 0.129824
0.624567 0.096056 0.140017
0.677134 0.105791 0.152163
0.729000 0.114626 0.166186
0.780865 0.125795 0.179980
0.836225 0.137743 0.193088
0.898985 0.151736 0.205737
1.000000 0.166613 0.218341
0.012009 0.054414 0.104707
0.040940 0.052567 0.102510
0.089189 0.051179 0.105287
0.127596 0.058579 0.108278
0.175250 0.063539 0.108080
0.270420 0.072190 0.109590
0.358221 0.082185 0.110933
0.439979 0.092409 0.113634
0.508415 0.101991 0.118746
0.567620 0.110643 0.127291
0.621790 0.120043 0.137346
0.673579 0.131304 0.148821
0.724620 0.143816 0.161730
0.775631 0.158541 0.176867
0.829053 0.177279 0.192538
0.889601 0.199557 0.207919
0.994034 0.225834 0.224491
0.013458 0.092531 0.104723
0.044038 0.091646 0.105074
0.089448 0.089952 0.105669
0.128603 0.091020 0.103426
0.176577 0.096391 0.105943
0.265110 0.104616 0.109407
0.352102 0.112520 0.112245
0.435584 0.122515 0.116304
0.503792 0.132799 0.122866
0.562051 0.144213 0.131792
0.615961 0.157473 0.141863
0.667979 0.173404 0.154665
0.719142 0.192279 0.169238
0.770428 0.212894 0.183154
0.823835 0.237690 0.196551
0.883650 0.263432 0.209552
0.981872 0.288853 0.224552
0.028565 0.131304 0.110399
0.055833 0.130953 0.109255
0.089052 0.130495 0.107454
0.127077 0.126879 0.110582
0.182452 0.133776 0.108858
0.271214 0.140490 0.111528
0.356527 0.150637 0.114702
0.439567 0.163348 0.120272
0.508278 0.177996 0.128649
0.565896 0.193835 0.137560
0.618677 0.211887 0.147677
0.670314 0.234668 0.160555
0.721141 0.258701 0.174578
0.772076 0.282429 0.188128
0.825284 0.306172 0.200931
0.884718 0.328267 0.213703
0.982513 0.350164 0.229068
0.039658 0.194110 0.114900
0.068498 0.193408 0.113069
0.097688 0.193057 0.111864
0.136477 0.176577 0.140551
0.180377 0.183047 0.118746
0.273991 0.195148 0.112581
0.359625 0.210330 0.115755
0.441596 0.228031 0.123873
0.511177 0.249058 0.135271
0.569772 0.269551 0.145937
0.622721 0.289631 0.157092
0.673320 0.309819 0.169329
0.723888 0.330587 0.182208
0.774884 0.350637 0.194873
0.828336 0.371557 0.207416
0.888212 0.392767 0.220249
0.988693 0.414542 0.236271
0.050996 0.291310 0.125841
0.081697 0.290318 0.122042
0.105592 0.289921 0.119188
0.139666 0.276539 0.150332
0.201984 0.274662 0.162661
0.276158 0.273610 0.134493
0.362524 0.288350 0.122789
0.444633 0.308995 0.125246
0.512993 0.326543 0.136278
0.572000 0.343709 0.149477
0.625910 0.361944 0.164462
0.677241 0.380102 0.179416
0.727367 0.399054 0.191608
0.778302 0.419074 0.203128
0.831922 0.439704 0.215305
0.892180 0.459815 0.229511
0.997971 0.478111 0.245899
0.063325 0.381979 0.141222
0.090868 0.381384 0.138460
0.111940 0.380972 0.134676
0.144930 0.372763 0.165728
0.220386 0.362280 0.202457
0.298436 0.365759 0.188418
0.366888 0.362768 0.154986
0.447440 0.376043 0.142565
0.515892 0.395941 0.140597
0.573800 0.415732 0.150820
0.628107 0.433936 0.166781
0.680064 0.452277 0.182437
0.730388 0.469139 0.196857
0.781125 0.485023 0.210193
0.835187 0.501503 0.225757
0.895933 0.517311 0.241443
1.000000 0.533028 0.257420
0.073076 0.471290 0.162432
0.099580 0.470924 0.159472
0.117342 0.470558 0.154025
0.151476 0.464714 0.184329
0.228199 0.456260 0.218860
0.311330 0.459754 0.230503
0.389853 0.456397 0.213672
0.452705 0.450187 0.180148
0.517754 0.462425 0.168383
0.576577 0.480186 0.160082
0.629938 0.497688 0.169345
0.681575 0.513039 0.184192
0.732906 0.527886 0.199420
0.784482 0.542290 0.213779
0.838605 0.556451 0.229999
0.900130 0.570962 0.249073
1.000000 0.585260 0.268116
0.082979 0.544610 0.186603
0.105760 0.544320 0.182483
0.121462 0.543984 0.177447
0.159197 0.540154 0.202930
0.240681 0.534218 0.238758
0.328328 0.528878 0.280110
0.409277 0.532937 0.267460
0.477211 0.535210 0.250721
0.522972 0.524407 0.204166
0.578195 0.534051 0.194202
0.632746 0.549889 0.185153
0.684215 0.565850 0.189975
0.734691 0.581704 0.200336
0.786526 0.594965 0.215732
0.841505 0.609094 0.233524
0.904173 0.622553 0.253819
1.000000 0.635843 0.272648
0.089586 0.611658 0.208469
0.110460 0.611368 0.204303
0.125277 0.611048 0.199664
0.167315 0.608423 0.223362
0.252918 0.603555 0.262684
0.334920 0.597726 0.302846
0.417716 0.599390 0.319966
0.491478 0.599008 0.301915
0.546792 0.604654 0.288197
0.583429 0.590417 0.230457
0.634089 0.599496 0.218524
0.686610 0.614542 0.209812
0.737758 0.629801 0.209277
0.788571 0.644785 0.218341
0.843412 0.658946 0.235080
0.907027 0.672175 0.256168
1.000000 0.685389 0.276249
0.095247 0.676051 0.233310
0.113848 0.675761 0.227878
0.128313 0.675425 0.221851
0.174395 0.673075 0.249790
0.263447 0.669108 0.286122
0.345800 0.664469 0.321401
0.429038 0.660487 0.350500
0.494957 0.667170 0.343587
0.555932 0.661341 0.330251
0.607217 0.669276 0.320180
0.639567 0.652873 0.264088
0.688243 0.661799 0.250858
0.739620 0.676295 0.239826
0.792004 0.691264 0.231907
0.846738 0.705806 0.243214
0.910231 0.720562 0.256977
1.000000 0.733425 0.278065
0.099764 0.738323 0.263706
0.116884 0.738094 0.257374
0.131228 0.737819 0.250797
0.180453 0.735698 0.277317
0.271641 0.732509 0.308568
0.355673 0.728420 0.339437
0.433463 0.723278 0.375067
0.507530 0.723522 0.399451
0.565301 0.727855 0.375906
0.613825 0.722026 0.357412
0.660410 0.726864 0.343771
0.693568 0.713588 0.294728
0.741726 0.722377 0.283497
0.793896 0.736187 0.273793
0.850202 0.750912 0.263767
0.915877 0.765347 0.270375
1.000000 0.779950 0.281712
0.102968 0.799573 0.291325
0.119005 0.799268 0.286122
0.133837 0.798932 0.280156
0.185107 0.797574 0.302052
0.276295 0.794537 0.329839
0.363607 0.790707 0.358770
0.442618 0.786542 0.396216
0.512093 0.783459 0.424262
0.565499 0.789731 0.425254
0.626780 0.787900 0.410880
0.669673 0.782666 0.391058
0.712505 0.783475 0.370382
0.746899 0.772976 0.323095
0.796262 0.781933 0.312749
0.852125 0.795300 0.304219
0.920836 0.810285 0.294865
1.000000 0.824857 0.294987
0.105257 0.862943 0.316991
0.120577 0.862608 0.311925
0.135851 0.862303 0.306111
0.188205 0.860899 0.325292
0.279713 0.857969 0.350271
0.369406 0.854673 0.382101
0.450172 0.850645 0.415244
0.514626 0.845685 0.444953
0.577874 0.845945 0.463737
0.632456 0.849470 0.452873
0.683009 0.847623 0.438178
0.726116 0.846891 0.422965
0.764508 0.841810 0.399619
0.801831 0.832776 0.348714
0.855238 0.842680 0.339452
0.923949 0.855695 0.332296
1.000000 0.871962 0.323491
0.106828 0.941176 0.340154
0.121660 0.940642 0.335195
0.136706 0.940078 0.330343
0.190051 0.937758 0.346792
0.281376 0.934249 0.374182
0.371344 0.929320 0.405356
0.455756 0.923323 0.432792
0.520851 0.917342 0.461021
0.580850 0.913481 0.485176
0.646906 0.909453 0.498390
0.692775 0.915694 0.481071
0.737362 0.914214 0.463203
0.782696 0.918273 0.451057
0.818677 0.903853 0.422782
0.861173 0.895994 0.378210
0.930205 0.908019 0.366995
1.000000 0.925872 0.359091
0.084917 1.000000 0.361837
0.107469 1.000000 0.356756
0.124498 1.000000 0.351629
0.163073 1.000000 0.369787
0.253895 1.000000 0.398413
0.349676 1.000000 0.424567
0.444846 1.000000 0.450080
0.521599 1.000000 0.477348
0.580880 1.000000 0.505287
0.655940 1.000000 0.524910
0.707652 1.000000 0.525628
0.751003 1.000000 0.510857
0.792035 1.000000 0.488716
0.843015 1.000000 0.478798
0.879484 1.000000 0.439704
0.940215 1.000000 0.408484
1.000000 1.000000 0.402197
0.081468 1.000000 0.389075
0.104677 1.000000 0.383841
0.121111 1.000000 0.377752
0.156405 1.000000 0.396109
0.247272 1.000000 0.419852
0.343694 1.000000 0.443381
0.439704 1.000000 0.468055
0.521462 1.000000 0.494011
0.583795 1.000000 0.520851
0.652216 1.000000 0.543786
0.718013 1.000000 0.561883
0.763378 1.000000 0.551080
0.808438 1.000000 0.537850
0.850629 1.000000 0.516472
0.914260 1.000000 0.504448
0.972839 1.000000 0.462547
1.000000 1.000000 0.438682
0.022202 0.043824 0.123812
0.051118 0.041871 0.128740
0.100465 0.037903 0.134813
0.128756 0.039307 0.137438
0.186419 0.045396 0.152377
0.285939 0.052705 0.169360
0.366705 0.058808 0.175982
0.443046 0.065477 0.180438
0.511543 0.073976 0.187808
0.573205 0.084962 0.196521
0.629084 0.094362 0.203952
0.681559 0.102235 0.209674
0.733669 0.110933 0.218982
0.786145 0.121477 0.232868
0.841581 0.133639 0.250233
0.905104 0.147112 0.267765
1.000000 0.161791 0.284245
0.022431 0.065736 0.131868
0.049058 0.064881 0.125780
0.094469 0.060212 0.133730
