luts/Master_Negative.CUBE
# kravix mobile - LUTs Pack
LUT_3D_SIZE 9
0.000000 0.023300 0.046632
0.080491 0.031952 0.056001
0.161120 0.043931 0.066590
0.337118 0.060700 0.077134
0.497932 0.084093 0.089174
0.616236 0.105623 0.100465
0.721874 0.126421 0.108690
0.829587 0.153460 0.114961
1.000000 0.188861 0.130877
0.010727 0.088807 0.061158
0.085283 0.084382 0.063233
0.169085 0.104082 0.069810
0.345953 0.120699 0.082918
0.500755 0.143526 0.093462
0.617655 0.173785 0.103441
0.722850 0.214633 0.110750
0.830594 0.265599 0.118868
1.000000 0.315053 0.137438
0.028916 0.192828 0.081117
0.105943 0.184009 0.102571
0.176913 0.179370 0.086809
0.353765 0.218204 0.085527
0.507576 0.265400 0.097780
0.621225 0.308751 0.107576
0.724758 0.350683 0.113985
0.832731 0.395285 0.127550
1.000000 0.440696 0.148623
0.041092 0.380911 0.100404
0.114366 0.373709 0.112947
0.222400 0.373800 0.122774
0.363546 0.358907 0.107027
0.513649 0.400824 0.102434
0.625483 0.445441 0.108659
0.729305 0.481971 0.116686
0.835386 0.516091 0.136599
1.000000 0.548928 0.164508
0.050156 0.544030 0.112688
0.121172 0.539956 0.136110
0.238941 0.532906 0.190387
0.415091 0.533288 0.176410
0.521035 0.522042 0.125704
0.631601 0.553246 0.116518
0.733410 0.586725 0.119387
0.839490 0.617533 0.140108
1.000000 0.647410 0.170642
0.056809 0.675517 0.139452
0.126009 0.672648 0.176867
0.247929 0.666758 0.231342
0.427146 0.667689 0.281178
0.557336 0.661128 0.234134
0.638437 0.651606 0.173419
0.739010 0.678782 0.157122
0.845777 0.710079 0.151202
1.000000 0.740414 0.172915
0.060487 0.799039 0.184909
0.128298 0.797040 0.218647
0.256489 0.792081 0.282582
0.434836 0.786511 0.343069
0.572992 0.793851 0.339376
0.674067 0.786252 0.311025
0.746365 0.772091 0.226993
0.851759 0.797665 0.210025
1.000000 0.828962 0.194217
0.060502 0.940291 0.231617
0.128420 0.936706 0.274342
0.258412 0.930617 0.328023
0.429603 0.921126 0.389593
0.588434 0.917159 0.437186
0.695766 0.923140 0.411200
0.786526 0.920897 0.377203
0.860883 0.895430 0.294545
1.000000 0.929641 0.276295
0.036027 1.000000 0.288289
0.113298 1.000000 0.322881
0.223819 1.000000 0.371954
0.411383 1.000000 0.429328
0.586847 1.000000 0.481605
0.721782 1.000000 0.504906
0.810132 1.000000 0.474922
0.919188 1.000000 0.441215
1.000000 1.000000 0.358877
0.011002 0.035126 0.100404
0.089555 0.032761 0.105241
0.180880 0.044038 0.111925
0.354391 0.055406 0.114931
0.510811 0.072541 0.122148
0.624567 0.096056 0.140017
0.729000 0.114626 0.166186
0.836225 0.137743 0.193088
1.000000 0.166613 0.218341
0.013458 0.092531 0.104723
0.089448 0.089952 0.105669
0.176577 0.096391 0.105943
0.352102 0.112520 0.112245
0.503792 0.132799 0.122866
0.615961 0.157473 0.141863
0.719142 0.192279 0.169238
0.823835 0.237690 0.196551
0.981872 0.288853 0.224552
0.039658 0.194110 0.114900
0.097688 0.193057 0.111864
0.180377 0.183047 0.118746
0.359625 0.210330 0.115755
0.511177 0.249058 0.135271
0.622721 0.289631 0.157092
0.723888 0.330587 0.182208
0.828336 0.371557 0.207416
0.988693 0.414542 0.236271
0.063325 0.381979 0.141222
0.111940 0.380972 0.134676
0.220386 0.362280 0.202457
0.366888 0.362768 0.154986
0.515892 0.395941 0.140597
0.628107 0.433936 0.166781
0.730388 0.469139 0.196857
0.835187 0.501503 0.225757
1.000000 0.533028 0.257420
0.082979 0.544610 0.186603
0.121462 0.543984 0.177447
0.240681 0.534218 0.238758
0.409277 0.532937 0.267460
0.522972 0.524407 0.204166
0.632746 0.549889 0.185153
0.734691 0.581704 0.200336
0.841505 0.609094 0.233524
1.000000 0.635843 0.272648
0.095247 0.676051 0.233310
0.128313 0.675425 0.221851
0.263447 0.669108 0.286122
0.429038 0.660487 0.350500
0.555932 0.661341 0.330251
0.639567 0.652873 0.264088
0.739620 0.676295 0.239826
0.846738 0.705806 0.243214
1.000000 0.733425 0.278065
0.102968 0.799573 0.291325
0.133837 0.798932 0.280156
0.276295 0.794537 0.329839
0.442618 0.786542 0.396216
0.565499 0.789731 0.425254
0.669673 0.782666 0.391058
0.746899 0.772976 0.323095
0.852125 0.795300 0.304219
1.000000 0.824857 0.294987
0.106828 0.941176 0.340154
0.136706 0.940078 0.330343
0.281376 0.934249 0.374182
0.455756 0.923323 0.432792
0.580850 0.913481 0.485176
0.692775 0.915694 0.481071
0.782696 0.918273 0.451057
0.861173 0.895994 0.378210
1.000000 0.925872 0.359091
0.081468 1.000000 0.389075
0.121111 1.000000 0.377752
0.247272 1.000000 0.419852
0.439704 1.000000 0.468055
0.583795 1.000000 0.520851
0.718013 1.000000 0.561883
0.808438 1.000000 0.537850
0.914260 1.000000 0.504448
1.000000 1.000000 0.438682
0.031251 0.054612 0.189364
0.105547 0.048280 0.200458
0.188800 0.046494 0.209796
0.378698 0.062104 0.249378
0.522606 0.078553 0.273472
0.629160 0.095216 0.287999
0.735714 0.111192 0.307820
0.846036 0.129290 0.323522
1.000000 0.155734 0.341909
0.031693 0.107042 0.207126
0.094591 0.104524 0.194018
0.187900 0.101076 0.209888
0.373617 0.113970 0.230915
0.514473 0.126238 0.232181
0.631510 0.147234 0.249714
0.734279 0.174731 0.272038
0.840085 0.214145 0.302846
1.000000 0.263005 0.331014
0.034821 0.204028 0.207660
0.101488 0.202152 0.208896
0.188739 0.195758 0.212116
0.373159 0.195056 0.199054
0.515114 0.223743 0.217700
0.627497 0.269368 0.250980
0.729320 0.313420 0.284276
0.831159 0.351690 0.311513
0.991531 0.392767 0.337514
0.065354 0.384939 0.256916
0.121553 0.383932 0.244175
0.187732 0.382300 0.226825
0.372000 0.368154 0.259831
0.523812 0.391241 0.239368
0.632349 0.417563 0.273747
0.735058 0.453986 0.304234
0.839094 0.486305 0.328969
1.000000 0.516564 0.351766
0.093522 0.546548 0.304173
0.139895 0.545388 0.290455
0.218418 0.544472 0.278721
0.410208 0.521401 0.374731
0.526253 0.528527 0.316594
0.636637 0.548226 0.284688
0.738109 0.572900 0.311788
0.845014 0.598245 0.342367
1.000000 0.624063 0.374334
0.115114 0.677104 0.345602
0.162371 0.676158 0.336431
0.252445 0.675639 0.326909
0.422263 0.662608 0.404791
0.553658 0.660594 0.427466
0.641749 0.655909 0.363943
0.742718 0.674754 0.335195
0.848966 0.701259 0.345068
1.000000 0.725109 0.380270
0.130510 0.800336 0.394049
0.189700 0.799573 0.386145
0.280629 0.799023 0.373816
0.442313 0.790265 0.435966
0.570199 0.779431 0.496941
0.667903 0.781659 0.474693
0.749050 0.775402 0.418341
0.854200 0.793698 0.393744
1.000000 0.821134 0.390768
0.128862 0.948348 0.435325
0.194858 0.944671 0.430549
0.301671 0.940154 0.422599
0.461509 0.929458 0.470390
0.579187 0.913161 0.528145
0.692363 0.905409 0.555261
0.777676 0.911727 0.522240
0.863264 0.898848 0.463615
1.000000 0.923140 0.443854
0.130129 1.000000 0.477958
0.183642 1.000000 0.470817
0.272374 1.000000 0.462394
0.461418 1.000000 0.504784
0.589471 1.000000 0.556603
0.704402 1.000000 0.607172
0.805386 1.000000 0.602655
0.907591 1.000000 0.572686
1.000000 1.000000 0.512535
0.049119 0.084306 0.348562
0.115145 0.080796 0.355398
0.228870 0.059510 0.372213
0.381476 0.064546 0.380453
0.534127 0.084184 0.417609
0.652110 0.103441 0.446464
0.746120 0.115221 0.456535
0.848722 0.132296 0.468071
1.000000 0.155169 0.482643
0.048676 0.132311 0.363043
0.110872 0.130816 0.344778
0.205570 0.119097 0.367224
0.380560 0.118715 0.380453
0.533669 0.137942 0.410101
0.642741 0.157671 0.425895
0.737453 0.177890 0.430457
0.846906 0.211063 0.443793
1.000000 0.254047 0.457130
0.049973 0.234607 0.375860
0.114000 0.221210 0.376059
0.180240 0.210895 0.359289
0.380194 0.203326 0.381109
0.531960 0.232990 0.395422
0.636194 0.255787 0.387854
0.743435 0.294728 0.399252
0.852064 0.331685 0.411994
1.000000 0.370657 0.432441
0.053742 0.399619 0.375860
0.118151 0.397696 0.377356
0.195895 0.394934 0.379873
0.381689 0.386267 0.384756
0.535943 0.380194 0.357031
0.637781 0.393912 0.368368
0.737591 0.430594 0.397070
0.843854 0.469444 0.423590
1.000000 0.499504 0.439353
0.092454 0.550286 0.421195
0.141787 0.547982 0.416678
0.246540 0.547295 0.405707
0.370336 0.546151 0.390677
0.530541 0.534188 0.419272
0.645975 0.547250 0.396231
0.744579 0.561379 0.419501
0.849897 0.583947 0.441321
1.000000 0.609735 0.455665
0.116442 0.679011 0.457969
0.172610 0.678233 0.449226
0.292317 0.677211 0.436393
0.393851 0.676448 0.426307
0.556802 0.648356 0.520531
0.644099 0.659358 0.465614
0.748409 0.674449 0.429175
0.854444 0.693767 0.447913
1.000000 0.715312 0.467781
0.133822 0.802228 0.493309
0.219821 0.801282 0.483177
0.334035 0.799985 0.473228
0.422217 0.799527 0.463890
0.562081 0.782483 0.536156
0.666926 0.780346 0.558114
0.751781 0.779156 0.504707
0.859342 0.793393 0.472633
1.000000 0.818082 0.471580
0.148211 0.949935 0.525689
0.256397 0.948821 0.514885
0.353521 0.946349 0.509896
0.441520 0.943648 0.501625
0.572335 0.922683 0.559960
0.690211 0.897688 0.622324
0.774884 0.907561 0.597894
0.865965 0.902251 0.544076
1.000000 0.922866 0.517525
0.180529 1.000000 0.558541
0.282811 1.000000 0.551644
0.376776 1.000000 0.546883
0.460258 1.000000 0.538842
0.585245 1.000000 0.588281
0.690455 1.000000 0.646784
0.803967 1.000000 0.671946
0.896544 1.000000 0.640177
1.000000 1.000000 0.586480
0.067262 0.110506 0.490944
0.130327 0.118593 0.483558
0.255467 0.094957 0.505196
0.420966 0.080415 0.514305
0.536995 0.087144 0.520592
0.651667 0.104189 0.548959
0.762737 0.122210 0.575814
0.877729 0.142061 0.597162
1.000000 0.161395 0.603403
0.066438 0.167529 0.500008
0.124743 0.167056 0.486442
0.221866 0.158068 0.497993
0.409506 0.134432 0.514244
0.536370 0.142397 0.520546
0.651240 0.165438 0.544213
0.762341 0.200534 0.568261
0.864240 0.228473 0.576440
1.000000 0.261479 0.582300
0.065827 0.281941 0.514992
0.125582 0.275944 0.505516
0.209339 0.268757 0.491463
0.386328 0.243763 0.510994
0.535912 0.245762 0.520760
0.651057 0.282536 0.537163
0.754528 0.316121 0.550149
0.850507 0.336522 0.547768
1.000000 0.378149 0.559594
0.073274 0.427085 0.515358
0.129244 0.416587 0.516854
0.222690 0.401602 0.517525
0.360678 0.391623 0.504784
0.535958 0.384787 0.521584
0.650187 0.404913 0.524880
0.746166 0.417807 0.512627
0.864240 0.458412 0.522728
1.000000 0.482658 0.526650
0.075502 0.562158 0.516533
0.133120 0.560906 0.517372
0.236484 0.559091 0.518563
0.378790 0.556634 0.520745
0.537438 0.548653 0.524285
0.658198 0.544274 0.499352
0.751553 0.543999 0.499931
0.855528 0.565286 0.514305
1.000000 0.592752 0.531975
0.112474 0.685130 0.550881
0.170062 0.683055 0.547814
0.296452 0.680186 0.543221
0.417426 0.679240 0.533211
0.524849 0.678386 0.523995
0.649363 0.667414 0.548333
0.761608 0.677348 0.524880
0.865034 0.683619 0.538537
1.000000 0.700740 0.551705
0.135637 0.804150 0.585443
0.223850 0.803555 0.578744
0.342351 0.802777 0.569940
0.452064 0.803098 0.556649
0.535973 0.800656 0.548012
0.669123 0.771191 0.636439
0.753964 0.782055 0.589441
0.868193 0.794507 0.548959
1.000000 0.811231 0.558251
0.153628 0.950851 0.615991
0.264485 0.950118 0.608011
0.379156 0.949187 0.597482
0.482643 0.947326 0.587015
0.551476 0.944442 0.579232
0.673747 0.908827 0.655024
0.776715 0.900786 0.680781
0.869749 0.907240 0.624933
1.000000 0.923873 0.587259
0.189639 1.000000 0.646342
0.308049 1.000000 0.637522
0.420111 1.000000 0.626245
0.504997 1.000000 0.620508
0.569390 1.000000 0.612741
0.682063 1.000000 0.673762
0.802045 1.000000 0.740200
0.894942 1.000000 0.715480
1.000000 1.000000 0.662089
0.086915 0.140169 0.609857
0.151843 0.159854 0.596918
0.277150 0.124849 0.621592
0.446510 0.107576 0.628611
0.567254 0.104265 0.636011
0.655253 0.107485 0.641459
0.760647 0.122957 0.667262
0.882963 0.146334 0.693034
1.000000 0.175647 0.717769
0.086320 0.217731 0.616770
0.139986 0.217533 0.605570
0.261952 0.230488 0.602228
0.425299 0.181811 0.624674
0.560510 0.163973 0.635493
0.654719 0.172259 0.641413
0.761257 0.201511 0.664271
0.882643 0.246586 0.687114
1.000000 0.288319 0.708125
0.085405 0.338109 0.627451
0.140230 0.332921 0.618463
0.247608 0.330846 0.603311
0.394965 0.311406 0.620920
0.551034 0.277836 0.635264
0.654246 0.293278 0.641489
0.760937 0.327245 0.659190
0.882322 0.367300 0.679408
1.000000 0.394781 0.686625
0.086335 0.462348 0.637140
0.141848 0.451423 0.636301
0.255192 0.444083 0.627863
0.381735 0.436561 0.614115
0.533654 0.414450 0.632715
0.653941 0.417975 0.641779
0.760861 0.447654 0.652186
0.874800 0.475242 0.663828
1.000000 0.494514 0.658412
0.103655 0.582071 0.635554
0.150790 0.575601 0.636103
0.269245 0.566552 0.637827
0.396048 0.554131 0.639063
0.517250 0.548241 0.627344
0.654414 0.543313 0.643015
0.760433 0.552239 0.641093
0.859754 0.558267 0.624643
1.000000 0.586954 0.632105
0.097719 0.695735 0.637003
0.153353 0.694682 0.637751
0.279591 0.693294 0.638819
0.409415 0.691585 0.640192
0.530999 0.688899 0.642237
0.655879 0.680873 0.645823
0.775372 0.677211 0.622492
0.879347 0.668818 0.612253
1.000000 0.682383 0.620645
0.126970 0.812741 0.668330
0.211719 0.810803 0.665934
0.339437 0.808225 0.662867
0.458503 0.805310 0.658244
0.552773 0.804089 0.649088
0.641215 0.804166 0.642344
0.759991 0.792325 0.665980
0.890990 0.802060 0.639460
1.000000 0.800534 0.645960
0.163973 0.950973 0.701854
0.274357 0.951064 0.696895
0.387060 0.950790 0.689769
0.490425 0.950118 0.680659
0.574502 0.949203 0.667704
0.645502 0.946319 0.659922
0.778393 0.896391 0.746319
0.873045 0.912596 0.701915
1.000000 0.927672 0.657313
0.199466 1.000000 0.731319
0.316426 1.000000 0.724636
0.427588 1.000000 0.716197
0.520943 1.000000 0.705684
0.599313 1.000000 0.694865
0.658930 1.000000 0.687358
0.782635 1.000000 0.770397
0.898817 1.000000 0.798688
1.000000 1.000000 0.739971
0.103761 0.181628 0.720928
0.182986 0.207874 0.709651
0.308843 0.176837 0.726833
0.467109 0.142870 0.737285
0.586191 0.117052 0.745235
0.682078 0.124331 0.751293
0.765713 0.127779 0.756283
0.881025 0.147875 0.782528
1.000000 0.176318 0.809171
0.103380 0.282277 0.726467
0.160311 0.282383 0.716548
0.310155 0.318822 0.699733
0.440848 0.245579 0.732937
0.574899 0.207370 0.742382
0.678630 0.204181 0.750790
0.765316 0.211398 0.756207
0.879820 0.248783 0.778912
1.000000 0.294469 0.803815
0.102525 0.392599 0.735500
0.160342 0.388128 0.727001
0.287160 0.388342 0.712810
0.422583 0.388800 0.717159
0.559030 0.343450 0.738979
0.672236 0.328023 0.750317
0.764843 0.337758 0.756252
0.881071 0.368750 0.775631
1.000000 0.410697 0.797147
0.101717 0.501732 0.748211
0.160555 0.496376 0.741512
0.289754 0.492042 0.730587
0.411856 0.486580 0.717723
0.535378 0.469383 0.736339
0.662821 0.444160 0.750011
0.764446 0.458305 0.756481
0.880827 0.484230 0.770428
1.000000 0.519203 0.788373
0.104707 0.604639 0.751537
0.165469 0.597284 0.751446
0.297856 0.588052 0.750942
0.421485 0.581216 0.743420
0.525795 0.575189 0.729030
0.647303 0.558877 0.747662
0.764309 0.562707 0.757061
0.880934 0.580911 0.763134
1.000000 0.605127 0.774090
0.128038 0.714412 0.750439
0.199207 0.709331 0.750408
0.315282 0.702037 0.750698
0.435325 0.692973 0.752453
0.537301 0.680720 0.754086
0.633875 0.676753 0.743786
0.765209 0.673228 0.758740
0.879927 0.676951 0.752331
1.000000 0.675532 0.730220
0.113939 0.822950 0.751156
0.187304 0.822171 0.751675
0.320851 0.820951 0.752544
0.445365 0.819303 0.753796
0.547677 0.817166 0.755245
0.647501 0.814527 0.758007
0.766506 0.805814 0.761273
0.905150 0.803616 0.739025
1.000000 0.791440 0.722408
0.144915 0.970733 0.781781
0.263493 0.966537 0.780118
0.388479 0.961547 0.777661
0.494957 0.957015 0.774304
0.579873 0.952590 0.769650
0.660761 0.951476 0.760540
0.749874 0.950698 0.755642
0.880720 0.931731 0.779660
1.000000 0.950408 0.753017
0.206424 1.000000 0.816648
0.324163 1.000000 0.812985
0.435294 1.000000 0.807630
0.526940 1.000000 0.799847
0.604593 1.000000 0.789731
0.679667 1.000000 0.776242
0.750790 1.000000 0.769574
0.900374 1.000000 0.863005
1.000000 1.000000 0.814389
0.115541 0.241138 0.833738
0.219928 0.272877 0.822477
0.349599 0.263569 0.829541
0.483726 0.191806 0.851896
0.602396 0.162142 0.857939
0.701350 0.130114 0.867247
0.793561 0.150774 0.874342
0.887953 0.154238 0.880461
1.000000 0.179049 0.916960
0.115267 0.342382 0.839246
0.191257 0.342626 0.829129
0.350317 0.375067 0.813077
0.463188 0.329015 0.841459
0.587625 0.283436 0.853803
0.693980 0.233219 0.866636
0.790005 0.254612 0.873716
0.887312 0.261173 0.880369
1.000000 0.297337 0.911498
0.114702 0.449195 0.848035
0.191302 0.444999 0.838727
0.325017 0.445533 0.824506
0.460517 0.471794 0.807263
0.568109 0.414618 0.846128
0.682643 0.373251 0.862852
0.786099 0.374350 0.873198
0.886702 0.381094 0.880385
1.000000 0.412955 0.905104
0.113787 0.544137 0.860807
0.191028 0.539406 0.852674
0.326253 0.535912 0.840299
0.442298 0.533608 0.823713
0.546731 0.524804 0.838544
0.667369 0.496880 0.859571
0.779660 0.486976 0.872786
0.886152 0.494896 0.880537
1.000000 0.518517 0.900877
0.114519 0.634852 0.872801
0.192721 0.626780 0.871275
0.329366 0.622248 0.861967
0.444694 0.616129 0.851041
0.540749 0.610025 0.835859
0.646342 0.599039 0.854963
0.769863 0.575128 0.874083
0.885771 0.590524 0.880903
1.000000 0.610224 0.893400
0.120287 0.734417 0.872114
0.205142 0.727199 0.873198
0.338613 0.718700 0.874052
0.457389 0.709453 0.873777
0.551049 0.701259 0.865644
0.634867 0.695216 0.848844
0.753918 0.681224 0.870695
0.886320 0.685054 0.882307
1.000000 0.700008 0.884031
0.160052 0.842573 0.872877
0.266392 0.837858 0.872862
0.373770 0.831632 0.872923
0.473213 0.823560 0.873091
0.561517 0.813931 0.876143
0.647974 0.801282 0.878294
0.742473 0.798840 0.865568
0.887999 0.795254 0.884550
1.000000 0.795529 0.872526
0.140414 0.992416 0.872587
0.254414 0.988891 0.873091
0.380652 0.984802 0.873899
0.492409 0.980316 0.875166
0.581033 0.976059 0.876890
0.664317 0.971801 0.879408
0.759304 0.967681 0.883040
0.889418 0.952285 0.887510
1.000000 0.953124 0.862486
0.207202 1.000000 0.912688
0.325154 1.000000 0.910307
0.437385 1.000000 0.907378
0.529763 1.000000 0.903929
0.608667 1.000000 0.899397
0.684779 1.000000 0.893111
0.765911 1.000000 0.882780
0.866285 1.000000 0.878492
1.000000 1.000000 0.908751
0.120104 0.303944 1.000000
0.218677 0.326955 1.000000
0.384100 0.351308 0.979324
0.504265 0.280598 1.000000
0.618189 0.235111 1.000000
0.717937 0.172778 1.000000
0.816770 0.131716 1.000000
0.934173 0.170993 1.000000
1.000000 0.184054 1.000000
0.115770 0.396323 1.000000
0.188937 0.395193 1.000000
0.372122 0.426368 0.980423
0.481956 0.399435 1.000000
0.601831 0.359884 1.000000
0.706447 0.313085 1.000000
0.809384 0.244450 1.000000
0.929671 0.282139 1.000000
1.000000 0.299504 1.000000
0.114031 0.495827 1.000000
0.192905 0.492256 1.000000
0.345129 0.492348 1.000000
0.487907 0.520623 0.955276
0.579568 0.479881 1.000000
0.691844 0.446204 1.000000
0.800870 0.385779 1.000000
0.922683 0.403571 1.000000
1.000000 0.418677 1.000000
0.115480 0.583734 1.000000
0.197910 0.578958 1.000000
0.348608 0.575647 1.000000
0.467765 0.575952 0.994873
0.572412 0.587106 0.969268
0.673777 0.549722 1.000000
0.787915 0.516106 1.000000
0.914519 0.513832 1.000000
1.000000 0.525338 1.000000
0.117678 0.668101 1.000000
0.205402 0.663310 1.000000
0.353414 0.658808 1.000000
0.471931 0.655177 1.000000
0.560723 0.649317 1.000000
0.652216 0.642206 1.000000
0.771664 0.619211 1.000000
0.903609 0.606012 1.000000
1.000000 0.617380 1.000000
0.123842 0.759335 1.000000
0.222934 0.752285 1.000000
0.362463 0.743450 1.000000
0.479561 0.737804 1.000000
0.568170 0.732143 1.000000
0.647578 0.725963 1.000000
0.749676 0.715663 1.000000
0.888548 0.694499 1.000000
1.000000 0.707088 1.000000
0.125811 0.861997 1.000000
0.239200 0.855406 1.000000
0.377401 0.847288 1.000000
0.492210 0.837232 1.000000
0.579019 0.826917 1.000000
0.657633 0.818143 1.000000
0.739239 0.813275 1.000000
0.869520 0.799115 1.000000
1.000000 0.803067 1.000000
0.191974 1.000000 1.000000
0.306203 1.000000 1.000000
0.415808 1.000000 1.000000
0.509682 1.000000 1.000000
0.587243 0.983978 1.000000
0.667460 0.961685 1.000000
0.752850 0.940520 1.000000
0.857435 0.938659 1.000000
1.000000 0.933089 1.000000
0.206851 1.000000 1.000000
0.325322 1.000000 1.000000
0.438056 1.000000 1.000000
0.530755 1.000000 1.000000
0.609995 1.000000 1.000000
0.686717 1.000000 1.000000
0.769635 1.000000 1.000000
0.878157 1.000000 1.000000
1.000000 1.000000 1.000000
