luts/Midnight_Cyan.CUBE
# kravix mobile - LUTs Pack
LUT_3D_SIZE 17
0.000000 0.000000 0.000000
0.033448 0.000000 0.000000
0.093492 0.000000 0.000000
0.164508 0.000000 0.000000
0.238788 0.000000 0.000000
0.316655 0.000000 0.000000
0.393851 0.000000 0.000000
0.467414 0.000000 0.000000
0.537377 0.000000 0.000000
0.603586 0.000000 0.000000
0.666285 0.000000 0.000000
0.726024 0.000000 0.000000
0.783612 0.000000 0.000000
0.839857 0.000000 0.000000
0.895155 0.000000 0.000000
0.950668 0.000000 0.001633
1.000000 0.000000 0.009262
0.000000 0.034043 0.000000
0.033951 0.036683 0.000000
0.097292 0.035447 0.000000
0.168566 0.032380 0.000000
0.244572 0.029801 0.000000
0.324758 0.029801 0.000000
0.404105 0.029801 0.000000
0.479835 0.029801 0.000000
0.551858 0.029801 0.000000
0.619440 0.029801 0.000000
0.682719 0.034180 0.000000
0.742733 0.039826 0.000000
0.800671 0.046357 0.000473
0.857206 0.053605 0.008225
0.913130 0.061250 0.016297
0.969482 0.069200 0.024781
1.000000 0.077287 0.033082
0.000000 0.091783 0.000000
0.036225 0.096620 0.000000
0.095186 0.100633 0.000000
0.174746 0.099824 0.000000
0.258228 0.097948 0.000000
0.340932 0.097002 0.000000
0.419501 0.097536 0.000000
0.494682 0.099123 0.000000
0.565850 0.101610 0.000000
0.632792 0.105837 0.000000
0.696284 0.111376 0.000183
0.756954 0.118029 0.007355
0.815229 0.125353 0.015122
0.872236 0.133349 0.023484
0.928588 0.141527 0.031968
0.970184 0.149676 0.040269
1.000000 0.157443 0.048188
0.000000 0.160952 0.000534
0.041169 0.168582 0.006287
0.098253 0.175540 0.004196
0.171298 0.179431 0.000000
0.255879 0.179446 0.000000
0.345769 0.177539 0.000000
0.429938 0.177035 0.000000
0.508125 0.178653 0.000000
0.580056 0.182193 0.000000
0.646723 0.187335 0.000000
0.709468 0.193545 0.000000
0.769253 0.200748 0.006943
0.826749 0.208408 0.015305
0.882475 0.216159 0.023407
0.937438 0.223941 0.031372
0.970184 0.231495 0.039017
1.000000 0.238468 0.046037
0.000000 0.237858 0.011002
0.047868 0.246265 0.016800
0.104768 0.253788 0.017670
0.173144 0.259632 0.004685
0.252201 0.262715 0.000000
0.340124 0.263233 0.000000
0.428000 0.263539 0.000000
0.509941 0.264729 0.000000
0.585824 0.267613 0.000000
0.655283 0.271916 0.000000
0.719387 0.277424 0.000000
0.779370 0.283452 0.000000
0.836286 0.290089 0.003662
0.891127 0.296849 0.011429
0.940368 0.303609 0.018875
0.970184 0.310079 0.026123
1.000000 0.316350 0.032944
0.003281 0.317693 0.020600
0.054597 0.326955 0.027329
0.112535 0.335134 0.030060
0.179522 0.341848 0.021881
0.254963 0.346853 0.005585
0.338155 0.348959 0.000000
0.422034 0.350423 0.000000
0.504601 0.351751 0.000000
0.581353 0.353552 0.000000
0.651667 0.356527 0.000000
0.716854 0.360510 0.000000
0.778073 0.365209 0.000000
0.836240 0.370459 0.000000
0.892180 0.375830 0.000000
0.940368 0.381323 0.002060
0.970184 0.386679 0.008698
1.000000 0.391638 0.015015
0.013199 0.399374 0.034287
0.065644 0.408774 0.042039
0.123934 0.416495 0.045716
0.190463 0.422538 0.040177
0.263005 0.427329 0.025605
0.342077 0.430152 0.007523
0.421714 0.431510 0.000000
0.499672 0.432898 0.000000
0.575280 0.434562 0.000000
0.645991 0.436866 0.000000
0.711589 0.439933 0.000000
0.772946 0.443610 0.000000
0.831525 0.447807 0.000000
0.888075 0.452140 0.000000
0.940368 0.456458 0.000000
0.970184 0.460609 0.000000
1.000000 0.464302 0.000000
0.026963 0.479026 0.051804
0.078981 0.487556 0.059205
0.136889 0.494285 0.062562
0.202808 0.498970 0.057664
0.272984 0.502739 0.044861
0.348363 0.505455 0.025940
0.424811 0.507332 0.008820
0.499916 0.508751 0.000000
0.571969 0.510338 0.000000
0.640864 0.512459 0.000000
0.705867 0.514900 0.000000
0.767330 0.517876 0.000000
0.825528 0.521080 0.000000
0.881941 0.524514 0.000000
0.936934 0.527779 0.000000
0.970184 0.530770 0.000000
1.000000 0.533333 0.000000
0.041306 0.554314 0.070115
0.092561 0.561700 0.076936
0.150164 0.567254 0.079728
0.216205 0.570871 0.074983
0.285191 0.573938 0.063844
0.357748 0.576288 0.045823
0.430777 0.578271 0.026398
0.503334 0.579599 0.011154
0.573159 0.580789 0.001175
0.639017 0.582467 0.000000
0.702007 0.584512 0.000000
0.762097 0.586831 0.000000
0.819730 0.589303 0.000000
0.875578 0.591714 0.000000
0.930297 0.594186 0.000000
0.970184 0.596292 0.000000
1.000000 0.598032 0.000000
0.056306 0.625101 0.089601
0.107485 0.631525 0.096086
0.165133 0.636164 0.098131
0.231098 0.638636 0.093126
0.299046 0.640772 0.082414
0.368795 0.642542 0.065354
0.438926 0.644144 0.045335
0.508751 0.645197 0.026947
0.576532 0.646006 0.013687
0.640543 0.647013 0.005173
0.701289 0.648539 0.000000
0.759426 0.650294 0.000000
0.815702 0.652201 0.000000
0.870604 0.654231 0.000000
0.924666 0.655985 0.000000
0.970184 0.657496 0.000000
1.000000 0.658732 0.000000
0.071931 0.691936 0.110353
0.123064 0.697276 0.115755
0.180468 0.700740 0.116960
0.246220 0.702052 0.111116
0.312917 0.703151 0.100313
0.380240 0.704433 0.083772
0.447883 0.705425 0.063340
0.515282 0.706142 0.043259
0.580896 0.706600 0.027237
0.643427 0.707286 0.016266
0.702770 0.708186 0.008911
0.759228 0.709392 0.003769
0.813931 0.710964 0.000000
0.867536 0.712413 0.000000
0.920653 0.713924 0.000000
0.970184 0.714992 0.000000
1.000000 0.715816 0.000000
0.087404 0.754650 0.130922
0.138231 0.758816 0.135134
0.195377 0.761135 0.135134
0.260487 0.761379 0.128283
0.325826 0.761685 0.116960
0.391119 0.762325 0.100618
0.456657 0.762875 0.080064
0.522103 0.763180 0.058930
0.585946 0.763546 0.041138
0.647013 0.763836 0.027817
0.705257 0.764431 0.018631
0.760632 0.765194 0.012406
0.814115 0.766278 0.007797
0.866361 0.767330 0.003021
0.918379 0.768414 0.000000
0.970184 0.769284 0.000000
1.000000 0.769711 0.000000
0.101701 0.813199 0.149630
0.152209 0.816464 0.152895
0.209140 0.817792 0.151690
0.273625 0.817227 0.144076
0.337667 0.817044 0.132616
0.401083 0.817136 0.116152
0.465064 0.817349 0.095613
0.528893 0.817319 0.073793
0.591180 0.817411 0.054551
0.650843 0.817456 0.039429
0.707973 0.817777 0.028443
0.762676 0.818280 0.020722
0.815198 0.818875 0.015015
0.866560 0.819684 0.010559
0.917540 0.820478 0.005844
0.968765 0.820966 0.000336
1.000000 0.821347 0.000000
0.114595 0.868757 0.166720
0.164858 0.871046 0.168688
0.221424 0.871763 0.166842
0.285115 0.870558 0.158526
0.347936 0.869886 0.146807
0.409934 0.869535 0.130358
0.472526 0.869352 0.109682
0.534951 0.869017 0.087205
0.595834 0.868894 0.066819
0.654429 0.868833 0.050507
0.710582 0.868833 0.037888
0.764462 0.869154 0.028840
0.816571 0.869612 0.022202
0.867353 0.870176 0.017060
0.917540 0.870756 0.012558
0.967956 0.871077 0.007279
1.000000 0.871336 0.001267
0.125902 0.921752 0.181353
0.175784 0.923430 0.182483
0.231861 0.923506 0.179751
0.294728 0.921813 0.170840
0.356329 0.920745 0.158938
0.417441 0.920058 0.142611
0.478752 0.919448 0.121828
0.539986 0.919051 0.099199
0.599832 0.918746 0.078172
0.657420 0.918578 0.060578
0.712795 0.918502 0.046921
0.766125 0.918669 0.036805
0.817670 0.919020 0.029038
0.868086 0.919463 0.023041
0.917800 0.919921 0.018143
0.967758 0.920226 0.013352
1.000000 0.920302 0.007614
0.135042 0.970184 0.193378
0.184558 0.970184 0.193729
0.240101 0.970184 0.190249
0.302205 0.970184 0.181109
0.362966 0.970184 0.169146
0.423285 0.969131 0.152911
0.483772 0.968399 0.132586
0.543999 0.967834 0.109957
0.602945 0.967453 0.088411
0.659739 0.967285 0.070008
0.714473 0.967132 0.055375
0.767269 0.967285 0.044205
0.818372 0.967620 0.035660
0.868360 0.968048 0.028840
0.917937 0.968460 0.023209
0.967575 0.968750 0.018326
1.000000 0.968917 0.013199
0.142229 1.000000 0.202869
0.191516 1.000000 0.202716
0.246525 1.000000 0.198856
0.308125 1.000000 0.189685
0.368170 1.000000 0.177752
0.427985 1.000000 0.161700
0.487724 1.000000 0.141863
0.547219 1.000000 0.119493
0.605402 1.000000 0.097719
0.661540 1.000000 0.078813
0.715694 1.000000 0.063539
0.768032 1.000000 0.051499
0.818753 1.000000 0.042069
0.868467 1.000000 0.034714
0.917815 1.000000 0.028443
0.967285 1.000000 0.022980
1.000000 1.000000 0.017838
0.000000 0.000000 0.044068
0.032120 0.000000 0.046143
0.093248 0.000000 0.042908
0.164263 0.000000 0.038331
0.238651 0.000000 0.033204
0.316854 0.000000 0.029801
0.394247 0.000000 0.029801
0.467994 0.000000 0.029801
0.538231 0.000000 0.029801
0.604608 0.000000 0.029801
0.667521 0.000000 0.029801
0.727474 0.000000 0.030716
0.785183 0.000000 0.037354
0.841306 0.000000 0.044480
0.896620 0.000000 0.051713
0.952285 0.000000 0.059449
1.000000 0.002136 0.067063
0.000000 0.038270 0.041855
0.029801 0.038270 0.044526
0.094698 0.036194 0.044404
0.167376 0.033326 0.041581
0.244129 0.030198 0.038483
0.325185 0.029801 0.035660
0.404959 0.029801 0.034058
0.480873 0.029801 0.034424
0.553155 0.029801 0.036606
0.620661 0.031388 0.040497
0.684184 0.036210 0.045579
0.744137 0.041764 0.051423
0.802106 0.048402 0.058305
0.858869 0.055772 0.065934
0.915053 0.063645 0.074083
0.970184 0.071550 0.082231
1.000000 0.079637 0.090623
0.000000 0.094728 0.042237
0.038422 0.097795 0.049043
0.096071 0.101915 0.047196
0.175357 0.101213 0.041962
0.254795 0.100740 0.043366
0.336812 0.100053 0.043534
0.416892 0.100359 0.044251
0.492973 0.101701 0.045762
0.564920 0.104356 0.048646
0.632334 0.108370 0.053071
0.696208 0.114000 0.058885
0.757046 0.120699 0.065751
0.815702 0.128222 0.073503
0.872679 0.136034 0.081529
0.929229 0.144167 0.089983
0.970184 0.152239 0.098070
1.000000 0.159930 0.105852
0.000000 0.163333 0.050416
0.044526 0.170352 0.058213
0.101930 0.176867 0.061051
0.172686 0.181338 0.048066
0.257786 0.181125 0.038132
0.346914 0.179385 0.035615
0.429389 0.179553 0.037491
0.505394 0.181643 0.041779
0.576623 0.185489 0.047303
0.643458 0.190753 0.053605
0.706538 0.196963 0.060502
0.766613 0.204028 0.067842
0.824353 0.211582 0.075578
0.880552 0.219364 0.083345
0.935409 0.226871 0.090715
0.970184 0.234226 0.097826
1.000000 0.241169 0.104372
0.000000 0.240269 0.061341
0.051408 0.248173 0.068833
0.108995 0.255344 0.072343
0.175830 0.261433 0.063508
0.253986 0.264897 0.048631
0.342229 0.265446 0.037736
0.429847 0.265644 0.033280
0.511406 0.267079 0.034394
0.586267 0.269886 0.038102
0.654551 0.274434 0.044114
0.717784 0.279988 0.051148
0.776913 0.286213 0.058457
0.833158 0.292775 0.065904
0.887648 0.299596 0.073335
0.940368 0.306355 0.080384
0.970184 0.312947 0.087327
1.000000 0.319005 0.093706
0.005997 0.320272 0.071702
0.058732 0.329274 0.079683
0.117037 0.337026 0.084047
0.183398 0.343557 0.079591
0.257404 0.348867 0.064363
0.340139 0.351247 0.050034
0.423957 0.352529 0.039963
0.506416 0.353628 0.032776
0.583001 0.355444 0.032120
0.652628 0.358236 0.034485
0.717433 0.362188 0.038743
0.778119 0.366918 0.044175
0.835752 0.372183 0.050370
0.891325 0.377707 0.056886
0.940368 0.383093 0.063401
0.970184 0.388434 0.070008
1.000000 0.393439 0.076371
0.016510 0.401862 0.085847
0.069673 0.410910 0.094545
0.128511 0.418418 0.099474
0.194965 0.423987 0.096498
0.266056 0.428809 0.084199
0.343938 0.431815 0.065812
0.423224 0.433417 0.052506
0.500908 0.434577 0.043030
0.576867 0.436057 0.034791
0.647349 0.438270 0.032059
0.712703 0.441306 0.033310
0.773999 0.444968 0.036622
0.832258 0.449134 0.040726
0.888487 0.453330 0.045441
0.940368 0.457618 0.050370
0.970184 0.461585 0.055207
1.000000 0.465385 0.059892
0.030350 0.481361 0.103655
0.082673 0.489433 0.111620
0.141085 0.495705 0.115892
0.207324 0.500038 0.113024
0.276738 0.503838 0.102602
0.350637 0.506630 0.084321
0.426154 0.508751 0.066545
0.500984 0.510140 0.054749
0.573053 0.511635 0.046784
0.641840 0.513695 0.039292
0.706966 0.516121 0.035111
0.768261 0.518914 0.034577
0.826398 0.522057 0.036103
0.882475 0.525246 0.038773
0.937316 0.528389 0.041688
0.970184 0.531289 0.044801
1.000000 0.533761 0.047562
0.044221 0.556130 0.121798
0.096071 0.563256 0.129244
0.154223 0.568566 0.132921
0.220508 0.571679 0.129671
0.288991 0.574548 0.120500
0.360082 0.577111 0.103807
0.432151 0.579248 0.084123
0.504234 0.580667 0.068284
0.573831 0.581811 0.058030
0.639628 0.583383 0.051194
0.702586 0.585290 0.044724
0.762753 0.587518 0.039918
0.820356 0.589837 0.037614
0.876127 0.592309 0.037156
0.930724 0.594507 0.037644
0.970184 0.596521 0.038697
1.000000 0.598306 0.039918
0.059174 0.626749 0.141634
0.110735 0.632792 0.148470
0.168765 0.637034 0.151278
0.235187 0.639124 0.147601
0.302647 0.641047 0.138735
0.371160 0.642939 0.122942
0.440375 0.644663 0.102907
0.509606 0.645838 0.083986
0.577127 0.646784 0.070314
0.640955 0.647745 0.061601
0.701488 0.649058 0.055741
0.759625 0.650706 0.050034
0.816007 0.652659 0.045350
0.870878 0.654475 0.041718
0.924926 0.656107 0.039292
0.970184 0.657664 0.037888
1.000000 0.658686 0.036683
0.074571 0.693202 0.162570
0.126131 0.698192 0.168612
0.183902 0.701381 0.170291
0.249958 0.702327 0.165652
0.316320 0.703258 0.156283
0.382437 0.704463 0.141009
0.449134 0.705592 0.120867
0.515969 0.706401 0.100145
0.581292 0.707042 0.083772
0.643565 0.707652 0.072282
0.702739 0.708461 0.064851
0.759243 0.709712 0.059739
0.813809 0.711101 0.054688
0.867582 0.712596 0.050019
0.920531 0.713909 0.045548
0.970184 0.714992 0.041611
1.000000 0.715633 0.038010
0.089632 0.755413 0.182910
0.140810 0.759304 0.187610
0.198444 0.761257 0.188174
0.263859 0.761212 0.182574
0.328969 0.761456 0.172808
0.393179 0.762020 0.157855
0.457832 0.762676 0.137713
0.522759 0.763272 0.116030
0.586175 0.763561 0.097475
0.647028 0.764019 0.083848
0.705043 0.764492 0.074266
0.760449 0.765332 0.067918
0.813764 0.766232 0.063127
0.866117 0.767346 0.058381
0.918135 0.768368 0.053483
0.970184 0.769039 0.048218
1.000000 0.769528 0.042985
0.103731 0.813748 0.201816
0.154681 0.816571 0.205203
0.211765 0.817716 0.204608
0.276570 0.816983 0.198276
0.340261 0.816510 0.188113
0.403113 0.816678 0.173312
0.466224 0.816831 0.153246
0.529534 0.817090 0.130999
0.591257 0.817197 0.110842
0.650767 0.817426 0.095232
0.707591 0.817639 0.083894
0.762219 0.818112 0.075959
0.814801 0.818784 0.070344
0.866011 0.819440 0.065736
0.917006 0.820172 0.060990
0.968353 0.820737 0.055528
1.000000 0.821088 0.049515
0.116335 0.868925 0.218265
0.167025 0.871122 0.220737
0.223865 0.871458 0.219226
0.287739 0.870161 0.212146
0.350225 0.869200 0.201892
0.411841 0.868864 0.187076
0.473610 0.868605 0.167300
0.535393 0.868559 0.144686
0.595956 0.868544 0.123445
0.654154 0.868498 0.106279
0.710231 0.868635 0.093416
0.764035 0.868955 0.084093
0.816098 0.869383 0.077180
0.866712 0.869856 0.071901
0.916869 0.870390 0.067384
0.967391 0.870802 0.062272
1.000000 0.871031 0.056321
0.127367 0.921813 0.232456
0.177783 0.923308 0.234012
0.234043 0.923064 0.231662
0.297078 0.921279 0.224063
0.358450 0.919966 0.213550
0.419165 0.919097 0.198917
0.479850 0.918639 0.179599
0.540475 0.918349 0.157061
0.599817 0.918090 0.134951
0.657145 0.918074 0.116716
0.712398 0.918151 0.102556
0.765637 0.918379 0.091936
0.817105 0.918730 0.084108
0.867384 0.919051 0.077852
0.917067 0.919493 0.072847
0.967010 0.919799 0.068071
1.000000 0.919966 0.062455
0.136507 0.970184 0.243915
0.186389 0.970184 0.244465
0.242145 0.970184 0.241764
0.304341 0.970184 0.233677
0.364965 0.969329 0.223285
0.424964 0.968215 0.208896
0.484794 0.967468 0.190036
0.544457 0.966964 0.167956
0.602914 0.966659 0.145525
0.659434 0.966613 0.126406
0.714092 0.966674 0.111116
0.766766 0.966888 0.099458
0.817792 0.967254 0.090654
0.867781 0.967681 0.083803
0.917266 0.968109 0.078096
0.966842 0.968307 0.072999
1.000000 0.968444 0.067872
0.143572 1.000000 0.252979
0.193179 1.000000 0.253132
0.248417 1.000000 0.249714
0.310018 1.000000 0.241642
0.370123 1.000000 0.231312
0.429633 1.000000 0.217273
0.488762 1.000000 0.199069
0.547631 1.000000 0.177462
0.605356 1.000000 0.155245
0.661250 1.000000 0.135485
0.715236 1.000000 0.119417
0.767422 1.000000 0.106981
0.818189 1.000000 0.097337
0.867872 1.000000 0.089692
0.917159 1.000000 0.083406
0.966628 1.000000 0.077790
1.000000 1.000000 0.072618
0.000000 0.000000 0.109285
0.029801 0.000000 0.113756
0.091478 0.000000 0.109346
0.163424 0.000000 0.103685
0.237873 0.000000 0.098817
0.316136 0.000000 0.093416
0.393866 0.000000 0.089052
0.467826 0.000000 0.086778
0.538506 0.000000 0.086671
0.605173 0.000000 0.088731
0.668132 0.000000 0.092561
0.728252 0.000000 0.098070
0.786038 0.000000 0.104616
0.842268 0.000000 0.111696
0.897826 0.000000 0.119066
0.953155 0.000000 0.126513
1.000000 0.003510 0.134234
0.000000 0.042756 0.104265
0.029801 0.041993 0.109895
0.092180 0.036332 0.111955
0.167163 0.033265 0.107378
0.244266 0.030472 0.104738
0.325551 0.029801 0.102113
0.405646 0.029801 0.100908
0.481849 0.029801 0.101610
0.553887 0.029801 0.103716
0.621530 0.032532 0.107591
0.684901 0.037308 0.112566
0.745190 0.043107 0.118563
0.803098 0.049683 0.125399
0.859922 0.057206 0.133196
0.916228 0.065110 0.141390
0.970184 0.073228 0.149874
1.000000 0.081147 0.158206
0.000000 0.101717 0.101335
0.029801 0.104356 0.106706
0.090578 0.104524 0.110735
0.172000 0.102861 0.112291
0.252216 0.102571 0.112169
0.335683 0.101778 0.111559
0.416388 0.101854 0.111818
0.492790 0.103090 0.113085
0.565164 0.105776 0.116106
0.632868 0.110048 0.120607
0.696803 0.115572 0.126360
0.757824 0.122301 0.133349
0.816526 0.129824 0.141115
0.873686 0.137774 0.149340
0.929992 0.145754 0.157641
0.970184 0.153750 0.165881
1.000000 0.161517 0.173831
0.000000 0.169879 0.101457
0.037766 0.175082 0.111086
0.104997 0.178286 0.120302
0.173388 0.182498 0.115526
0.258503 0.182040 0.108064
0.344076 0.181155 0.108827
0.423346 0.182345 0.111833
0.499275 0.184726 0.115053
0.571466 0.188449 0.119036
0.639292 0.193530 0.124407
0.703182 0.199710 0.130602
0.763607 0.206546 0.137438
0.821668 0.213947 0.144808
0.877928 0.221561 0.152285
0.933150 0.229038 0.159609
0.970184 0.236042 0.166369
1.000000 0.242847 0.173098
0.000000 0.244709 0.114626
0.050202 0.251301 0.123964
0.112596 0.256657 0.131609
0.179370 0.262119 0.130907
0.255070 0.266590 0.116167
0.343755 0.266804 0.105592
0.430579 0.266972 0.103960
0.510750 0.268635 0.106722
0.583581 0.272053 0.111879
0.650004 0.276799 0.118303
0.711986 0.282582 0.125078
0.770733 0.288945 0.132067
0.826764 0.295430 0.138872
0.881346 0.302098 0.145571
0.935164 0.308736 0.152377
0.970184 0.315175 0.158907
1.000000 0.321233 0.165103
0.004456 0.323720 0.126787
0.059480 0.331975 0.136568
0.121050 0.338689 0.144015
0.188296 0.344213 0.144579
0.259586 0.349905 0.133257
0.341024 0.352789 0.117433
0.425101 0.353979 0.107164
0.507454 0.354665 0.101884
0.583261 0.356359 0.102617
0.652476 0.359304 0.105730
0.716320 0.363195 0.110704
0.775982 0.368032 0.116609
0.832639 0.373434 0.123064
0.887282 0.379095 0.130007
0.940368 0.384695 0.136934
0.970184 0.390143 0.143694
1.000000 0.395193 0.149935
0.016693 0.404837 0.142489
0.071428 0.413153 0.152483
0.132387 0.419730 0.159640
0.200031 0.424582 0.160327
0.269520 0.429175 0.152270
0.345174 0.432609 0.133974
0.423774 0.434455 0.119493
0.501732 0.435630 0.109926
0.577737 0.436805 0.102327
0.647852 0.438804 0.100999
0.712810 0.441749 0.103075
0.773800 0.445380 0.106676
0.831678 0.449454 0.111208
0.887480 0.453742 0.116213
0.940368 0.457984 0.121416
0.970184 0.462043 0.126650
1.000000 0.465736 0.131640
0.031083 0.483680 0.161105
0.084779 0.491234 0.170489
0.144656 0.496574 0.176349
0.211994 0.500175 0.176242
0.280720 0.503716 0.169619
0.352682 0.506950 0.153292
0.426642 0.509392 0.134112
0.501167 0.510842 0.121447
0.573251 0.512245 0.113146
0.642222 0.514092 0.105714
0.707332 0.516320 0.102510
0.768368 0.518959 0.102770
0.826230 0.521996 0.104860
0.882048 0.525093 0.107713
0.936675 0.528145 0.111025
0.970184 0.531060 0.114168
1.000000 0.533547 0.117266
0.045228 0.557824 0.179934
0.098024 0.564462 0.188632
0.157595 0.569085 0.193851
0.224933 0.571725 0.193042
0.293172 0.574212 0.186862
0.362432 0.576867 0.172564
0.433005 0.579293 0.152514
0.504295 0.580941 0.135164
0.573648 0.582116 0.124239
0.639445 0.583566 0.117311
0.702480 0.585412 0.110552
0.762814 0.587503 0.106096
0.820340 0.589624 0.104433
0.875837 0.591852 0.104417
0.930205 0.593957 0.105394
0.970184 0.596033 0.106844
1.000000 0.597635 0.108186
0.060151 0.628000 0.200580
0.112596 0.633707 0.208362
0.171969 0.637354 0.212589
0.239246 0.638865 0.210910
0.306645 0.640391 0.204608
0.373754 0.642313 0.191546
0.441428 0.644282 0.171847
0.509789 0.645731 0.151629
0.576669 0.646677 0.136660
0.640360 0.647608 0.127474
0.700877 0.648890 0.121294
0.759213 0.650507 0.115480
0.815534 0.652216 0.110643
0.870436 0.653880 0.107286
0.924529 0.655528 0.105608
0.970184 0.656840 0.104463
1.000000 0.657908 0.103868
0.075334 0.694118 0.221820
0.127825 0.698604 0.228504
0.186862 0.701167 0.231434
0.253422 0.701640 0.228412
0.319753 0.702205 0.221576
0.384848 0.703273 0.209140
0.450141 0.704662 0.190188
0.516075 0.705821 0.168444
0.580743 0.706554 0.150469
0.642802 0.707271 0.138094
0.701946 0.708125 0.130358
0.758312 0.709209 0.124910
0.813016 0.710628 0.119738
0.866728 0.711925 0.114839
0.919890 0.713222 0.110582
0.970184 0.714076 0.106813
1.000000 0.714733 0.103883
0.090288 0.755886 0.242069
0.142428 0.759396 0.247425
0.200992 0.760906 0.248951
0.267048 0.760388 0.244846
0.331975 0.760159 0.237476
0.395453 0.760571 0.225360
0.458900 0.761456 0.207095
0.522744 0.762158 0.184909
0.585626 0.762844 0.164843
0.646113 0.763287 0.149905
0.704051 0.763928 0.139773
0.759365 0.764584 0.133059
0.812665 0.765576 0.128267
0.864912 0.766506 0.123186
0.916991 0.767452 0.118135
0.969299 0.768170 0.112902
1.000000 0.768490 0.107744
0.104173 0.813931 0.260227
0.155901 0.816495 0.264271
0.214191 0.817105 0.264652
0.279408 0.815824 0.259785
0.343114 0.815183 0.252171
0.405173 0.815030 0.240116
0.467170 0.815366 0.222416
0.529458 0.815656 0.200427
0.590677 0.816129 0.178988
0.649699 0.816403 0.161913
0.706554 0.816800 0.149599
0.760983 0.817319 0.141161
0.813413 0.817853 0.135149
0.864713 0.818601 0.130510
0.915694 0.819318 0.125490
0.967132 0.819821 0.119951
1.000000 0.819974 0.113939
0.116777 0.868986 0.276158
0.168124 0.870710 0.278904
0.225925 0.870726 0.278401
0.290181 0.868910 0.272831
0.352819 0.867750 0.264881
0.413901 0.867063 0.252872
0.474556 0.866926 0.235813
0.535348 0.866941 0.214313
0.595209 0.867048 0.192279
0.653162 0.867338 0.173587
0.709026 0.867613 0.159533
0.762676 0.867857 0.149355
0.814603 0.868330 0.142199
0.865293 0.868894 0.136797
0.915511 0.869383 0.132128
0.965988 0.869795 0.126802
1.000000 0.869871 0.120516
0.127626 0.921630 0.289479
0.178775 0.922728 0.291295
0.235889 0.922210 0.289982
0.299367 0.919890 0.283833
0.360830 0.918349 0.275624
0.421149 0.917327 0.263920
0.480827 0.916671 0.247333
0.540475 0.916442 0.226535
0.599222 0.916487 0.204318
0.656138 0.916701 0.184726
0.711177 0.916945 0.169238
0.764141 0.917144 0.157565
0.815579 0.917540 0.149187
0.865888 0.917998 0.142824
0.915602 0.918441 0.137621
0.965484 0.918746 0.132738
1.000000 0.918898 0.126955
0.136675 0.970184 0.300053
0.187259 0.970184 0.301122
0.243824 0.970184 0.299046
0.306462 0.969604 0.292744
0.367147 0.967742 0.284474
0.426871 0.966262 0.272801
0.485939 0.965377 0.256977
0.544594 0.964965 0.237003
0.602380 0.964874 0.215213
0.658473 0.965042 0.195087
0.712871 0.965301 0.178439
0.765347 0.965606 0.165835
0.816205 0.965972 0.156207
0.866194 0.966430 0.148775
0.915602 0.966903 0.142885
0.965194 0.967224 0.137636
1.000000 0.967391 0.132433
0.143771 1.000000 0.308492
0.193957 1.000000 0.308995
0.250126 1.000000 0.306584
0.312108 1.000000 0.299977
0.372183 1.000000 0.291768
0.431510 1.000000 0.280400
0.489967 1.000000 0.265232
0.547860 1.000000 0.246036
0.604852 1.000000 0.224933
0.660380 1.000000 0.204685
0.714137 1.000000 0.187427
0.766171 1.000000 0.173816
0.816724 1.000000 0.163333
0.866407 1.000000 0.155138
0.915602 1.000000 0.148409
0.964965 1.000000 0.142580
1.000000 1.000000 0.137240
0.000000 0.000000 0.187915
0.029801 0.000000 0.192844
0.071061 0.000000 0.195377
0.161059 0.000000 0.183078
0.236027 0.000000 0.176959
0.314473 0.000000 0.171756
0.392721 0.000000 0.167727
0.466926 0.000000 0.165637
0.537789 0.000000 0.165774
0.604761 0.000000 0.168078
0.668055 0.000000 0.172457
0.728145 0.000000 0.178088
0.785977 0.000000 0.184833
0.842130 0.000000 0.192065
0.897841 0.000000 0.199771
0.953185 0.000000 0.207553
1.000000 0.003784 0.215747
0.000000 0.047059 0.182345
0.029801 0.046296 0.188968
0.068025 0.041306 0.194598
