luts/Midnight_Cyan.CUBE
# kravix mobile - LUTs Pack
LUT_3D_SIZE 9
0.000000 0.000000 0.000000
0.093492 0.000000 0.000000
0.238788 0.000000 0.000000
0.393851 0.000000 0.000000
0.537377 0.000000 0.000000
0.666285 0.000000 0.000000
0.783612 0.000000 0.000000
0.895155 0.000000 0.000000
1.000000 0.000000 0.009262
0.000000 0.091783 0.000000
0.095186 0.100633 0.000000
0.258228 0.097948 0.000000
0.419501 0.097536 0.000000
0.565850 0.101610 0.000000
0.696284 0.111376 0.000183
0.815229 0.125353 0.015122
0.928588 0.141527 0.031968
1.000000 0.157443 0.048188
0.000000 0.237858 0.011002
0.104768 0.253788 0.017670
0.252201 0.262715 0.000000
0.428000 0.263539 0.000000
0.585824 0.267613 0.000000
0.719387 0.277424 0.000000
0.836286 0.290089 0.003662
0.940368 0.303609 0.018875
1.000000 0.316350 0.032944
0.013199 0.399374 0.034287
0.123934 0.416495 0.045716
0.263005 0.427329 0.025605
0.421714 0.431510 0.000000
0.575280 0.434562 0.000000
0.711589 0.439933 0.000000
0.831525 0.447807 0.000000
0.940368 0.456458 0.000000
1.000000 0.464302 0.000000
0.041306 0.554314 0.070115
0.150164 0.567254 0.079728
0.285191 0.573938 0.063844
0.430777 0.578271 0.026398
0.573159 0.580789 0.001175
0.702007 0.584512 0.000000
0.819730 0.589303 0.000000
0.930297 0.594186 0.000000
1.000000 0.598032 0.000000
0.071931 0.691936 0.110353
0.180468 0.700740 0.116960
0.312917 0.703151 0.100313
0.447883 0.705425 0.063340
0.580896 0.706600 0.027237
0.702770 0.708186 0.008911
0.813931 0.710964 0.000000
0.920653 0.713924 0.000000
1.000000 0.715816 0.000000
0.101701 0.813199 0.149630
0.209140 0.817792 0.151690
0.337667 0.817044 0.132616
0.465064 0.817349 0.095613
0.591180 0.817411 0.054551
0.707973 0.817777 0.028443
0.815198 0.818875 0.015015
0.917540 0.820478 0.005844
1.000000 0.821347 0.000000
0.125902 0.921752 0.181353
0.231861 0.923506 0.179751
0.356329 0.920745 0.158938
0.478752 0.919448 0.121828
0.599832 0.918746 0.078172
0.712795 0.918502 0.046921
0.817670 0.919020 0.029038
0.917800 0.919921 0.018143
1.000000 0.920302 0.007614
0.142229 1.000000 0.202869
0.246525 1.000000 0.198856
0.368170 1.000000 0.177752
0.487724 1.000000 0.141863
0.605402 1.000000 0.097719
0.715694 1.000000 0.063539
0.818753 1.000000 0.042069
0.917815 1.000000 0.028443
1.000000 1.000000 0.017838
0.000000 0.000000 0.109285
0.091478 0.000000 0.109346
0.237873 0.000000 0.098817
0.393866 0.000000 0.089052
0.538506 0.000000 0.086671
0.668132 0.000000 0.092561
0.786038 0.000000 0.104616
0.897826 0.000000 0.119066
1.000000 0.003510 0.134234
0.000000 0.101717 0.101335
0.090578 0.104524 0.110735
0.252216 0.102571 0.112169
0.416388 0.101854 0.111818
0.565164 0.105776 0.116106
0.696803 0.115572 0.126360
0.816526 0.129824 0.141115
0.929992 0.145754 0.157641
1.000000 0.161517 0.173831
0.000000 0.244709 0.114626
0.112596 0.256657 0.131609
0.255070 0.266590 0.116167
0.430579 0.266972 0.103960
0.583581 0.272053 0.111879
0.711986 0.282582 0.125078
0.826764 0.295430 0.138872
0.935164 0.308736 0.152377
1.000000 0.321233 0.165103
0.016693 0.404837 0.142489
0.132387 0.419730 0.159640
0.269520 0.429175 0.152270
0.423774 0.434455 0.119493
0.577737 0.436805 0.102327
0.712810 0.441749 0.103075
0.831678 0.449454 0.111208
0.940368 0.457984 0.121416
1.000000 0.465736 0.131640
0.045228 0.557824 0.179934
0.157595 0.569085 0.193851
0.293172 0.574212 0.186862
0.433005 0.579293 0.152514
0.573648 0.582116 0.124239
0.702480 0.585412 0.110552
0.820340 0.589624 0.104433
0.930205 0.593957 0.105394
1.000000 0.597635 0.108186
0.075334 0.694118 0.221820
0.186862 0.701167 0.231434
0.319753 0.702205 0.221576
0.450141 0.704662 0.190188
0.580743 0.706554 0.150469
0.701946 0.708125 0.130358
0.813016 0.710628 0.119738
0.919890 0.713222 0.110582
1.000000 0.714733 0.103883
0.104173 0.813931 0.260227
0.214191 0.817105 0.264652
0.343114 0.815183 0.252171
0.467170 0.815366 0.222416
0.590677 0.816129 0.178988
0.706554 0.816800 0.149599
0.813413 0.817853 0.135149
0.915694 0.819318 0.125490
1.000000 0.819974 0.113939
0.127626 0.921630 0.289479
0.235889 0.922210 0.289982
0.360830 0.918349 0.275624
0.480827 0.916671 0.247333
0.599222 0.916487 0.204318
0.711177 0.916945 0.169238
0.815579 0.917540 0.149187
0.915602 0.918441 0.137621
1.000000 0.918898 0.126955
0.143771 1.000000 0.308492
0.250126 1.000000 0.306584
0.372183 1.000000 0.291768
0.489967 1.000000 0.265232
0.604852 1.000000 0.224933
0.714137 1.000000 0.187427
0.816724 1.000000 0.163333
0.915602 1.000000 0.148409
1.000000 1.000000 0.137240
0.000000 0.000000 0.270527
0.059617 0.000000 0.279667
0.233433 0.000000 0.260136
0.391150 0.000000 0.249699
0.536950 0.000000 0.248188
0.667628 0.000000 0.255680
0.785611 0.000000 0.268849
0.897520 0.000000 0.284581
1.000000 0.003784 0.301106
0.000000 0.113802 0.254932
0.059617 0.115694 0.275746
0.250309 0.102419 0.279301
0.415885 0.101701 0.277348
0.564858 0.105791 0.282032
0.696971 0.116075 0.293385
0.816632 0.130236 0.308934
0.930068 0.146166 0.326177
1.000000 0.161364 0.342214
0.000000 0.264912 0.250721
0.066941 0.273686 0.267582
0.246052 0.270253 0.278096
0.420905 0.269459 0.282109
0.570993 0.275105 0.288289
0.701595 0.284794 0.298177
0.817929 0.296818 0.310628
0.927230 0.309575 0.323354
1.000000 0.321386 0.335256
0.000000 0.420996 0.264881
0.112459 0.429648 0.287663
0.277394 0.427939 0.304585
0.421988 0.433997 0.285588
0.576516 0.435508 0.272267
0.707607 0.440589 0.279789
0.820981 0.448814 0.292439
0.926726 0.457877 0.305150
1.000000 0.466102 0.316091
0.025238 0.566812 0.307027
0.149126 0.573449 0.326543
0.300649 0.571923 0.334356
0.434592 0.576120 0.322408
0.570504 0.580316 0.288899
0.700221 0.582956 0.272969
0.817517 0.586465 0.271107
0.925978 0.590433 0.275380
1.000000 0.593881 0.280583
0.061631 0.699489 0.349630
0.181659 0.703120 0.362722
0.325826 0.699153 0.363821
0.453468 0.699886 0.352285
0.577493 0.702815 0.318135
0.697398 0.704845 0.293446
0.808835 0.707073 0.280919
0.916167 0.709194 0.271687
1.000000 0.710246 0.267659
0.092592 0.817258 0.384726
0.209979 0.817517 0.392370
0.347875 0.811643 0.389059
0.471107 0.809995 0.376440
0.588144 0.810987 0.346395
0.701381 0.812436 0.314305
0.807950 0.813596 0.297429
0.910369 0.814969 0.286244
1.000000 0.815579 0.273213
0.117250 0.923735 0.411185
0.232212 0.921599 0.414847
0.364721 0.914397 0.408820
0.484916 0.911131 0.395056
0.597711 0.910689 0.367773
0.706432 0.911696 0.335180
0.809766 0.912749 0.312642
0.909773 0.913741 0.299351
1.000000 0.914229 0.287434
0.134340 1.000000 0.428977
0.246784 1.000000 0.430137
0.375616 1.000000 0.422751
0.494118 1.000000 0.408392
0.604532 1.000000 0.383856
0.710246 1.000000 0.353017
0.811322 1.000000 0.328344
0.909743 1.000000 0.311498
1.000000 1.000000 0.298894
0.000000 0.003494 0.432105
0.059617 0.000000 0.440909
0.202060 0.000000 0.439429
0.388022 0.000000 0.415717
0.535576 0.000000 0.414755
0.666865 0.000000 0.422248
0.785168 0.000000 0.434394
0.897368 0.000000 0.448783
1.000000 0.004578 0.464103
0.000000 0.124269 0.419684
0.059617 0.126879 0.439811
0.207843 0.113695 0.455894
0.414923 0.101686 0.442084
0.565072 0.106325 0.446052
0.697383 0.116793 0.456641
0.817334 0.131273 0.470954
0.930556 0.146990 0.486046
1.000000 0.162081 0.500374
0.000000 0.279408 0.408927
0.059617 0.288869 0.422904
0.201526 0.284535 0.442222
0.419745 0.270329 0.448493
0.571160 0.275639 0.451881
0.701442 0.284962 0.460548
0.817456 0.296635 0.471015
0.926543 0.309163 0.481987
1.000000 0.320882 0.492226
0.000000 0.441215 0.415717
0.059617 0.450217 0.431998
0.226001 0.445624 0.440085
0.412360 0.436790 0.443641
0.567056 0.435889 0.447517
0.694789 0.441642 0.453498
0.808835 0.449775 0.461631
0.915846 0.458351 0.470298
1.000000 0.465873 0.477897
0.000000 0.587533 0.431785
0.096910 0.592157 0.446220
0.273030 0.582696 0.455055
0.439979 0.574380 0.464714
0.567666 0.578546 0.450156
0.697520 0.580041 0.439811
0.811948 0.583185 0.444251
0.916228 0.587762 0.451575
1.000000 0.592096 0.458534
0.014862 0.715663 0.464607
0.143557 0.716197 0.477180
0.311650 0.704158 0.484215
0.458625 0.697139 0.487785
0.577188 0.698985 0.476478
0.693065 0.701793 0.452354
0.804929 0.703441 0.440864
0.912093 0.704738 0.437095
1.000000 0.705486 0.437217
0.054398 0.829664 0.496681
0.179416 0.827085 0.505806
0.338537 0.813901 0.508629
0.475517 0.806653 0.507836
0.589929 0.806180 0.496925
0.697627 0.808331 0.471595
0.802930 0.809812 0.454688
0.905348 0.810773 0.444297
1.000000 0.810742 0.434699
0.083741 0.933654 0.521691
0.206546 0.928695 0.527260
0.357458 0.915190 0.527077
0.488640 0.907408 0.523598
0.600565 0.905440 0.512459
0.703868 0.906844 0.490349
0.805035 0.908522 0.468605
0.904219 0.909468 0.455848
1.000000 0.909773 0.445029
0.104768 1.000000 0.538796
0.225284 1.000000 0.542214
0.369909 1.000000 0.540307
0.497520 1.000000 0.535088
0.608011 1.000000 0.523995
0.709041 1.000000 0.505043
0.807446 1.000000 0.483452
0.904585 1.000000 0.466987
1.000000 1.000000 0.455589
0.000000 0.011597 0.573602
0.059617 0.004822 0.582162
0.156344 0.000000 0.587594
0.374548 0.000000 0.571939
0.535744 0.000000 0.561013
0.667933 0.000000 0.567971
0.786191 0.000000 0.579141
0.899031 0.000000 0.593011
1.000000 0.006867 0.607431
0.000000 0.135454 0.565026
0.059617 0.138979 0.583886
0.167269 0.127550 0.599908
0.398383 0.107591 0.598444
0.566476 0.108431 0.590600
0.699443 0.119280 0.600214
0.819257 0.133639 0.613443
0.932448 0.149340 0.627420
1.000000 0.163912 0.640085
0.000000 0.294682 0.546441
0.059617 0.303929 0.563958
0.165576 0.298039 0.586313
0.383734 0.282872 0.601862
0.572030 0.277562 0.596323
0.702373 0.286397 0.602899
0.818280 0.297932 0.612314
0.927230 0.310262 0.622049
1.000000 0.321569 0.630930
0.000000 0.455512 0.559365
0.059617 0.464057 0.572808
0.185321 0.459983 0.577615
0.373831 0.449287 0.586954
0.565896 0.436912 0.592020
0.694926 0.442084 0.595117
0.808667 0.449866 0.602289
0.915465 0.458076 0.609720
1.000000 0.465278 0.616251
0.000000 0.604364 0.570764
0.059617 0.609140 0.582025
0.214221 0.601419 0.585611
0.396246 0.589120 0.584970
0.558816 0.580697 0.586923
0.690288 0.579965 0.590127
0.800931 0.583749 0.594049
0.904936 0.588342 0.598733
1.000000 0.592279 0.602762
0.000000 0.734707 0.587503
0.084520 0.735119 0.595422
0.254307 0.722591 0.595544
0.431968 0.706584 0.595117
0.580545 0.697292 0.601648
0.690455 0.700008 0.592294
0.802701 0.700862 0.584329
0.907240 0.702068 0.586175
1.000000 0.703517 0.589792
0.000000 0.847837 0.608164
0.123735 0.844556 0.613642
0.294377 0.827955 0.612787
0.460243 0.811521 0.614725
0.593545 0.803738 0.617670
0.697414 0.804944 0.610391
0.799359 0.807279 0.593118
0.902327 0.807797 0.583673
1.000000 0.807218 0.579293
0.030213 0.940368 0.626307
0.155612 0.940368 0.630259
0.323995 0.925338 0.629114
0.478355 0.909941 0.630762
0.603998 0.902724 0.630793
0.705791 0.902815 0.623957
0.802258 0.905287 0.607095
0.900282 0.906722 0.593774
1.000000 0.906661 0.583703
0.056336 1.000000 0.639841
0.180392 1.000000 0.643275
0.343771 1.000000 0.641932
0.490105 1.000000 0.642618
0.611276 0.998459 0.640757
0.712322 0.998154 0.634333
0.806302 1.000000 0.620905
0.901228 1.000000 0.604898
0.999664 1.000000 0.593454
0.000000 0.019348 0.694453
0.059617 0.013291 0.702861
0.122896 0.000000 0.710216
0.348150 0.000000 0.705745
0.533288 0.000000 0.691768
0.670344 0.000000 0.692561
0.789090 0.000000 0.703090
0.902144 0.000000 0.716548
1.000000 0.010971 0.730755
0.000000 0.146685 0.688853
0.059617 0.150805 0.706615
0.138720 0.140063 0.722622
0.367071 0.120378 0.729473
0.563561 0.113527 0.721233
0.702647 0.123217 0.723842
0.822553 0.137697 0.736217
0.935393 0.152880 0.749310
1.000000 0.167117 0.761166
0.000000 0.308644 0.668894
0.059617 0.317342 0.687373
0.138811 0.311040 0.709453
0.349432 0.297780 0.725597
0.562570 0.283696 0.727718
0.704463 0.289555 0.725704
0.820294 0.300755 0.733593
0.928939 0.312703 0.742580
1.000000 0.323796 0.750942
0.000000 0.469108 0.678706
0.059617 0.477607 0.690394
0.154299 0.472938 0.697032
0.344182 0.461173 0.710674
0.540658 0.446479 0.721355
0.695766 0.443915 0.717311
0.809705 0.451286 0.722805
0.916121 0.459190 0.729747
1.000000 0.466056 0.735561
0.000000 0.616251 0.694133
0.059617 0.620722 0.704143
0.183337 0.612879 0.706111
0.363439 0.600839 0.702983
0.531334 0.590005 0.707652
0.688807 0.580789 0.712673
0.800946 0.584009 0.714000
0.904753 0.588296 0.718151
1.000000 0.591989 0.721752
0.000000 0.747616 0.708034
0.059617 0.747951 0.714382
0.210513 0.736370 0.713207
0.387747 0.720516 0.708202
0.547295 0.708446 0.706310
0.682795 0.702098 0.707683
0.797330 0.700877 0.710216
0.898833 0.702678 0.712077
0.999191 0.704051 0.713634
0.000000 0.862135 0.720302
0.076631 0.859144 0.723629
0.241337 0.844221 0.719753
0.416251 0.825666 0.713298
0.571481 0.811490 0.712230
0.699245 0.804074 0.717769
0.797482 0.806119 0.712154
0.900786 0.806271 0.705409
1.000000 0.805753 0.706004
0.000000 0.940368 0.731563
0.105974 0.940368 0.733150
0.272374 0.940368 0.728023
0.443290 0.921248 0.723491
0.591501 0.906996 0.725780
0.708537 0.901335 0.729397
0.803052 0.902983 0.725734
0.898024 0.905303 0.712139
0.999893 0.905028 0.702922
0.006989 1.000000 0.739544
0.131029 1.000000 0.740688
0.298970 1.000000 0.736156
0.463783 1.000000 0.734249
0.603632 1.000000 0.737072
0.715236 0.996551 0.738918
0.809110 0.998016 0.735988
0.900053 1.000000 0.724285
0.997375 1.000000 0.711864
0.000000 0.026749 0.800946
0.059617 0.021347 0.809689
0.119249 0.002304 0.818235
0.321828 0.000000 0.820645
0.526345 0.000000 0.808835
0.671809 0.000000 0.805646
0.792721 0.000000 0.812879
0.906401 0.000000 0.826200
1.000000 0.016037 0.840330
0.000000 0.157473 0.797681
0.059617 0.162203 0.815366
0.119249 0.151553 0.831464
0.340627 0.134020 0.842344
0.554604 0.121645 0.838727
0.704463 0.128786 0.837598
0.826596 0.142565 0.845747
0.939040 0.157458 0.857954
1.000000 0.171298 0.869276
0.000000 0.321233 0.777722
0.059617 0.329717 0.796994
0.119448 0.323217 0.818677
0.325521 0.310780 0.834989
0.543755 0.294179 0.842588
0.703059 0.294331 0.838849
0.822843 0.304524 0.841917
0.931517 0.316182 0.850172
1.000000 0.326818 0.858091
0.000000 0.482048 0.783886
0.059617 0.489815 0.795682
0.132845 0.484230 0.805417
0.322301 0.471901 0.820020
0.517784 0.457053 0.830289
0.689555 0.448646 0.831998
0.811460 0.453773 0.830686
0.917693 0.461204 0.836347
1.000000 0.467720 0.842054
0.000000 0.627039 0.801022
0.059617 0.631174 0.809827
0.160967 0.623255 0.810086
0.337057 0.611734 0.808194
0.511315 0.598184 0.815610
0.669444 0.587777 0.824689
0.801328 0.585275 0.821347
0.905379 0.589242 0.824109
1.000000 0.592660 0.827420
0.000000 0.757275 0.815763
0.059617 0.757259 0.821622
0.186191 0.745312 0.819791
0.361883 0.729564 0.814206
0.524437 0.716548 0.809232
0.662837 0.708721 0.813230
0.795361 0.701610 0.817990
0.898787 0.702785 0.817502
0.998978 0.704005 0.818753
0.000000 0.872007 0.826444
0.059617 0.868864 0.829114
0.209445 0.854368 0.825010
0.383062 0.835950 0.817334
0.540246 0.821271 0.812589
0.673991 0.812650 0.812024
0.790707 0.808148 0.813581
0.896605 0.806531 0.815229
0.995651 0.806577 0.815412
0.000000 0.940368 0.833341
0.070756 0.940368 0.834028
0.232563 0.940368 0.827924
0.405280 0.933089 0.819104
0.559442 0.917601 0.814786
0.691554 0.907774 0.815717
0.804181 0.902892 0.821103
0.897078 0.904784 0.817441
0.998978 0.904204 0.810956
0.000000 1.000000 0.837125
0.092622 1.000000 0.837034
0.255970 1.000000 0.830655
0.427665 1.000000 0.823178
0.579477 1.000000 0.821897
0.706615 1.000000 0.826123
0.811505 0.997589 0.830732
0.902068 1.000000 0.829374
0.996414 1.000000 0.816922
0.000000 0.033677 0.900633
0.059617 0.029236 0.909957
0.119249 0.011688 0.919493
0.299504 0.000000 0.926131
0.516381 0.000000 0.918227
0.671031 0.000000 0.913344
0.796078 0.000000 0.918273
0.910964 0.005295 0.929427
1.000000 0.021805 0.940368
0.000000 0.168261 0.899611
0.059617 0.173053 0.917159
0.119249 0.162768 0.933806
0.319707 0.146792 0.940368
0.542199 0.131868 0.940368
0.703273 0.135500 0.940368
0.829587 0.148165 0.940368
0.940368 0.162387 0.940368
1.000000 0.175860 0.940368
0.000000 0.333318 0.880140
0.059617 0.341497 0.899855
0.119249 0.334585 0.921141
0.307256 0.322744 0.937774
0.524010 0.305577 0.940368
0.696910 0.301122 0.940368
0.823621 0.309010 0.940368
0.934173 0.319951 0.940368
1.000000 0.330312 0.940368
0.000000 0.493996 0.883268
0.059617 0.501213 0.895720
0.119249 0.494469 0.907332
0.304891 0.481987 0.922545
0.500267 0.466743 0.932113
0.675456 0.456291 0.938811
0.809979 0.457252 0.935958
0.919554 0.463615 0.937087
1.000000 0.469749 0.940368
0.000000 0.637232 0.899779
0.059617 0.641032 0.907713
0.141909 0.632959 0.907393
0.316304 0.621073 0.908492
0.494667 0.605890 0.916579
0.651774 0.595315 0.925643
0.794568 0.588663 0.927321
0.906279 0.590585 0.924239
1.000000 0.593744 0.926619
0.000000 0.765988 0.915694
0.059617 0.765408 0.920760
0.167315 0.753353 0.917876
0.340322 0.738094 0.911406
0.504326 0.724315 0.905943
0.646860 0.714641 0.912917
0.778134 0.707256 0.920882
0.898573 0.703410 0.917372
0.999359 0.704524 0.917525
0.000000 0.880049 0.926085
0.059617 0.876539 0.928618
0.187869 0.861875 0.924224
0.360143 0.843565 0.916442
0.520546 0.827878 0.909941
0.655848 0.818784 0.907393
0.773983 0.813428 0.911528
0.894408 0.807095 0.915770
0.995682 0.806745 0.913832
0.000000 0.940368 0.932113
0.059617 0.940368 0.932555
0.206180 0.940368 0.926497
0.377493 0.940368 0.917235
0.533898 0.925490 0.911025
0.666911 0.915572 0.909285
0.782910 0.910216 0.910399
0.890883 0.906889 0.912077
0.995224 0.904799 0.913283
0.000000 1.000000 0.933165
0.063371 1.000000 0.932662
0.223819 1.000000 0.925673
0.395544 1.000000 0.916045
0.549813 1.000000 0.910536
0.681910 1.000000 0.909834
0.798138 1.000000 0.913130
0.903487 1.000000 0.919173
0.996307 1.000000 0.915663
0.000000 0.040833 0.999390
0.059617 0.037507 1.000000
0.119249 0.021469 1.000000
0.279026 0.002655 1.000000
0.502602 0.000000 1.000000
0.667536 0.000000 1.000000
0.797665 0.000000 1.000000
0.914931 0.011185 1.000000
1.000000 0.027421 1.000000
0.000000 0.179095 1.000000
0.059617 0.183932 1.000000
0.119249 0.173861 1.000000
0.300710 0.159457 1.000000
0.526390 0.143145 1.000000
0.698238 0.143404 1.000000
0.830060 0.154009 1.000000
0.940368 0.167269 1.000000
1.000000 0.180377 1.000000
0.000000 0.345113 0.981765
0.059617 0.352941 1.000000
0.119249 0.345953 1.000000
0.290089 0.334173 1.000000
0.504585 0.317189 1.000000
0.685084 0.309438 1.000000
0.820874 0.314382 1.000000
0.935286 0.324025 1.000000
1.000000 0.333745 1.000000
0.000000 0.505684 0.982330
0.059617 0.511971 0.995422
0.119249 0.504433 1.000000
0.288487 0.491615 1.000000
0.483436 0.476005 1.000000
0.657862 0.465019 1.000000
0.802365 0.462150 1.000000
0.918914 0.466377 1.000000
1.000000 0.471702 1.000000
0.000000 0.647578 0.997177
0.059617 0.650950 1.000000
0.123201 0.642542 1.000000
0.297414 0.629877 1.000000
0.478111 0.613367 1.000000
0.635462 0.602472 1.000000
0.778943 0.594751 1.000000
0.902800 0.592737 1.000000
1.000000 0.594797 1.000000
0.000000 0.774456 1.000000
0.059617 0.773571 1.000000
0.148653 0.761395 1.000000
0.318410 0.746761 1.000000
0.485176 0.731579 1.000000
0.630991 0.720516 1.000000
0.761288 0.713130 1.000000
0.889281 0.706233 1.000000
0.999344 0.704982 1.000000
0.000000 0.880751 1.000000
0.059617 0.880751 1.000000
0.168505 0.868818 1.000000
0.338537 0.850950 1.000000
0.500923 0.834669 1.000000
0.637095 0.825055 1.000000
0.758587 0.818387 1.000000
0.876966 0.812146 1.000000
0.995071 0.806912 1.000000
0.000000 0.940368 1.000000
0.059617 0.940368 1.000000
0.184360 0.940368 1.000000
0.354070 0.940368 1.000000
0.513832 0.931670 1.000000
0.648905 0.921202 1.000000
0.765530 0.915755 1.000000
0.874861 0.911818 1.000000
0.993286 0.905272 1.000000
0.000000 1.000000 1.000000
0.059617 1.000000 1.000000
0.198138 1.000000 1.000000
0.368139 1.000000 1.000000
0.525124 1.000000 1.000000
0.658595 1.000000 1.000000
0.774762 1.000000 1.000000
0.883162 1.000000 1.000000
0.990341 1.000000 1.000000
