luts/Midnight_Cyan.CUBE
# kravix mobile - LUTs Pack
LUT_3D_SIZE 5
0.000000 0.000000 0.000000
0.238788 0.000000 0.000000
0.537377 0.000000 0.000000
0.783612 0.000000 0.000000
1.000000 0.000000 0.009262
0.000000 0.237858 0.011002
0.252201 0.262715 0.000000
0.585824 0.267613 0.000000
0.836286 0.290089 0.003662
1.000000 0.316350 0.032944
0.041306 0.554314 0.070115
0.285191 0.573938 0.063844
0.573159 0.580789 0.001175
0.819730 0.589303 0.000000
1.000000 0.598032 0.000000
0.101701 0.813199 0.149630
0.337667 0.817044 0.132616
0.591180 0.817411 0.054551
0.815198 0.818875 0.015015
1.000000 0.821347 0.000000
0.142229 1.000000 0.202869
0.368170 1.000000 0.177752
0.605402 1.000000 0.097719
0.818753 1.000000 0.042069
1.000000 1.000000 0.017838
0.000000 0.000000 0.270527
0.233433 0.000000 0.260136
0.536950 0.000000 0.248188
0.785611 0.000000 0.268849
1.000000 0.003784 0.301106
0.000000 0.264912 0.250721
0.246052 0.270253 0.278096
0.570993 0.275105 0.288289
0.817929 0.296818 0.310628
1.000000 0.321386 0.335256
0.025238 0.566812 0.307027
0.300649 0.571923 0.334356
0.570504 0.580316 0.288899
0.817517 0.586465 0.271107
1.000000 0.593881 0.280583
0.092592 0.817258 0.384726
0.347875 0.811643 0.389059
0.588144 0.810987 0.346395
0.807950 0.813596 0.297429
1.000000 0.815579 0.273213
0.134340 1.000000 0.428977
0.375616 1.000000 0.422751
0.604532 1.000000 0.383856
0.811322 1.000000 0.328344
1.000000 1.000000 0.298894
0.000000 0.011597 0.573602
0.156344 0.000000 0.587594
0.535744 0.000000 0.561013
0.786191 0.000000 0.579141
1.000000 0.006867 0.607431
0.000000 0.294682 0.546441
0.165576 0.298039 0.586313
0.572030 0.277562 0.596323
0.818280 0.297932 0.612314
1.000000 0.321569 0.630930
0.000000 0.604364 0.570764
0.214221 0.601419 0.585611
0.558816 0.580697 0.586923
0.800931 0.583749 0.594049
1.000000 0.592279 0.602762
0.000000 0.847837 0.608164
0.294377 0.827955 0.612787
0.593545 0.803738 0.617670
0.799359 0.807279 0.593118
1.000000 0.807218 0.579293
0.056336 1.000000 0.639841
0.343771 1.000000 0.641932
0.611276 0.998459 0.640757
0.806302 1.000000 0.620905
0.999664 1.000000 0.593454
0.000000 0.026749 0.800946
0.119249 0.002304 0.818235
0.526345 0.000000 0.808835
0.792721 0.000000 0.812879
1.000000 0.016037 0.840330
0.000000 0.321233 0.777722
0.119448 0.323217 0.818677
0.543755 0.294179 0.842588
0.822843 0.304524 0.841917
1.000000 0.326818 0.858091
0.000000 0.627039 0.801022
0.160967 0.623255 0.810086
0.511315 0.598184 0.815610
0.801328 0.585275 0.821347
1.000000 0.592660 0.827420
0.000000 0.872007 0.826444
0.209445 0.854368 0.825010
0.540246 0.821271 0.812589
0.790707 0.808148 0.813581
0.995651 0.806577 0.815412
0.000000 1.000000 0.837125
0.255970 1.000000 0.830655
0.579477 1.000000 0.821897
0.811505 0.997589 0.830732
0.996414 1.000000 0.816922
0.000000 0.040833 0.999390
0.119249 0.021469 1.000000
0.502602 0.000000 1.000000
0.797665 0.000000 1.000000
1.000000 0.027421 1.000000
0.000000 0.345113 0.981765
0.119249 0.345953 1.000000
0.504585 0.317189 1.000000
0.820874 0.314382 1.000000
1.000000 0.333745 1.000000
0.000000 0.647578 0.997177
0.123201 0.642542 1.000000
0.478111 0.613367 1.000000
0.778943 0.594751 1.000000
1.000000 0.594797 1.000000
0.000000 0.880751 1.000000
0.168505 0.868818 1.000000
0.500923 0.834669 1.000000
0.758587 0.818387 1.000000
0.995071 0.806912 1.000000
0.000000 1.000000 1.000000
0.198138 1.000000 1.000000
0.525124 1.000000 1.000000
0.774762 1.000000 1.000000
0.990341 1.000000 1.000000
