luts/Muted_Charcoal_BW.CUBE
# kravix mobile - LUTs Pack
LUT_3D_SIZE 17
0.000000 0.000000 0.000000
0.009644 0.009644 0.009644
0.019867 0.019867 0.019867
0.034088 0.034088 0.034088
0.052765 0.052765 0.052765
0.073578 0.073578 0.073578
0.096222 0.096222 0.096222
0.120544 0.120544 0.120544
0.146149 0.146149 0.146149
0.172333 0.172333 0.172333
0.198792 0.198792 0.198792
0.225159 0.225159 0.225159
0.251495 0.251495 0.251495
0.277802 0.277802 0.277802
0.304138 0.304138 0.304077
0.330353 0.330383 0.330292
0.356476 0.356567 0.356476
0.008484 0.008484 0.008484
0.018738 0.018738 0.018738
0.032562 0.032562 0.032562
0.050812 0.050812 0.050812
0.071320 0.071320 0.071320
0.093842 0.093842 0.093842
0.117950 0.117950 0.117950
0.143372 0.143372 0.143372
0.169525 0.169525 0.169525
0.195892 0.195892 0.195892
0.222290 0.222290 0.222290
0.248688 0.248688 0.248688
0.274994 0.274994 0.274994
0.301300 0.301300 0.301270
0.327515 0.327576 0.327454
0.353668 0.353760 0.353668
0.379700 0.379791 0.379700
0.017548 0.017548 0.017548
0.030640 0.030640 0.030640
0.048645 0.048645 0.048645
0.069031 0.069031 0.069031
0.091187 0.091187 0.091187
0.115326 0.115326 0.115326
0.140564 0.140564 0.140564
0.166656 0.166656 0.166656
0.193024 0.193024 0.193024
0.219421 0.219421 0.219421
0.245758 0.245758 0.245758
0.272125 0.272125 0.272125
0.298431 0.298431 0.298401
0.324707 0.324738 0.324646
0.350830 0.350922 0.350830
0.376862 0.376953 0.376862
0.402863 0.402954 0.402863
0.028992 0.028992 0.028992
0.046600 0.046600 0.046600
0.066711 0.066711 0.066711
0.088776 0.088776 0.088776
0.112640 0.112640 0.112640
0.137817 0.137817 0.137817
0.163879 0.163879 0.163879
0.190186 0.190186 0.190186
0.216553 0.216553 0.216553
0.242950 0.242950 0.242950
0.269287 0.269287 0.269287
0.295624 0.295624 0.295593
0.321869 0.321899 0.321808
0.348083 0.348145 0.348053
0.374115 0.374207 0.374115
0.400055 0.400146 0.400055
0.425873 0.425964 0.425873
0.044434 0.044434 0.044434
0.064484 0.064484 0.064484
0.086212 0.086212 0.086212
0.109985 0.109985 0.109985
0.135071 0.135071 0.135071
0.160980 0.160980 0.160980
0.187347 0.187347 0.187347
0.213715 0.213715 0.213715
0.240082 0.240082 0.240082
0.266418 0.266418 0.266418
0.292755 0.292755 0.292725
0.319031 0.319061 0.318970
0.345215 0.345306 0.345184
0.371277 0.371368 0.371277
0.397278 0.397369 0.397278
0.423096 0.423187 0.423096
0.448669 0.448730 0.448669
0.062195 0.062195 0.062195
0.083923 0.083923 0.083923
0.107330 0.107330 0.107330
0.132324 0.132324 0.132324
0.158173 0.158173 0.158173
0.184570 0.184570 0.184570
0.210876 0.210876 0.210876
0.237274 0.237274 0.237274
0.263641 0.263641 0.263641
0.289917 0.289917 0.289886
0.316223 0.316254 0.316162
0.342407 0.342468 0.342377
0.368500 0.368591 0.368500
0.394470 0.394562 0.394470
0.420349 0.420410 0.420349
0.445953 0.446045 0.445953
0.471344 0.471405 0.471344
0.081543 0.081543 0.081543
0.104828 0.104828 0.104828
0.129547 0.129547 0.129547
0.155365 0.155365 0.155365
0.181641 0.181641 0.181641
0.207977 0.207977 0.207977
0.234406 0.234406 0.234406
0.260742 0.260742 0.260742
0.287109 0.287109 0.287079
0.313354 0.313354 0.313293
0.339569 0.339630 0.339539
0.365662 0.365753 0.365662
0.391693 0.391785 0.391693
0.417511 0.417603 0.417511
0.443207 0.443298 0.443207
0.468628 0.468719 0.468628
0.493805 0.493866 0.493805
0.102051 0.102051 0.102051
0.126923 0.126923 0.126923
0.152527 0.152527 0.152527
0.178833 0.178833 0.178833
0.205200 0.205200 0.205200
0.231567 0.231567 0.231567
0.257904 0.257904 0.257904
0.284241 0.284241 0.284241
0.310547 0.310547 0.310516
0.336731 0.336792 0.336700
0.362854 0.362946 0.362854
0.388885 0.388977 0.388885
0.414795 0.414856 0.414795
0.440430 0.440491 0.440430
0.465942 0.466034 0.465942
0.491089 0.491180 0.491089
0.515991 0.516052 0.515961
0.124268 0.124268 0.124268
0.149841 0.149841 0.149841
0.175964 0.175964 0.175964
0.202362 0.202362 0.202362
0.228699 0.228699 0.228699
0.255127 0.255127 0.255127
0.281433 0.281433 0.281433
0.307709 0.307739 0.307678
0.333954 0.333984 0.333893
0.360046 0.360107 0.360016
0.386047 0.386139 0.386047
0.411957 0.412018 0.411957
0.437683 0.437775 0.437683
0.463135 0.463226 0.463135
0.488434 0.488495 0.488434
0.513336 0.513397 0.513306
0.537964 0.538055 0.537933
0.147125 0.147125 0.147125
0.173279 0.173279 0.173279
0.199554 0.199554 0.199554
0.225922 0.225922 0.225922
0.252258 0.252258 0.252258
0.278595 0.278595 0.278595
0.304901 0.304901 0.304871
0.331116 0.331177 0.331055
0.357208 0.357300 0.357208
0.383270 0.383331 0.383270
0.409210 0.409302 0.409210
0.434906 0.434998 0.434906
0.460419 0.460480 0.460419
0.485687 0.485748 0.485687
0.510651 0.510712 0.510620
0.535339 0.535400 0.535309
0.559753 0.559845 0.559723
0.170563 0.170563 0.170563
0.196960 0.196960 0.196960
0.223114 0.223114 0.223114
0.249512 0.249512 0.249512
0.275787 0.275787 0.275787
0.302063 0.302063 0.302032
0.328278 0.328339 0.328247
0.354431 0.354523 0.354431
0.380493 0.380615 0.380493
0.406403 0.406494 0.406403
0.432190 0.432251 0.432190
0.457672 0.457764 0.457672
0.483002 0.483063 0.483002
0.507996 0.508057 0.507965
0.532715 0.532776 0.532684
0.557159 0.557251 0.557129
0.581329 0.581421 0.581329
0.194061 0.194061 0.194061
0.220551 0.220551 0.220551
0.246704 0.246704 0.246704
0.272980 0.272980 0.272980
0.299286 0.299286 0.299255
0.325531 0.325562 0.325470
0.351654 0.351746 0.351624
0.377686 0.377777 0.377686
0.403625 0.403717 0.403625
0.429382 0.429474 0.429382
0.454956 0.455017 0.454956
0.480347 0.480408 0.480347
0.505310 0.505371 0.505310
0.529999 0.530060 0.529968
0.554504 0.554596 0.554474
0.578766 0.578827 0.578735
0.602661 0.602783 0.602661
0.217804 0.217804 0.217804
0.244049 0.244049 0.244049
0.270294 0.270294 0.270294
0.296478 0.296478 0.296448
0.322693 0.322723 0.322632
0.348907 0.348999 0.348877
0.374939 0.375031 0.374939
0.400848 0.400940 0.400848
0.426636 0.426697 0.426636
0.452209 0.452271 0.452209
0.477539 0.477631 0.477539
0.502625 0.502716 0.502625
0.527374 0.527435 0.527344
0.551880 0.551941 0.551849
0.576141 0.576233 0.576111
0.600128 0.600250 0.600128
0.623932 0.624054 0.623932
0.241272 0.241272 0.241272
0.267700 0.267700 0.267700
0.293823 0.293823 0.293823
0.319977 0.320038 0.319946
0.346130 0.346191 0.346100
0.372162 0.372253 0.372162
0.398071 0.398163 0.398071
0.423920 0.424011 0.423920
0.449493 0.449585 0.449493
0.474854 0.474915 0.474854
0.499969 0.500061 0.499939
0.524811 0.524872 0.524780
0.549255 0.549347 0.549225
0.573517 0.573608 0.573486
0.597595 0.597687 0.597595
0.621368 0.621460 0.621368
0.645020 0.645111 0.645020
0.264984 0.264984 0.264984
0.291412 0.291412 0.291412
0.317230 0.317230 0.317169
0.343384 0.343445 0.343323
0.369385 0.369476 0.369385
0.395386 0.395447 0.395386
0.421082 0.421173 0.421082
0.446777 0.446869 0.446777
0.472168 0.472260 0.472168
0.497253 0.497314 0.497253
0.522095 0.522156 0.522064
0.546661 0.546753 0.546631
0.570984 0.571075 0.570953
0.594971 0.595093 0.594971
0.618896 0.618988 0.618896
0.642548 0.642639 0.642517
0.665924 0.666016 0.665924
0.288696 0.288696 0.288696
0.314850 0.314880 0.314789
0.340668 0.340729 0.340607
0.366669 0.366760 0.366669
0.392639 0.392731 0.392639
0.418427 0.418488 0.418427
0.444031 0.444092 0.444031
0.469452 0.469513 0.469452
0.494629 0.494690 0.494598
0.519470 0.519531 0.519440
0.544067 0.544159 0.544037
0.568329 0.568420 0.568298
0.592407 0.592529 0.592407
0.616333 0.616455 0.616333
0.639893 0.639984 0.639893
0.663361 0.663452 0.663330
0.686707 0.686829 0.686707
0.312531 0.312531 0.312469
0.338470 0.338531 0.338409
0.364044 0.364166 0.364044
0.389984 0.390076 0.389984
0.415741 0.415833 0.415741
0.441345 0.441437 0.441345
0.466766 0.466858 0.466766
0.492004 0.492065 0.491974
0.516846 0.516907 0.516815
0.541443 0.541504 0.541412
0.565857 0.565918 0.565826
0.589813 0.589935 0.589813
0.613770 0.613861 0.613770
0.637451 0.637543 0.637421
0.660889 0.660980 0.660858
0.684174 0.684265 0.684143
0.707367 0.707458 0.707336
0.007690 0.007690 0.007690
0.017914 0.017914 0.017914
0.031036 0.031036 0.031036
0.049225 0.049225 0.049225
0.069550 0.069550 0.069550
0.091919 0.091919 0.091919
0.115997 0.115997 0.115997
0.141327 0.141327 0.141327
0.167419 0.167419 0.167419
0.193787 0.193787 0.193787
0.220154 0.220154 0.220154
0.246552 0.246552 0.246552
0.272888 0.272888 0.272888
0.299225 0.299225 0.299194
0.325470 0.325500 0.325409
0.351593 0.351654 0.351562
0.377686 0.377777 0.377686
0.016785 0.016785 0.016785
0.029602 0.029602 0.029602
0.047394 0.047394 0.047394
0.067535 0.067535 0.067535
0.089569 0.089569 0.089569
0.113464 0.113464 0.113464
0.138550 0.138550 0.138550
0.164612 0.164612 0.164612
0.190979 0.190979 0.190979
0.217316 0.217316 0.217316
0.243713 0.243713 0.243713
0.270050 0.270050 0.270050
0.296417 0.296417 0.296387
0.322662 0.322723 0.322632
0.348785 0.348846 0.348755
0.374908 0.375000 0.374908
0.400787 0.400879 0.400787
0.027893 0.027893 0.027893
0.045349 0.045349 0.045349
0.065094 0.065094 0.065094
0.086914 0.086914 0.086914
0.110718 0.110718 0.110718
0.135773 0.135773 0.135773
0.161713 0.161713 0.161713
0.188110 0.188110 0.188110
0.214508 0.214508 0.214508
0.240845 0.240845 0.240845
0.267181 0.267181 0.267181
0.293488 0.293488 0.293488
0.319794 0.319824 0.319733
0.346008 0.346069 0.345978
0.372009 0.372101 0.372009
0.397980 0.398071 0.397980
0.423859 0.423920 0.423859
0.043030 0.043030 0.043030
0.062927 0.062927 0.062927
0.084503 0.084503 0.084503
0.108124 0.108124 0.108124
0.133026 0.133026 0.133026
0.158966 0.158966 0.158966
0.185303 0.185303 0.185303
0.211639 0.211639 0.211639
0.238007 0.238007 0.238007
0.264343 0.264343 0.264343
0.290710 0.290710 0.290680
0.317017 0.317047 0.316956
0.343170 0.343231 0.343140
0.369232 0.369324 0.369232
0.395203 0.395294 0.395203
0.421051 0.421143 0.421051
0.446655 0.446716 0.446655
0.060547 0.060547 0.060547
0.082245 0.082245 0.082245
0.105469 0.105469 0.105469
0.130310 0.130310 0.130310
0.156097 0.156097 0.156097
0.182404 0.182404 0.182404
0.208801 0.208801 0.208801
0.235138 0.235138 0.235138
0.261505 0.261505 0.261505
0.287842 0.287842 0.287842
0.314117 0.314148 0.314056
0.340302 0.340363 0.340271
0.366425 0.366516 0.366425
0.392395 0.392487 0.392395
0.418274 0.418365 0.418274
0.443909 0.444000 0.443909
0.469330 0.469391 0.469330
0.079651 0.079651 0.079651
0.102905 0.102905 0.102905
0.127533 0.127533 0.127533
0.153320 0.153320 0.153320
0.179535 0.179535 0.179535
0.205902 0.205902 0.205902
0.232300 0.232300 0.232300
0.258667 0.258667 0.258667
0.285004 0.285004 0.284973
0.311279 0.311310 0.311218
0.337494 0.337555 0.337463
0.363586 0.363678 0.363586
0.389618 0.389709 0.389618
0.415527 0.415588 0.415527
0.441193 0.441254 0.441193
0.466614 0.466705 0.466614
0.491821 0.491913 0.491821
0.100220 0.100220 0.100220
0.124908 0.124908 0.124908
0.150513 0.150513 0.150513
0.176727 0.176727 0.176727
0.203094 0.203094 0.203094
0.229462 0.229462 0.229462
0.255859 0.255859 0.255859
0.282196 0.282196 0.282166
0.308472 0.308472 0.308411
0.334686 0.334747 0.334656
0.360809 0.360901 0.360779
0.386810 0.386902 0.386810
0.412689 0.412781 0.412689
0.438385 0.438477 0.438385
0.463867 0.463959 0.463867
0.489105 0.489166 0.489105
0.514008 0.514069 0.513977
0.122192 0.122192 0.122192
0.147797 0.147797 0.147797
0.173889 0.173889 0.173889
0.200348 0.200348 0.200348
0.226654 0.226654 0.226654
0.252991 0.252991 0.252991
0.279358 0.279358 0.279327
0.305634 0.305664 0.305603
0.331848 0.331909 0.331787
0.357971 0.358063 0.357971
0.384033 0.384094 0.384033
0.409912 0.410004 0.409912
0.435608 0.435699 0.435608
0.461182 0.461243 0.461182
0.486389 0.486450 0.486389
0.511353 0.511414 0.511322
0.536041 0.536102 0.536011
0.145050 0.145050 0.145050
0.171234 0.171234 0.171234
0.197449 0.197449 0.197449
0.223907 0.223907 0.223907
0.250183 0.250183 0.250183
0.276489 0.276489 0.276489
0.302765 0.302765 0.302734
0.329071 0.329102 0.329010
0.355194 0.355255 0.355164
0.381226 0.381317 0.381226
0.407135 0.407227 0.407135
0.432892 0.432953 0.432892
0.458374 0.458466 0.458374
0.483704 0.483765 0.483704
0.508667 0.508728 0.508636
0.533386 0.533447 0.533356
0.557831 0.557922 0.557800
0.168365 0.168365 0.168365
0.194763 0.194763 0.194763
0.221039 0.221039 0.221039
0.247345 0.247345 0.247345
0.273651 0.273651 0.273651
0.299957 0.299957 0.299927
0.326172 0.326202 0.326111
0.352356 0.352448 0.352356
0.378387 0.378479 0.378387
0.404327 0.404419 0.404327
0.430084 0.430176 0.430084
0.455658 0.455719 0.455658
0.480988 0.481049 0.480957
0.505981 0.506042 0.505981
0.530731 0.530792 0.530701
0.555206 0.555298 0.555176
0.579437 0.579529 0.579407
0.191925 0.191925 0.191925
0.218384 0.218384 0.218384
0.244568 0.244568 0.244568
0.270874 0.270874 0.270874
0.297180 0.297180 0.297119
0.323425 0.323456 0.323395
0.349548 0.349640 0.349548
0.375610 0.375702 0.375610
0.401550 0.401642 0.401550
0.427368 0.427429 0.427368
0.452942 0.453003 0.452942
0.478241 0.478333 0.478241
0.503326 0.503387 0.503296
0.528076 0.528137 0.528046
0.552582 0.552673 0.552551
0.576813 0.576904 0.576782
0.600830 0.600922 0.600830
0.215515 0.215515 0.215515
0.242004 0.242004 0.242004
0.268036 0.268036 0.268036
0.294403 0.294403 0.294373
0.320648 0.320648 0.320587
0.346771 0.346832 0.346741
0.372803 0.372894 0.372803
0.398773 0.398865 0.398773
0.424591 0.424683 0.424591
0.450195 0.450256 0.450195
0.475525 0.475616 0.475525
0.500580 0.500641 0.500549
0.525452 0.525513 0.525391
0.549927 0.550018 0.549896
0.574249 0.574341 0.574219
0.598267 0.598389 0.598267
0.622009 0.622101 0.622009
0.239288 0.239288 0.239288
0.265472 0.265472 0.265472
0.291595 0.291595 0.291565
0.317841 0.317871 0.317780
0.343964 0.344025 0.343933
0.370026 0.370117 0.370026
0.396027 0.396118 0.396027
0.421814 0.421906 0.421814
0.447479 0.447540 0.447479
0.472809 0.472900 0.472809
0.497955 0.498016 0.497925
0.522797 0.522858 0.522766
0.547302 0.547394 0.547272
0.571594 0.571686 0.571564
0.595673 0.595764 0.595673
0.619507 0.619568 0.619507
0.643097 0.643188 0.643066
0.262787 0.262787 0.262787
0.289001 0.289001 0.289001
0.315094 0.315094 0.315033
0.341248 0.341339 0.341217
0.367279 0.367371 0.367279
0.393280 0.393341 0.393280
0.419098 0.419189 0.419098
0.444733 0.444794 0.444733
0.470154 0.470215 0.470154
0.495239 0.495300 0.495239
0.520111 0.520172 0.520081
0.544708 0.544769 0.544678
0.569031 0.569122 0.569000
0.593048 0.593170 0.593048
0.616943 0.617035 0.616943
0.640625 0.640717 0.640594
0.664032 0.664124 0.664032
0.286346 0.286346 0.286346
0.312500 0.312531 0.312439
0.338562 0.338623 0.338531
0.364594 0.364655 0.364563
0.390503 0.390594 0.390503
0.416351 0.416412 0.416351
0.441986 0.442047 0.441986
0.467438 0.467529 0.467438
0.492615 0.492676 0.492584
0.517487 0.517548 0.517456
0.542084 0.542175 0.542084
0.566406 0.566498 0.566376
0.590485 0.590576 0.590485
0.614410 0.614502 0.614410
0.638031 0.638123 0.638000
0.661469 0.661560 0.661438
0.684814 0.684937 0.684784
0.310150 0.310150 0.310089
0.336121 0.336151 0.336060
0.361877 0.361969 0.361877
0.387756 0.387848 0.387756
0.413605 0.413666 0.413605
0.439270 0.439362 0.439270
0.464722 0.464783 0.464722
0.489960 0.490021 0.489960
0.514832 0.514893 0.514801
0.539459 0.539551 0.539429
0.563782 0.563873 0.563751
0.587952 0.588043 0.587921
0.611816 0.611908 0.611816
0.635529 0.635620 0.635498
0.659027 0.659119 0.658997
0.682312 0.682434 0.682281
0.705475 0.705597 0.705475
0.333374 0.333435 0.333344
0.359619 0.359711 0.359619
0.385193 0.385284 0.385193
0.410889 0.410980 0.410889
0.436554 0.436646 0.436554
0.462067 0.462128 0.462067
0.487244 0.487335 0.487244
0.512207 0.512299 0.512177
0.536835 0.536896 0.536804
0.561249 0.561310 0.561218
0.585358 0.585449 0.585327
0.609283 0.609406 0.609283
0.632965 0.633087 0.632965
0.656525 0.656616 0.656494
0.679840 0.679932 0.679810
0.703003 0.703094 0.702972
0.725983 0.726105 0.725983
0.015930 0.015930 0.015930
0.028290 0.028290 0.028290
0.045593 0.045593 0.045593
0.065582 0.065582 0.065582
0.087463 0.087463 0.087463
0.111328 0.111328 0.111328
0.136383 0.136383 0.136383
0.162384 0.162384 0.162384
0.188782 0.188782 0.188782
0.215149 0.215149 0.215149
0.241486 0.241486 0.241486
0.267883 0.267883 0.267883
0.294189 0.294189 0.294159
0.320465 0.320526 0.320404
0.346649 0.346710 0.346619
0.372711 0.372803 0.372711
0.398682 0.398773 0.398682
0.026764 0.026764 0.026764
0.043915 0.043915 0.043915
0.063477 0.063477 0.063477
0.085175 0.085175 0.085175
0.108765 0.108765 0.108765
0.133728 0.133728 0.133728
0.159668 0.159668 0.159668
0.185913 0.185913 0.185913
0.212311 0.212311 0.212311
0.238708 0.238708 0.238708
0.265076 0.265076 0.265076
0.291382 0.291382 0.291351
0.317627 0.317657 0.317596
0.343842 0.343903 0.343811
0.369904 0.369995 0.369904
0.395874 0.395966 0.395874
0.421692 0.421783 0.421692
0.041351 0.041351 0.041351
0.061218 0.061218 0.061218
0.082794 0.082794 0.082794
0.106171 0.106171 0.106171
0.130920 0.130920 0.130920
0.156738 0.156738 0.156738
0.183014 0.183014 0.183014
0.209412 0.209412 0.209412
0.235809 0.235809 0.235809
0.262207 0.262207 0.262207
0.288483 0.288483 0.288452
0.314758 0.314758 0.314697
0.340973 0.341034 0.340912
0.367065 0.367157 0.367065
0.393036 0.393127 0.393036
0.418884 0.418976 0.418884
0.444458 0.444550 0.444458
0.058929 0.058929 0.058929
0.080414 0.080414 0.080414
0.103485 0.103485 0.103485
0.128265 0.128265 0.128265
0.153961 0.153961 0.153961
0.180237 0.180237 0.180237
0.206573 0.206573 0.206573
0.232971 0.232971 0.232971
0.259369 0.259369 0.259369
0.285675 0.285675 0.285645
0.311920 0.311951 0.311890
0.338165 0.338226 0.338104
0.364258 0.364349 0.364258
0.390259 0.390350 0.390259
0.416138 0.416199 0.416138
0.441803 0.441864 0.441803
0.467316 0.467377 0.467316
0.077850 0.077850 0.077850
0.100891 0.100891 0.100891
0.125488 0.125488 0.125488
0.151093 0.151093 0.151093
0.177368 0.177368 0.177368
0.203705 0.203705 0.203705
0.230133 0.230133 0.230133
0.256470 0.256470 0.256470
0.282776 0.282776 0.282776
0.309082 0.309113 0.309021
0.335327 0.335358 0.335266
0.361450 0.361542 0.361420
0.387451 0.387543 0.387451
0.413330 0.413422 0.413330
0.439026 0.439117 0.439026
0.464508 0.464569 0.464508
0.489716 0.489777 0.489716
0.098236 0.098236 0.098236
0.122833 0.122833 0.122833
0.148376 0.148376 0.148376
0.174591 0.174591 0.174591
0.200897 0.200897 0.200897
0.227295 0.227295 0.227295
0.253662 0.253662 0.253662
0.279968 0.279968 0.279968
0.306274 0.306274 0.306213
0.332520 0.332550 0.332458
0.358612 0.358704 0.358612
0.384644 0.384735 0.384644
0.410553 0.410645 0.410553
0.436249 0.436340 0.436249
0.461792 0.461884 0.461792
0.487030 0.487091 0.487030
0.511963 0.512024 0.511932
0.119995 0.119995 0.119995
0.145569 0.145569 0.145569
0.171692 0.171692 0.171692
0.198059 0.198059 0.198059
0.224487 0.224487 0.224487
0.250793 0.250793 0.250793
0.277130 0.277130 0.277100
0.303406 0.303436 0.303375
0.329681 0.329712 0.329620
0.355804 0.355865 0.355774
0.381836 0.381927 0.381836
0.407745 0.407837 0.407745
0.433502 0.433594 0.433502
0.459045 0.459106 0.459045
0.484283 0.484375 0.484283
0.509308 0.509369 0.509277
0.533997 0.534058 0.533966
0.142822 0.142822 0.142822
0.168945 0.168945 0.168945
0.195251 0.195251 0.195251
0.221619 0.221619 0.221619
0.247986 0.247986 0.247986
0.274292 0.274292 0.274292
0.300598 0.300598 0.300537
0.326874 0.326904 0.326813
0.352997 0.353088 0.352966
0.379028 0.379120 0.379028
0.404968 0.405060 0.404968
0.430725 0.430817 0.430725
0.456299 0.456360 0.456299
0.481567 0.481628 0.481567
0.506622 0.506683 0.506592
0.531342 0.531403 0.531311
0.555786 0.555878 0.555756
0.166199 0.166199 0.166199
0.192505 0.192505 0.192505
0.218750 0.218750 0.218750
0.245148 0.245148 0.245148
0.271454 0.271454 0.271454
0.297791 0.297791 0.297760
0.324036 0.324066 0.323975
0.350189 0.350281 0.350159
0.376221 0.376312 0.376221
0.402161 0.402252 0.402161
0.427948 0.428040 0.427948
0.453552 0.453613 0.453552
0.478882 0.478943 0.478882
0.503906 0.503967 0.503876
0.528687 0.528748 0.528656
0.553192 0.553284 0.553162
0.577362 0.577484 0.577362
0.189758 0.189758 0.189758
0.216156 0.216156 0.216156
0.242340 0.242340 0.242340
0.268677 0.268677 0.268677
0.294952 0.294952 0.294922
0.321198 0.321228 0.321167
0.347351 0.347443 0.347321
0.373413 0.373505 0.373413
0.399384 0.399475 0.399384
0.425171 0.425232 0.425171
0.450775 0.450867 0.450775
0.476135 0.476196 0.476135
0.501251 0.501312 0.501221
0.526001 0.526062 0.525970
0.550537 0.550629 0.550507
0.574799 0.574890 0.574768
0.598785 0.598907 0.598785
0.213318 0.213318 0.213318
0.239655 0.239655 0.239655
0.265869 0.265869 0.265869
0.292206 0.292206 0.292175
0.318420 0.318420 0.318359
0.344574 0.344635 0.344543
0.370605 0.370697 0.370605
0.396606 0.396698 0.396606
0.422424 0.422516 0.422424
0.448029 0.448120 0.448029
0.473389 0.473480 0.473389
0.498505 0.498566 0.498505
0.523346 0.523438 0.523315
0.547913 0.547974 0.547882
0.572205 0.572296 0.572174
0.596222 0.596344 0.596222
0.620026 0.620148 0.620026
0.237000 0.237000 0.237000
0.263214 0.263214 0.263214
0.289429 0.289429 0.289398
0.315643 0.315674 0.315582
0.341797 0.341858 0.341736
0.367859 0.367950 0.367859
0.393829 0.393921 0.393829
0.419678 0.419739 0.419678
0.445312 0.445374 0.445312
0.470703 0.470764 0.470703
0.495819 0.495911 0.495819
0.520691 0.520752 0.520660
0.545288 0.545349 0.545258
0.569580 0.569672 0.569550
0.593658 0.593750 0.593658
0.617493 0.617615 0.617493
0.641144 0.641235 0.641113
0.260437 0.260437 0.260437
0.286743 0.286743 0.286743
0.312866 0.312866 0.312805
0.338989 0.339050 0.338959
0.365051 0.365143 0.365051
0.391052 0.391144 0.391052
0.416901 0.416992 0.416901
0.442566 0.442627 0.442566
0.467987 0.468048 0.467987
0.493164 0.493225 0.493134
0.518005 0.518066 0.517975
0.542633 0.542725 0.542603
0.566986 0.567078 0.566956
0.591064 0.591156 0.591064
0.614929 0.615021 0.614929
0.638611 0.638702 0.638580
0.662048 0.662140 0.662048
0.284058 0.284058 0.284058
0.310333 0.310333 0.310272
0.336334 0.336395 0.336273
0.362335 0.362427 0.362335
0.388306 0.388397 0.388306
0.414154 0.414246 0.414154
0.439819 0.439880 0.439819
0.465271 0.465363 0.465271
0.490448 0.490509 0.490448
0.515350 0.515411 0.515320
0.539978 0.540039 0.539948
0.564362 0.564453 0.564362
0.588470 0.588562 0.588470
0.612366 0.612488 0.612366
0.636047 0.636139 0.636047
0.659546 0.659637 0.659515
0.682831 0.682953 0.682800
0.307739 0.307739 0.307678
0.333679 0.333740 0.333618
0.359650 0.359711 0.359619
0.385559 0.385651 0.385559
0.411407 0.411499 0.411407
0.437073 0.437164 0.437073
0.462524 0.462616 0.462524
0.487793 0.487885 0.487793
0.512726 0.512787 0.512695
0.537354 0.537415 0.537323
0.561768 0.561859 0.561737
0.585876 0.585968 0.585846
0.609802 0.609894 0.609802
0.633514 0.633606 0.633484
0.657043 0.657135 0.657013
0.680359 0.680481 0.680359
0.703491 0.703613 0.703491
0.331146 0.331207 0.331085
0.357269 0.357361 0.357239
0.382874 0.382965 0.382874
0.408752 0.408844 0.408752
0.434387 0.434448 0.434387
0.459869 0.459930 0.459869
0.485077 0.485138 0.485077
0.510071 0.510132 0.510040
0.534729 0.534821 0.534698
0.559174 0.559265 0.559143
0.583313 0.583405 0.583282
0.607239 0.607330 0.607239
0.630981 0.631073 0.630981
0.654510 0.654602 0.654480
0.677856 0.677948 0.677826
0.701019 0.701172 0.701019
0.724060 0.724152 0.724030
0.354523 0.354614 0.354523
0.380432 0.380524 0.380432
0.406097 0.406158 0.406097
0.431763 0.431824 0.431763
0.457214 0.457275 0.457214
0.482483 0.482544 0.482483
0.507416 0.507477 0.507416
0.532135 0.532196 0.532104
0.556580 0.556671 0.556549
0.580750 0.580841 0.580719
0.604706 0.604797 0.604706
0.628418 0.628540 0.628418
0.652008 0.652100 0.652008
0.675354 0.675446 0.675323
0.698547 0.698669 0.698547
0.721619 0.721710 0.721619
0.744446 0.744537 0.744415
0.025482 0.025482 0.025482
0.041992 0.041992 0.041992
0.061737 0.061737 0.061737
0.083374 0.083374 0.083374
0.106659 0.106659 0.106659
0.131592 0.131592 0.131592
0.157440 0.157440 0.157440
0.183807 0.183807 0.183807
0.210175 0.210175 0.210175
0.236542 0.236542 0.236542
0.262878 0.262878 0.262878
0.289215 0.289215 0.289215
0.315521 0.315521 0.315460
0.341736 0.341797 0.341705
0.367767 0.367889 0.367767
0.393768 0.393890 0.393768
0.419617 0.419708 0.419617
0.039917 0.039917 0.039917
0.059540 0.059540 0.059540
0.080933 0.080933 0.080933
