luts/Natural Skin 160.CUBE
# kravix mobile - LUTs Pack
LUT_3D_SIZE 9
0.015686 0.023529 0.019608
0.050980 0.027451 0.023529
0.156863 0.043137 0.015686
0.317647 0.054902 0.007843
0.494118 0.047059 0.000000
0.670588 0.050980 0.000000
0.800000 0.086275 0.000000
0.921569 0.149020 0.000000
1.000000 0.231373 0.000000
0.003922 0.062745 0.027451
0.047059 0.074510 0.019608
0.180392 0.098039 0.007843
0.341176 0.109804 0.000000
0.517647 0.117647 0.000000
0.686275 0.129412 0.000000
0.807843 0.152941 0.000000
0.921569 0.192157 0.000000
1.000000 0.262745 0.000000
0.000000 0.184314 0.050980
0.000000 0.176471 0.047059
0.133333 0.215686 0.000000
0.388235 0.266667 0.000000
0.560784 0.250980 0.000000
0.698039 0.247059 0.000000
0.819608 0.254902 0.000000
0.925490 0.278431 0.000000
1.000000 0.321569 0.000000
0.000000 0.337255 0.094118
0.000000 0.356863 0.105882
0.000000 0.364706 0.070588
0.305882 0.415686 0.000000
0.580392 0.443137 0.000000
0.729412 0.400000 0.000000
0.839216 0.384314 0.000000
0.933333 0.400000 0.000000
1.000000 0.423529 0.000000
0.000000 0.501961 0.184314
0.000000 0.494118 0.180392
0.000000 0.498039 0.188235
0.176471 0.529412 0.137255
0.482353 0.568627 0.000000
0.725490 0.600000 0.000000
0.835294 0.552941 0.000000
0.937255 0.517647 0.000000
1.000000 0.517647 0.000000
0.000000 0.607843 0.266667
0.000000 0.623529 0.282353
0.000000 0.615686 0.282353
0.164706 0.627451 0.266667
0.392157 0.658824 0.215686
0.596078 0.686275 0.137255
0.827451 0.717647 0.000000
0.925490 0.682353 0.000000
1.000000 0.654902 0.000000
0.000000 0.725490 0.380392
0.000000 0.737255 0.400000
0.101961 0.725490 0.384314
0.239216 0.721569 0.392157
0.384314 0.745098 0.364706
0.537255 0.764706 0.325490
0.709804 0.776471 0.258824
0.901961 0.811765 0.129412
1.000000 0.792157 0.172549
0.341176 0.827451 0.533333
0.356863 0.827451 0.537255
0.384314 0.827451 0.537255
0.431373 0.827451 0.545098
0.490196 0.831373 0.537255
0.580392 0.847059 0.517647
0.686275 0.862745 0.486275
0.815686 0.878431 0.439216
0.964706 0.901961 0.368627
0.607843 0.929412 0.721569
0.615686 0.929412 0.721569
0.627451 0.925490 0.725490
0.647059 0.929412 0.729412
0.678431 0.929412 0.737255
0.709804 0.937255 0.725490
0.760784 0.952941 0.717647
0.827451 0.964706 0.698039
0.913725 0.972549 0.670588
0.019608 0.023529 0.062745
0.054902 0.023529 0.062745
0.160784 0.019608 0.066667
0.309804 0.031373 0.070588
0.494118 0.039216 0.070588
0.658824 0.054902 0.062745
0.792157 0.094118 0.047059
0.905882 0.152941 0.043137
1.000000 0.231373 0.082353
0.003922 0.074510 0.074510
0.066667 0.082353 0.078431
0.172549 0.098039 0.082353
0.329412 0.105882 0.078431
0.509804 0.113725 0.066667
0.674510 0.133333 0.054902
0.800000 0.156863 0.054902
0.921569 0.203922 0.043137
1.000000 0.262745 0.078431
0.000000 0.207843 0.129412
0.000000 0.207843 0.113725
0.145098 0.227451 0.090196
0.384314 0.254902 0.058824
0.552941 0.235294 0.054902
0.698039 0.247059 0.035294
0.815686 0.258824 0.023529
0.925490 0.290196 0.027451
1.000000 0.325490 0.062745
0.000000 0.352941 0.168627
0.000000 0.364706 0.164706
0.015686 0.372549 0.152941
0.321569 0.415686 0.078431
0.580392 0.447059 0.000000
0.725490 0.396078 0.000000
0.843137 0.392157 0.000000
0.929412 0.396078 0.019608
1.000000 0.423529 0.086275
0.000000 0.494118 0.223529
0.000000 0.505882 0.231373
0.000000 0.501961 0.235294
0.223529 0.529412 0.200000
0.478431 0.564706 0.113725
0.721569 0.588235 0.000000
0.843137 0.549020 0.000000
0.933333 0.509804 0.000000
1.000000 0.521569 0.058824
0.000000 0.615686 0.301961
0.000000 0.623529 0.313725
0.000000 0.623529 0.317647
0.215686 0.627451 0.305882
0.396078 0.654902 0.270588
0.607843 0.686275 0.196078
0.827451 0.717647 0.019608
0.925490 0.682353 0.066667
1.000000 0.658824 0.137255
0.000000 0.725490 0.403922
0.074510 0.729412 0.407843
0.180392 0.729412 0.411765
0.286275 0.725490 0.415686
0.403922 0.745098 0.396078
0.552941 0.764706 0.356863
0.713725 0.780392 0.298039
0.898039 0.815686 0.235294
1.000000 0.792157 0.231373
0.364706 0.827451 0.549020
0.388235 0.831373 0.556863
0.411765 0.831373 0.556863
0.450980 0.827451 0.560784
0.505882 0.831373 0.556863
0.584314 0.843137 0.537255
0.694118 0.862745 0.509804
0.815686 0.874510 0.462745
0.964706 0.901961 0.400000
0.615686 0.929412 0.725490
0.619608 0.929412 0.729412
0.631373 0.925490 0.729412
0.650980 0.925490 0.733333
0.682353 0.929412 0.741176
0.713725 0.941176 0.733333
0.764706 0.952941 0.725490
0.827451 0.960784 0.701961
0.913725 0.972549 0.678431
0.003922 0.027451 0.188235
0.078431 0.023529 0.176471
0.180392 0.035294 0.180392
0.329412 0.023529 0.180392
0.529412 0.000000 0.180392
0.670588 0.000000 0.176471
0.792157 0.145098 0.203922
0.905882 0.196078 0.203922
1.000000 0.258824 0.219608
0.000000 0.094118 0.192157
0.066667 0.101961 0.200000
0.196078 0.109804 0.207843
0.349020 0.105882 0.192157
0.533333 0.058824 0.180392
0.674510 0.156863 0.211765
0.796078 0.192157 0.207843
0.905882 0.231373 0.207843
1.000000 0.294118 0.223529
0.000000 0.215686 0.211765
0.035294 0.231373 0.223529
0.200000 0.235294 0.227451
0.400000 0.258824 0.235294
0.552941 0.262745 0.223529
0.698039 0.274510 0.215686
0.803922 0.278431 0.215686
0.913725 0.309804 0.207843
1.000000 0.364706 0.235294
0.000000 0.384314 0.278431
0.137255 0.392157 0.290196
0.203922 0.396078 0.282353
0.380392 0.427451 0.250980
0.596078 0.423529 0.223529
0.717647 0.403922 0.223529
0.827451 0.400000 0.211765
0.921569 0.407843 0.211765
1.000000 0.443137 0.239216
0.141176 0.513725 0.349020
0.172549 0.529412 0.356863
0.200000 0.525490 0.337255
0.301961 0.533333 0.321569
0.505882 0.568627 0.274510
0.717647 0.580392 0.219608
0.835294 0.556863 0.231373
0.929412 0.521569 0.227451
1.000000 0.529412 0.239216
0.129412 0.627451 0.392157
0.160784 0.639216 0.400000
0.219608 0.639216 0.396078
0.305882 0.631373 0.396078
0.435294 0.658824 0.364706
0.619608 0.690196 0.321569
0.827451 0.709804 0.258824
0.921569 0.686275 0.258824
1.000000 0.654902 0.278431
0.231373 0.733333 0.466667
0.254902 0.737255 0.470588
0.301961 0.741176 0.474510
0.356863 0.733333 0.470588
0.435294 0.741176 0.454902
0.568627 0.764706 0.431373
0.733333 0.780392 0.388235
0.905882 0.823529 0.349020
0.996078 0.792157 0.341176
0.431373 0.835294 0.592157
0.431373 0.831373 0.588235
0.454902 0.831373 0.592157
0.490196 0.831373 0.596078
0.537255 0.831373 0.596078
0.603922 0.847059 0.580392
0.701961 0.862745 0.556863
0.827451 0.874510 0.517647
0.968627 0.901961 0.462745
0.627451 0.929412 0.737255
0.635294 0.929412 0.741176
0.643137 0.929412 0.741176
0.662745 0.929412 0.745098
0.690196 0.929412 0.752941
0.721569 0.937255 0.749020
0.768627 0.949020 0.737255
0.831373 0.960784 0.721569
0.917647 0.972549 0.701961
0.000000 0.035294 0.356863
0.062745 0.039216 0.356863
0.227451 0.047059 0.372549
0.388235 0.043137 0.368627
0.529412 0.043137 0.345098
0.694118 0.050980 0.337255
0.815686 0.015686 0.309804
0.917647 0.145098 0.313725
0.996078 0.286275 0.356863
0.000000 0.109804 0.364706
0.023529 0.121569 0.372549
0.235294 0.129412 0.384314
0.400000 0.145098 0.388235
0.541176 0.149020 0.360784
0.694118 0.149020 0.337255
0.815686 0.137255 0.317647
0.909804 0.231373 0.333333
0.992157 0.341176 0.372549
0.000000 0.239216 0.372549
0.000000 0.250980 0.388235
0.235294 0.262745 0.400000
0.423529 0.298039 0.415686
0.556863 0.290196 0.384314
0.698039 0.274510 0.360784
0.811765 0.294118 0.360784
0.894118 0.349020 0.376471
0.996078 0.400000 0.384314
0.000000 0.400000 0.392157
0.082353 0.415686 0.407843
0.270588 0.423529 0.415686
0.423529 0.443137 0.435294
0.572549 0.435294 0.411765
0.698039 0.431373 0.396078
0.803922 0.431373 0.392157
0.905882 0.439216 0.376471
1.000000 0.470588 0.396078
0.211765 0.533333 0.443137
0.274510 0.552941 0.458824
0.364706 0.549020 0.466667
0.415686 0.545098 0.454902
0.552941 0.576471 0.431373
0.717647 0.580392 0.419608
0.827451 0.541176 0.392157
0.917647 0.541176 0.384314
0.996078 0.545098 0.384314
0.349020 0.643137 0.509804
0.392157 0.654902 0.529412
0.407843 0.658824 0.521569
0.415686 0.650980 0.494118
0.498039 0.658824 0.478431
0.647059 0.686275 0.454902
0.819608 0.701961 0.419608
0.913725 0.678431 0.407843
1.000000 0.654902 0.407843
0.419608 0.741176 0.572549
0.423529 0.741176 0.568627
0.431373 0.745098 0.560784
0.450980 0.741176 0.549020
0.501961 0.737255 0.549020
0.600000 0.764706 0.537255
0.737255 0.776471 0.498039
0.898039 0.803922 0.462745
0.992157 0.788235 0.462745
0.509804 0.831373 0.647059
0.525490 0.835294 0.654902
0.521569 0.835294 0.647059
0.541176 0.835294 0.643137
0.580392 0.831373 0.647059
0.631373 0.843137 0.635294
0.717647 0.858824 0.615686
0.831373 0.874510 0.596078
0.972549 0.905882 0.552941
0.654902 0.929412 0.764706
0.662745 0.933333 0.768627
0.662745 0.933333 0.764706
0.678431 0.933333 0.764706
0.701961 0.929412 0.768627
0.733333 0.933333 0.772549
0.776471 0.949020 0.764706
0.839216 0.960784 0.752941
0.921569 0.972549 0.729412
0.000000 0.070588 0.541176
0.019608 0.070588 0.533333
0.258824 0.086275 0.541176
0.431373 0.109804 0.545098
0.592157 0.141176 0.556863
0.690196 0.152941 0.505882
0.819608 0.211765 0.498039
0.921569 0.247059 0.482353
1.000000 0.278431 0.462745
0.000000 0.145098 0.545098
0.015686 0.149020 0.541176
0.258824 0.168627 0.545098
0.443137 0.192157 0.560784
0.596078 0.215686 0.560784
0.694118 0.227451 0.513725
0.823529 0.266667 0.498039
0.925490 0.274510 0.474510
1.000000 0.321569 0.478431
0.000000 0.282353 0.552941
0.015686 0.286275 0.560784
0.286275 0.305882 0.572549
0.454902 0.317647 0.576471
0.596078 0.337255 0.564706
0.698039 0.341176 0.529412
0.819608 0.360784 0.521569
0.913725 0.349020 0.486275
1.000000 0.360784 0.470588
0.000000 0.411765 0.541176
0.000000 0.439216 0.568627
0.239216 0.431373 0.560784
0.443137 0.447059 0.572549
0.600000 0.466667 0.580392
0.701961 0.474510 0.552941
0.819608 0.450980 0.525490
0.905882 0.447059 0.513725
0.980392 0.490196 0.525490
0.145098 0.549020 0.545098
0.239216 0.568627 0.560784
0.333333 0.564706 0.564706
0.462745 0.572549 0.572549
0.588235 0.580392 0.584314
0.701961 0.572549 0.576471
0.800000 0.564706 0.549020
0.898039 0.572549 0.537255
0.980392 0.568627 0.525490
0.368627 0.662745 0.584314
0.403922 0.670588 0.600000
0.458824 0.670588 0.603922
0.537255 0.674510 0.615686
0.576471 0.666667 0.603922
0.670588 0.690196 0.592157
0.819608 0.698039 0.568627
0.909804 0.670588 0.549020
0.988235 0.666667 0.545098
0.494118 0.752941 0.647059
0.513725 0.752941 0.654902
0.541176 0.752941 0.654902
0.580392 0.760784 0.662745
0.584314 0.752941 0.639216
0.643137 0.760784 0.631373
0.756863 0.788235 0.619608
0.898039 0.800000 0.588235
0.988235 0.784314 0.580392
0.600000 0.835294 0.717647
0.607843 0.839216 0.721569
0.611765 0.839216 0.717647
0.611765 0.835294 0.705882
0.627451 0.839216 0.698039
0.666667 0.839216 0.698039
0.737255 0.858824 0.686275
0.839216 0.874510 0.666667
0.976471 0.909804 0.647059
0.694118 0.929412 0.800000
0.698039 0.933333 0.800000
0.701961 0.933333 0.800000
0.705882 0.933333 0.796078
0.717647 0.933333 0.792157
0.749020 0.933333 0.800000
0.788235 0.945098 0.792157
0.847059 0.960784 0.784314
0.925490 0.972549 0.764706
0.000000 0.121569 0.682353
0.086275 0.129412 0.686275
0.282353 0.141176 0.690196
0.466667 0.176471 0.694118
0.619608 0.227451 0.698039
0.741176 0.254902 0.694118
0.807843 0.274510 0.650980
0.909804 0.337255 0.635294
1.000000 0.411765 0.631373
0.000000 0.196078 0.686275
0.129412 0.203922 0.694118
0.301961 0.219608 0.698039
0.466667 0.239216 0.698039
0.627451 0.286275 0.701961
0.745098 0.309804 0.698039
0.815686 0.317647 0.654902
0.909804 0.372549 0.635294
0.996078 0.435294 0.635294
0.000000 0.301961 0.686275
0.172549 0.325490 0.698039
0.317647 0.337255 0.698039
0.474510 0.349020 0.701961
0.623529 0.388235 0.701961
0.741176 0.407843 0.701961
0.811765 0.415686 0.662745
0.905882 0.454902 0.654902
0.988235 0.466667 0.635294
0.000000 0.439216 0.682353
0.145098 0.447059 0.690196
0.317647 0.450980 0.694118
0.482353 0.466667 0.701961
0.619608 0.490196 0.701961
0.733333 0.521569 0.705882
0.803922 0.513725 0.674510
0.894118 0.537255 0.670588
0.980392 0.537255 0.654902
0.117647 0.556863 0.674510
0.211765 0.564706 0.682353
0.321569 0.564706 0.690196
0.447059 0.572549 0.690196
0.603922 0.592157 0.705882
0.717647 0.611765 0.705882
0.800000 0.611765 0.686275
0.886275 0.596078 0.662745
0.972549 0.584314 0.647059
0.321569 0.670588 0.682353
0.368627 0.678431 0.686275
0.431373 0.682353 0.698039
0.525490 0.686275 0.694118
0.615686 0.686275 0.701961
0.709804 0.694118 0.713725
0.796078 0.686275 0.694118
0.878431 0.678431 0.682353
0.964706 0.682353 0.670588
0.509804 0.764706 0.709804
0.529412 0.764706 0.713725
0.560784 0.768627 0.717647
0.603922 0.764706 0.721569
0.662745 0.764706 0.729412
0.701961 0.764706 0.721569
0.776471 0.792157 0.721569
0.894118 0.800000 0.705882
0.980392 0.772549 0.686275
0.619608 0.843137 0.764706
0.631373 0.847059 0.764706
0.647059 0.843137 0.768627
0.678431 0.847059 0.772549
0.713725 0.847059 0.780392
0.713725 0.847059 0.760784
0.760784 0.858824 0.756863
0.854902 0.878431 0.749020
0.972549 0.898039 0.733333
0.729412 0.937255 0.839216
0.733333 0.933333 0.839216
0.745098 0.937255 0.843137
0.749020 0.933333 0.839216
0.756863 0.937255 0.831373
0.768627 0.941176 0.827451
0.803922 0.945098 0.831373
0.858824 0.960784 0.823529
0.933333 0.972549 0.811765
0.172549 0.207843 0.803922
0.239216 0.215686 0.803922
0.364706 0.231373 0.803922
0.501961 0.258824 0.803922
0.635294 0.305882 0.803922
0.764706 0.372549 0.803922
0.850980 0.392157 0.800000
0.901961 0.396078 0.760784
0.984314 0.482353 0.756863
0.192157 0.258824 0.800000
0.262745 0.270588 0.803922
0.376471 0.282353 0.803922
0.501961 0.305882 0.803922
0.635294 0.345098 0.803922
0.764706 0.411765 0.807843
0.847059 0.423529 0.800000
0.898039 0.423529 0.760784
0.980392 0.505882 0.760784
0.235294 0.356863 0.803922
0.298039 0.372549 0.803922
0.388235 0.372549 0.800000
0.513725 0.400000 0.803922
0.639216 0.427451 0.803922
0.756863 0.474510 0.803922
0.850980 0.490196 0.800000
0.894118 0.498039 0.768627
0.972549 0.537255 0.760784
0.247059 0.466667 0.792157
0.305882 0.474510 0.800000
0.400000 0.478431 0.796078
0.513725 0.494118 0.800000
0.639216 0.521569 0.800000
0.749020 0.564706 0.800000
0.835294 0.584314 0.803922
0.886275 0.576471 0.776471
0.964706 0.615686 0.776471
0.168627 0.560784 0.780392
0.254902 0.572549 0.788235
0.364706 0.576471 0.788235
0.505882 0.592157 0.792157
0.627451 0.607843 0.796078
0.741176 0.639216 0.803922
0.823529 0.658824 0.803922
0.878431 0.650980 0.780392
0.960784 0.670588 0.780392
0.329412 0.674510 0.776471
0.368627 0.678431 0.780392
0.423529 0.682353 0.784314
0.501961 0.682353 0.784314
0.596078 0.690196 0.788235
0.729412 0.705882 0.803922
0.819608 0.725490 0.803922
0.878431 0.725490 0.792157
0.960784 0.717647 0.784314
0.494118 0.780392 0.788235
0.498039 0.776471 0.788235
0.533333 0.776471 0.788235
0.584314 0.772549 0.788235
0.650980 0.776471 0.792157
0.729412 0.784314 0.800000
0.807843 0.792157 0.811765
0.874510 0.780392 0.792157
0.960784 0.780392 0.784314
0.635294 0.854902 0.811765
0.647059 0.858824 0.815686
0.662745 0.858824 0.819608
0.694118 0.858824 0.823529
0.733333 0.862745 0.827451
0.776471 0.858824 0.831373
0.803922 0.862745 0.827451
0.870588 0.882353 0.823529
0.972549 0.886275 0.811765
0.733333 0.941176 0.870588
0.737255 0.941176 0.870588
0.749020 0.941176 0.870588
0.764706 0.941176 0.870588
0.788235 0.941176 0.874510
0.823529 0.949020 0.882353
0.827451 0.949020 0.870588
0.870588 0.960784 0.870588
0.945098 0.976471 0.862745
0.368627 0.329412 0.894118
0.396078 0.333333 0.890196
0.466667 0.349020 0.894118
0.560784 0.368627 0.890196
0.666667 0.403922 0.886275
0.768627 0.450980 0.882353
0.858824 0.517647 0.882353
0.929412 0.537255 0.878431
0.980392 0.545098 0.862745
0.372549 0.356863 0.886275
0.407843 0.368627 0.890196
0.470588 0.380392 0.890196
0.564706 0.400000 0.890196
0.670588 0.439216 0.886275
0.772549 0.482353 0.886275
0.858824 0.541176 0.882353
0.929412 0.556863 0.882353
0.976471 0.564706 0.862745
0.403922 0.439216 0.890196
0.427451 0.439216 0.886275
0.494118 0.454902 0.890196
0.572549 0.466667 0.886275
0.674510 0.494118 0.886275
0.772549 0.533333 0.882353
0.854902 0.580392 0.882353
0.921569 0.596078 0.878431
0.964706 0.603922 0.858824
0.403922 0.521569 0.882353
0.443137 0.529412 0.886275
0.501961 0.533333 0.882353
0.588235 0.556863 0.886275
0.678431 0.568627 0.882353
0.768627 0.607843 0.882353
0.858824 0.647059 0.882353
0.917647 0.650980 0.882353
0.956863 0.650980 0.858824
0.388235 0.600000 0.874510
0.427451 0.607843 0.878431
0.490196 0.615686 0.878431
0.580392 0.627451 0.886275
0.666667 0.639216 0.878431
0.760784 0.662745 0.882353
0.843137 0.690196 0.878431
0.905882 0.705882 0.882353
0.949020 0.698039 0.862745
0.376471 0.686275 0.866667
0.403922 0.690196 0.870588
0.450980 0.690196 0.870588
0.533333 0.690196 0.870588
0.639216 0.709804 0.874510
0.745098 0.721569 0.878431
0.839216 0.752941 0.886275
0.905882 0.768627 0.886275
0.952941 0.764706 0.874510
0.486275 0.780392 0.866667
0.501961 0.784314 0.870588
0.533333 0.784314 0.870588
0.584314 0.784314 0.870588
0.639216 0.784314 0.870588
0.705882 0.780392 0.870588
0.815686 0.800000 0.878431
0.898039 0.823529 0.890196
0.956863 0.827451 0.882353
0.607843 0.866667 0.874510
0.611765 0.866667 0.874510
0.631373 0.866667 0.874510
0.666667 0.866667 0.878431
0.713725 0.870588 0.882353
0.764706 0.870588 0.882353
0.827451 0.878431 0.890196
0.898039 0.890196 0.898039
0.968627 0.878431 0.882353
0.733333 0.945098 0.905882
0.745098 0.949020 0.909804
0.752941 0.949020 0.905882
0.772549 0.949020 0.909804
0.800000 0.949020 0.913725
0.831373 0.952941 0.913725
0.870588 0.956863 0.921569
0.898039 0.960784 0.917647
0.960784 0.976471 0.917647
0.552941 0.494118 0.968627
0.572549 0.501961 0.968627
0.607843 0.509804 0.968627
0.666667 0.525490 0.964706
0.737255 0.556863 0.960784
0.815686 0.592157 0.960784
0.882353 0.627451 0.952941
0.945098 0.674510 0.952941
1.000000 0.682353 0.952941
0.556863 0.509804 0.964706
0.576471 0.521569 0.964706
0.615686 0.533333 0.964706
0.674510 0.549020 0.964706
0.745098 0.572549 0.960784
0.811765 0.603922 0.956863
0.878431 0.639216 0.952941
0.941176 0.678431 0.949020
1.000000 0.694118 0.956863
0.568627 0.556863 0.964706
0.588235 0.564706 0.964706
0.623529 0.572549 0.964706
0.678431 0.588235 0.960784
0.741176 0.607843 0.960784
0.811765 0.635294 0.956863
0.878431 0.662745 0.952941
0.941176 0.705882 0.956863
0.996078 0.713725 0.952941
0.576471 0.619608 0.960784
0.600000 0.623529 0.964706
0.631373 0.631373 0.964706
0.682353 0.639216 0.960784
0.745098 0.658824 0.960784
0.811765 0.678431 0.956863
0.878431 0.701961 0.952941
0.937255 0.733333 0.952941
0.992157 0.741176 0.956863
0.572549 0.674510 0.960784
0.588235 0.678431 0.964706
0.619608 0.682353 0.960784
0.670588 0.694118 0.960784
0.741176 0.705882 0.960784
0.807843 0.721569 0.960784
0.870588 0.741176 0.956863
0.933333 0.764706 0.952941
0.988235 0.776471 0.956863
0.529412 0.733333 0.956863
0.552941 0.737255 0.960784
0.584314 0.741176 0.960784
0.639216 0.741176 0.956863
0.709804 0.745098 0.960784
0.792157 0.764706 0.960784
0.866667 0.784314 0.960784
0.929412 0.807843 0.956863
0.984314 0.819608 0.960784
0.560784 0.811765 0.956863
0.572549 0.815686 0.960784
0.592157 0.811765 0.956863
0.631373 0.815686 0.960784
0.674510 0.807843 0.960784
0.756863 0.811765 0.960784
0.847059 0.827451 0.960784
0.929412 0.854902 0.964706
0.980392 0.866667 0.964706
0.650980 0.898039 0.960784
0.658824 0.898039 0.964706
0.670588 0.898039 0.964706
0.694118 0.898039 0.964706
0.725490 0.894118 0.964706
0.768627 0.894118 0.968627
0.819608 0.890196 0.968627
0.913725 0.901961 0.972549
0.980392 0.921569 0.972549
0.729412 0.964706 0.964706
0.729412 0.964706 0.964706
0.741176 0.964706 0.968627
0.760784 0.968627 0.968627
0.788235 0.968627 0.968627
0.823529 0.964706 0.968627
0.866667 0.968627 0.968627
0.921569 0.972549 0.976471
0.980392 0.980392 0.980392
