luts/Natural Skin 160.CUBE
# kravix mobile - LUTs Pack
LUT_3D_SIZE 5
0.015686 0.023529 0.019608
0.156863 0.043137 0.015686
0.494118 0.047059 0.000000
0.800000 0.086275 0.000000
1.000000 0.231373 0.000000
0.000000 0.184314 0.050980
0.133333 0.215686 0.000000
0.560784 0.250980 0.000000
0.819608 0.254902 0.000000
1.000000 0.321569 0.000000
0.000000 0.501961 0.184314
0.000000 0.498039 0.188235
0.482353 0.568627 0.000000
0.835294 0.552941 0.000000
1.000000 0.517647 0.000000
0.000000 0.725490 0.380392
0.101961 0.725490 0.384314
0.384314 0.745098 0.364706
0.709804 0.776471 0.258824
1.000000 0.792157 0.172549
0.607843 0.929412 0.721569
0.627451 0.925490 0.725490
0.678431 0.929412 0.737255
0.760784 0.952941 0.717647
0.913725 0.972549 0.670588
0.003922 0.027451 0.188235
0.180392 0.035294 0.180392
0.529412 0.000000 0.180392
0.792157 0.145098 0.203922
1.000000 0.258824 0.219608
0.000000 0.215686 0.211765
0.200000 0.235294 0.227451
0.552941 0.262745 0.223529
0.803922 0.278431 0.215686
1.000000 0.364706 0.235294
0.141176 0.513725 0.349020
0.200000 0.525490 0.337255
0.505882 0.568627 0.274510
0.835294 0.556863 0.231373
1.000000 0.529412 0.239216
0.231373 0.733333 0.466667
0.301961 0.741176 0.474510
0.435294 0.741176 0.454902
0.733333 0.780392 0.388235
0.996078 0.792157 0.341176
0.627451 0.929412 0.737255
0.643137 0.929412 0.741176
0.690196 0.929412 0.752941
0.768627 0.949020 0.737255
0.917647 0.972549 0.701961
0.000000 0.070588 0.541176
0.258824 0.086275 0.541176
0.592157 0.141176 0.556863
0.819608 0.211765 0.498039
1.000000 0.278431 0.462745
0.000000 0.282353 0.552941
0.286275 0.305882 0.572549
0.596078 0.337255 0.564706
0.819608 0.360784 0.521569
1.000000 0.360784 0.470588
0.145098 0.549020 0.545098
0.333333 0.564706 0.564706
0.588235 0.580392 0.584314
0.800000 0.564706 0.549020
0.980392 0.568627 0.525490
0.494118 0.752941 0.647059
0.541176 0.752941 0.654902
0.584314 0.752941 0.639216
0.756863 0.788235 0.619608
0.988235 0.784314 0.580392
0.694118 0.929412 0.800000
0.701961 0.933333 0.800000
0.717647 0.933333 0.792157
0.788235 0.945098 0.792157
0.925490 0.972549 0.764706
0.172549 0.207843 0.803922
0.364706 0.231373 0.803922
0.635294 0.305882 0.803922
0.850980 0.392157 0.800000
0.984314 0.482353 0.756863
0.235294 0.356863 0.803922
0.388235 0.372549 0.800000
0.639216 0.427451 0.803922
0.850980 0.490196 0.800000
0.972549 0.537255 0.760784
0.168627 0.560784 0.780392
0.364706 0.576471 0.788235
0.627451 0.607843 0.796078
0.823529 0.658824 0.803922
0.960784 0.670588 0.780392
0.494118 0.780392 0.788235
0.533333 0.776471 0.788235
0.650980 0.776471 0.792157
0.807843 0.792157 0.811765
0.960784 0.780392 0.784314
0.733333 0.941176 0.870588
0.749020 0.941176 0.870588
0.788235 0.941176 0.874510
0.827451 0.949020 0.870588
0.945098 0.976471 0.862745
0.552941 0.494118 0.968627
0.607843 0.509804 0.968627
0.737255 0.556863 0.960784
0.882353 0.627451 0.952941
1.000000 0.682353 0.952941
0.568627 0.556863 0.964706
0.623529 0.572549 0.964706
0.741176 0.607843 0.960784
0.878431 0.662745 0.952941
0.996078 0.713725 0.952941
0.572549 0.674510 0.960784
0.619608 0.682353 0.960784
0.741176 0.705882 0.960784
0.870588 0.741176 0.956863
0.988235 0.776471 0.956863
0.560784 0.811765 0.956863
0.592157 0.811765 0.956863
0.674510 0.807843 0.960784
0.847059 0.827451 0.960784
0.980392 0.866667 0.964706
0.729412 0.964706 0.964706
0.741176 0.964706 0.968627
0.788235 0.968627 0.968627
0.866667 0.968627 0.968627
0.980392 0.980392 0.980392
