luts/Natural Skin 160.CUBE
# kravix mobile - LUTs Pack
LUT_3D_SIZE 17
0.015686 0.023529 0.019608
0.023530 0.023529 0.021569
0.050980 0.027451 0.023529
0.094117 0.035294 0.019608
0.156863 0.043137 0.015686
0.227451 0.049019 0.013725
0.317647 0.054902 0.007843
0.403921 0.050980 0.001961
0.494118 0.047059 0.000000
0.586275 0.045098 0.000000
0.670588 0.050980 0.000000
0.741177 0.066667 0.000000
0.800000 0.086275 0.000000
0.870588 0.121568 0.000000
0.921569 0.149020 0.000000
0.968627 0.184314 0.000000
1.000000 0.231373 0.000000
0.013725 0.035294 0.025490
0.022549 0.035294 0.022549
0.054902 0.049020 0.021569
0.103921 0.053922 0.017647
0.166666 0.068628 0.015686
0.239216 0.072549 0.009804
0.319608 0.078432 0.001961
0.415686 0.078432 0.000000
0.503922 0.080392 0.000000
0.587255 0.077451 0.000000
0.674510 0.088235 0.000000
0.742157 0.099020 0.000000
0.803922 0.113726 0.000000
0.865686 0.140196 0.000000
0.923530 0.170588 0.000000
0.972549 0.201961 0.000000
1.000000 0.245098 0.000000
0.003922 0.062745 0.027451
0.015686 0.062746 0.023529
0.047059 0.074510 0.019608
0.109804 0.090196 0.011765
0.180392 0.098039 0.007843
0.252941 0.109803 0.003922
0.341176 0.109804 0.000000
0.429412 0.115686 0.000000
0.517647 0.117647 0.000000
0.601961 0.125490 0.000000
0.686275 0.129412 0.000000
0.750980 0.141176 0.000000
0.807843 0.152941 0.000000
0.872549 0.174509 0.000000
0.921569 0.192157 0.000000
0.976471 0.229411 0.000000
1.000000 0.262745 0.000000
0.000000 0.115686 0.035294
0.000981 0.116667 0.033334
0.013725 0.123530 0.029412
0.085294 0.146079 0.009804
0.174509 0.168627 0.000000
0.275490 0.173530 0.000000
0.354902 0.162745 0.000000
0.445098 0.171569 0.000000
0.533333 0.176471 0.000000
0.617647 0.184314 0.000000
0.684314 0.182353 0.000000
0.754902 0.195098 0.000000
0.813725 0.203922 0.000000
0.870588 0.218628 0.000000
0.923530 0.237255 0.000000
0.972549 0.260784 0.000000
1.000000 0.288235 0.000000
0.000000 0.184314 0.050980
0.000000 0.174510 0.049019
0.000000 0.176471 0.047059
0.023529 0.198039 0.027451
0.133333 0.215686 0.000000
0.284313 0.250980 0.000000
0.388235 0.266667 0.000000
0.472549 0.250980 0.000000
0.560784 0.250980 0.000000
0.631373 0.245098 0.000000
0.698039 0.247059 0.000000
0.764706 0.249020 0.000000
0.819608 0.254902 0.000000
0.876470 0.266667 0.000000
0.925490 0.278431 0.000000
0.974510 0.301960 0.000000
1.000000 0.321569 0.000000
0.000000 0.258823 0.068628
0.000000 0.264706 0.071568
0.000000 0.252941 0.070588
0.000000 0.273529 0.059804
0.060784 0.292157 0.021568
0.223530 0.328431 0.000000
0.374510 0.358823 0.000000
0.492157 0.359804 0.000000
0.574510 0.345098 0.000000
0.651961 0.322549 0.000000
0.715687 0.321569 0.000000
0.777451 0.320588 0.000000
0.833333 0.325490 0.000000
0.884314 0.329411 0.000000
0.931372 0.339216 0.000000
0.977451 0.352941 0.000000
1.000000 0.372549 0.000000
0.000000 0.337255 0.094118
0.000000 0.349020 0.101961
0.000000 0.356863 0.105882
0.000000 0.349020 0.098039
0.000000 0.364706 0.070588
0.156863 0.392157 0.021569
0.305882 0.415686 0.000000
0.470589 0.445098 0.000000
0.580392 0.443137 0.000000
0.656863 0.425490 0.000000
0.729412 0.400000 0.000000
0.790196 0.392157 0.000000
0.839216 0.384314 0.000000
0.890196 0.386274 0.000000
0.933333 0.400000 0.000000
0.978431 0.403922 0.000000
1.000000 0.423529 0.000000
0.000000 0.415686 0.129412
0.000000 0.432353 0.140196
0.000000 0.429412 0.141176
0.000000 0.432353 0.145098
0.000000 0.441176 0.135294
0.072549 0.457843 0.099020
0.245098 0.480393 0.047059
0.387255 0.499020 0.008823
0.545098 0.525490 0.000000
0.658824 0.528431 0.000000
0.723529 0.509804 0.000000
0.786275 0.486274 0.000000
0.849020 0.470588 0.000000
0.894117 0.458824 0.000000
0.939215 0.456863 0.000000
0.980392 0.459804 0.000000
1.000000 0.466667 0.000000
0.000000 0.501961 0.184314
0.000000 0.501961 0.186275
0.000000 0.494118 0.180392
0.000000 0.494117 0.186275
0.000000 0.498039 0.188235
0.039216 0.515686 0.168627
0.176471 0.529412 0.137255
0.333333 0.547059 0.072549
0.482353 0.568627 0.000000
0.607843 0.592157 0.000000
0.725490 0.600000 0.000000
0.782353 0.574510 0.000000
0.835294 0.552941 0.000000
0.896078 0.531373 0.000000
0.937255 0.517647 0.000000
0.986274 0.511764 0.000000
1.000000 0.517647 0.000000
0.000000 0.550980 0.221569
0.000000 0.563725 0.232353
0.000000 0.558823 0.229411
0.000000 0.559804 0.235294
0.000000 0.556863 0.233333
0.021569 0.565686 0.224510
0.150981 0.580392 0.209804
0.297059 0.596078 0.168628
0.407843 0.613725 0.133333
0.538235 0.626471 0.049020
0.668627 0.647059 0.000000
0.777451 0.658824 0.000000
0.837255 0.641177 0.000000
0.888235 0.625490 0.000000
0.931372 0.601961 0.000000
0.977451 0.589216 0.000000
1.000000 0.588235 0.000000
0.000000 0.607843 0.266667
0.000000 0.625490 0.282353
0.000000 0.623529 0.282353
0.000000 0.621568 0.282353
0.000000 0.615686 0.282353
0.031372 0.615687 0.278431
0.164706 0.627451 0.266667
0.274510 0.641177 0.241176
0.392157 0.658824 0.215686
0.488235 0.670589 0.178431
0.596078 0.686275 0.137255
0.715687 0.696079 0.021569
0.827451 0.717647 0.000000
0.876470 0.703921 0.000000
0.925490 0.682353 0.000000
0.974509 0.666667 0.000000
1.000000 0.654902 0.000000
0.000000 0.674509 0.325491
0.000000 0.677451 0.331373
0.000000 0.682353 0.337255
0.000000 0.677451 0.334313
0.000000 0.678431 0.339216
0.088235 0.673530 0.336275
0.194118 0.678432 0.327451
0.283334 0.690196 0.316667
0.376471 0.701961 0.294118
0.466667 0.712745 0.268627
0.556863 0.725490 0.239215
0.659804 0.738235 0.198039
0.760784 0.745098 0.096078
0.860784 0.761765 0.034314
0.917647 0.752941 0.017647
0.965686 0.740196 0.040196
1.000000 0.729412 0.088235
0.000000 0.725490 0.380392
0.000000 0.727451 0.384314
0.000000 0.737255 0.400000
0.019608 0.725490 0.384314
0.101961 0.725490 0.384314
0.182353 0.725490 0.390196
0.239216 0.721569 0.392157
0.319608 0.737255 0.384313
0.384314 0.745098 0.364706
0.462745 0.756863 0.352941
0.537255 0.764706 0.325490
0.625490 0.768628 0.292156
0.709804 0.776471 0.258824
0.803921 0.788235 0.201961
0.901961 0.811765 0.129412
0.956862 0.809804 0.150981
1.000000 0.792157 0.172549
0.166666 0.782353 0.460785
0.174510 0.777451 0.452941
0.190196 0.780392 0.454902
0.233333 0.780392 0.460785
0.264706 0.782353 0.464706
0.297059 0.779412 0.461765
0.331372 0.776471 0.460784
0.377451 0.780392 0.460784
0.429412 0.792157 0.458824
0.481372 0.796078 0.433334
0.554902 0.811764 0.431372
0.612745 0.812745 0.399020
0.684314 0.819608 0.368627
0.766667 0.828431 0.338235
0.841176 0.839216 0.313725
0.930392 0.854902 0.262745
0.996078 0.860785 0.258823
0.341176 0.827451 0.533333
0.352941 0.829412 0.539216
0.356863 0.827451 0.537255
0.368627 0.827451 0.537255
0.384314 0.827451 0.537255
0.407843 0.825490 0.541176
0.431373 0.827451 0.545098
0.462745 0.827451 0.550980
0.490196 0.831373 0.537255
0.533333 0.841176 0.531373
0.580392 0.847059 0.517647
0.627451 0.854902 0.505883
0.686275 0.862745 0.486275
0.749019 0.868627 0.464706
0.815686 0.878431 0.439216
0.886274 0.884314 0.403921
0.964706 0.901961 0.368627
0.476471 0.876471 0.623529
0.485294 0.876471 0.629412
0.488236 0.876471 0.627451
0.500980 0.877451 0.631373
0.505883 0.876471 0.631373
0.529412 0.878432 0.637255
0.543138 0.878432 0.641177
0.562745 0.878432 0.642157
0.580392 0.878432 0.639215
0.614706 0.889216 0.639215
0.649019 0.898039 0.641177
0.679412 0.901961 0.626470
0.715686 0.907843 0.607843
0.762745 0.915686 0.593137
0.809804 0.919608 0.576470
0.866667 0.928431 0.558823
0.923530 0.929412 0.511764
0.607843 0.929412 0.721569
0.611765 0.927451 0.721569
0.615686 0.929412 0.721569
0.617647 0.925490 0.721569
0.627451 0.925490 0.725490
0.637255 0.929412 0.729412
0.647059 0.929412 0.729412
0.660784 0.927451 0.731372
0.678431 0.929412 0.737255
0.694118 0.935294 0.733333
0.709804 0.937255 0.725490
0.733333 0.945098 0.721569
0.760784 0.952941 0.717647
0.792157 0.954902 0.705882
0.827451 0.964706 0.698039
0.872550 0.966666 0.682353
0.913725 0.972549 0.670588
0.017647 0.023529 0.033334
0.027451 0.025490 0.031372
0.047059 0.025490 0.031372
0.097059 0.026471 0.035294
0.150981 0.027451 0.031372
0.228432 0.042157 0.034313
0.305882 0.047059 0.033334
0.400981 0.045098 0.029412
0.490196 0.041177 0.021568
0.577451 0.042157 0.015686
0.658824 0.047059 0.007843
0.730392 0.065686 0.004902
0.796079 0.090196 0.003921
0.854902 0.117647 0.000000
0.909804 0.149019 0.000000
0.960784 0.183333 0.000981
1.000000 0.225490 0.011765
0.014706 0.037255 0.036275
0.025981 0.039706 0.035784
0.057843 0.043137 0.036275
0.107843 0.051961 0.036275
0.161765 0.060784 0.036275
0.233824 0.066667 0.035294
0.313725 0.071569 0.031372
0.411274 0.072059 0.024510
0.496078 0.076471 0.017647
0.590196 0.078922 0.013235
0.664706 0.084313 0.006863
0.736274 0.099020 0.003922
0.797058 0.115686 0.001961
0.858823 0.140196 0.000000
0.908824 0.163726 0.000000
0.961765 0.197549 0.000490
1.000000 0.237255 0.011765
0.009804 0.064706 0.041176
0.019608 0.070588 0.044118
0.045098 0.082353 0.041176
0.115686 0.086275 0.034313
0.180392 0.092157 0.033333
0.249020 0.099020 0.029412
0.335294 0.105882 0.027451
0.423529 0.111765 0.019608
0.509804 0.119608 0.011765
0.598039 0.121568 0.009804
0.670588 0.127451 0.007843
0.742157 0.139215 0.002941
0.800000 0.149020 0.000000
0.861765 0.171569 0.000000
0.913725 0.196078 0.000000
0.965687 0.224510 0.000000
1.000000 0.256863 0.005882
0.001961 0.118628 0.060784
0.004412 0.125000 0.060294
0.019608 0.130392 0.056863
0.092647 0.146079 0.039216
0.184314 0.163725 0.020588
0.274510 0.165686 0.020098
0.361765 0.165686 0.015686
0.448039 0.172549 0.009314
0.536274 0.177451 0.007843
0.615196 0.181373 0.002941
0.684314 0.185294 0.000000
0.748529 0.194118 0.000490
0.808824 0.201960 0.000000
0.868628 0.222549 0.000000
0.918627 0.237255 0.000000
0.967647 0.259314 0.000000
1.000000 0.294118 0.007843
0.000000 0.188236 0.080393
0.000000 0.184314 0.075490
0.000000 0.180393 0.074510
0.041177 0.200981 0.059804
0.147058 0.223529 0.037254
0.280392 0.256863 0.003922
0.378432 0.254902 0.000000
0.476471 0.247059 0.000000
0.558823 0.243138 0.000000
0.634314 0.242157 0.000000
0.700000 0.243137 0.000000
0.760784 0.251961 0.000000
0.815686 0.254902 0.000000
0.877451 0.271568 0.000000
0.921569 0.280392 0.000000
0.971569 0.304902 0.000000
1.000000 0.317647 0.001961
0.000000 0.260784 0.096078
0.000000 0.269608 0.097059
0.000000 0.270588 0.100000
0.002451 0.279412 0.091667
0.078431 0.300000 0.069608
0.234804 0.327941 0.021569
0.372549 0.355882 0.000000
0.494608 0.356863 0.000000
0.573530 0.343137 0.000000
0.649510 0.325490 0.000000
0.712745 0.314706 0.000000
0.774019 0.320588 0.000000
0.827451 0.323530 0.000000
0.880392 0.328922 0.000000
0.930392 0.341176 0.000000
0.975000 0.353431 0.000000
1.000000 0.372549 0.006863
0.000000 0.347059 0.123529
0.000000 0.358823 0.127451
0.000000 0.352942 0.123529
0.000000 0.357843 0.127451
0.000000 0.368627 0.107843
0.168627 0.395098 0.068628
0.311764 0.415686 0.011765
0.480392 0.441176 0.000000
0.580392 0.447059 0.000000
0.660784 0.423530 0.000000
0.721569 0.398039 0.000000
0.783333 0.384314 0.000000
0.839216 0.386274 0.000000
0.887255 0.387255 0.000000
0.933333 0.392157 0.000000
0.978431 0.402941 0.000000
1.000000 0.419608 0.007843
0.000000 0.428431 0.156863
0.000000 0.436275 0.162745
0.000000 0.436275 0.164706
0.000000 0.432843 0.168137
0.000000 0.440196 0.158824
0.085784 0.458334 0.133824
0.250980 0.477451 0.093137
0.407353 0.498529 0.029412
0.551961 0.522549 0.000000
0.658333 0.526961 0.000000
0.722549 0.504902 0.000000
0.786765 0.480882 0.000000
0.841177 0.466667 0.000000
0.889706 0.452451 0.000000
0.937255 0.455882 0.000000
0.978922 0.458823 0.000000
1.000000 0.472549 0.003921
0.000000 0.486275 0.190196
0.000000 0.500000 0.201961
0.000000 0.500000 0.203922
0.000000 0.500000 0.206863
0.000000 0.496078 0.205882
0.050000 0.511765 0.188236
0.201960 0.527451 0.162745
0.338235 0.549019 0.121569
0.472549 0.568628 0.035294
0.612745 0.590196 0.000000
0.721569 0.594118 0.000000
0.786274 0.570588 0.000000
0.835294 0.554902 0.000000
0.890196 0.535294 0.000000
0.937255 0.525490 0.000000
0.980392 0.514706 0.000000
1.000000 0.517647 0.000000
0.000000 0.556863 0.241176
0.000000 0.565196 0.249020
0.000000 0.564706 0.250000
0.000000 0.563725 0.250490
0.000000 0.560784 0.252941
0.044608 0.565196 0.243627
0.179412 0.584314 0.229412
0.300000 0.598039 0.200000
0.414706 0.614706 0.161765
0.544608 0.628922 0.087745
0.669608 0.649020 0.026471
0.770098 0.655883 0.000000
0.833333 0.646079 0.000000
0.885294 0.623529 0.000000
0.931372 0.608824 0.000000
0.979902 0.590686 0.000490
1.000000 0.582353 0.005882
0.000000 0.613725 0.284313
0.000000 0.621568 0.292157
0.000000 0.619608 0.292157
0.000000 0.619608 0.296078
0.000000 0.619608 0.296079
0.055883 0.619608 0.296079
0.182353 0.627451 0.282353
0.285294 0.642157 0.264706
0.386274 0.660784 0.243138
0.495098 0.669608 0.200980
0.603922 0.684314 0.152941
0.720588 0.698039 0.063725
0.827451 0.717647 0.000000
0.880392 0.699020 0.000000
0.927451 0.680392 0.000000
0.972549 0.665687 0.008823
1.000000 0.656863 0.060785
0.000000 0.675490 0.339216
0.000000 0.682353 0.346569
0.000000 0.680392 0.346078
0.000000 0.678922 0.346569
0.025490 0.677451 0.347059
0.127941 0.676961 0.350490
0.207843 0.676471 0.343137
0.296569 0.688235 0.325980
0.379412 0.701961 0.310784
0.472549 0.714216 0.287745
0.559804 0.724509 0.259804
0.663725 0.734804 0.214706
0.762745 0.749019 0.157843
0.859314 0.760784 0.072549
0.918627 0.756863 0.072549
0.963726 0.743137 0.097059
1.000000 0.730392 0.133333
0.000000 0.725490 0.388235
0.000000 0.731372 0.396079
0.000000 0.729412 0.396079
0.082353 0.729412 0.399020
0.154902 0.731372 0.403921
0.206863 0.726471 0.402941
0.256862 0.721569 0.400000
0.317647 0.731372 0.390196
0.382353 0.741176 0.376471
0.460785 0.751961 0.358823
0.541176 0.760784 0.335294
0.628432 0.772549 0.307843
0.711765 0.780392 0.276471
0.800981 0.787255 0.228432
0.901961 0.811765 0.160784
0.955882 0.801961 0.168627
1.000000 0.796078 0.196078
0.183334 0.780392 0.460784
0.208333 0.781863 0.465686
0.223529 0.781372 0.465686
0.255392 0.783824 0.471569
0.270588 0.779412 0.467647
0.311275 0.779412 0.470588
0.344118 0.776470 0.471569
0.388726 0.781373 0.471078
0.437255 0.791176 0.463726
0.491176 0.799510 0.451471
0.550980 0.806863 0.433333
0.620588 0.814216 0.409804
0.688236 0.819608 0.384314
0.771079 0.828431 0.350000
0.845098 0.836275 0.319608
0.929902 0.851471 0.276471
0.994117 0.860784 0.276471
0.349020 0.827451 0.539216
0.364706 0.829412 0.546078
0.370588 0.831373 0.547059
0.380392 0.828431 0.545098
0.401961 0.831373 0.552941
0.417647 0.825490 0.548039
0.443137 0.827451 0.550980
0.468627 0.828431 0.555882
0.498039 0.831373 0.549019
0.538235 0.839216 0.537255
0.578431 0.847059 0.525490
0.632353 0.853921 0.513725
0.686275 0.860785 0.492157
0.749019 0.869608 0.473529
0.815686 0.874510 0.447059
0.886274 0.884314 0.415686
0.964706 0.901961 0.382353
0.497059 0.879412 0.638235
0.493627 0.876961 0.633333
0.506863 0.879412 0.641176
0.508824 0.878432 0.637255
0.516666 0.879412 0.638235
0.528922 0.876961 0.637745
0.550980 0.880393 0.646079
0.569117 0.878432 0.649020
0.591176 0.881373 0.650980
0.613725 0.886275 0.641667
0.645098 0.895098 0.637255
0.678431 0.900490 0.624510
0.713726 0.904902 0.607843
0.763235 0.913235 0.594608
0.810784 0.921569 0.581372
0.864706 0.925980 0.556863
0.923530 0.932353 0.528431
0.607843 0.925490 0.721569
0.613725 0.926470 0.724510
0.617647 0.927451 0.723529
0.622549 0.927451 0.726471
0.629412 0.927451 0.727451
0.639215 0.929412 0.730392
0.649020 0.929412 0.731372
0.663726 0.929412 0.736274
0.678431 0.929412 0.737255
0.694118 0.935294 0.735294
0.711765 0.939215 0.731372
0.733333 0.945098 0.724510
0.760784 0.950981 0.719608
0.792157 0.954902 0.708823
0.827451 0.960784 0.698039
0.871569 0.968627 0.687255
0.913725 0.972549 0.674510
0.019608 0.023529 0.062745
0.033334 0.025490 0.058824
0.054902 0.023529 0.062745
0.094117 0.023529 0.062746
0.160784 0.019608 0.066667
0.237255 0.015686 0.060784
0.309804 0.031373 0.070588
0.407843 0.039216 0.076470
0.494118 0.039216 0.070588
0.582353 0.041177 0.068628
0.658824 0.054902 0.062745
0.733333 0.074510 0.058824
0.792157 0.094118 0.047059
0.854902 0.123529 0.047059
0.905882 0.152941 0.043137
0.960784 0.190196 0.052941
1.000000 0.231373 0.082353
0.007843 0.039216 0.064706
0.029412 0.044118 0.069608
0.062745 0.047059 0.072549
0.104902 0.046078 0.066666
0.162745 0.047059 0.068628
0.238235 0.061765 0.071569
0.317647 0.072549 0.074510
0.414706 0.074510 0.076470
0.500000 0.072549 0.072549
0.589216 0.077451 0.065686
0.666667 0.092157 0.066666
0.733333 0.101961 0.051960
0.794118 0.119608 0.049019
0.855882 0.147059 0.050000
0.911764 0.174510 0.049020
0.962745 0.206863 0.056863
1.000000 0.239216 0.064706
0.003922 0.074510 0.074510
0.023529 0.076470 0.074510
0.066667 0.082353 0.078431
0.117647 0.090196 0.080392
0.172549 0.098039 0.082353
0.252941 0.103921 0.078432
0.329412 0.105882 0.078431
0.427451 0.111765 0.076470
0.509804 0.113725 0.066667
0.601961 0.125491 0.066666
0.674510 0.133333 0.054902
0.741176 0.141176 0.049019
0.800000 0.156863 0.054902
0.862745 0.176471 0.047059
0.921569 0.203922 0.043137
0.962745 0.225490 0.054902
1.000000 0.262745 0.078431
0.001961 0.129412 0.092157
0.023530 0.132353 0.095098
0.041176 0.139216 0.096078
0.103921 0.146078 0.085294
0.186275 0.158824 0.072549
0.275490 0.161765 0.074510
0.360784 0.166666 0.068628
0.453921 0.173530 0.069608
0.537254 0.172549 0.058824
0.614706 0.181372 0.055883
0.686275 0.188236 0.052941
0.751961 0.196078 0.048039
0.811764 0.209804 0.037255
0.871568 0.227451 0.043137
0.917647 0.241177 0.043137
0.965686 0.263726 0.057843
1.000000 0.290196 0.068628
0.000000 0.207843 0.129412
0.000000 0.196078 0.119608
0.000000 0.207843 0.113725
0.062746 0.201960 0.103921
0.145098 0.227451 0.090196
0.290196 0.249020 0.062746
0.384314 0.254902 0.058824
0.474510 0.237255 0.054902
0.552941 0.235294 0.054902
0.635294 0.250980 0.043137
0.698039 0.247059 0.035294
0.758823 0.250980 0.033334
0.815686 0.258824 0.023529
0.870588 0.270589 0.029412
0.925490 0.290196 0.027451
0.968627 0.307843 0.052942
1.000000 0.325490 0.062745
0.000000 0.276471 0.139216
0.000000 0.280392 0.135294
0.000000 0.280392 0.133333
0.011765 0.287255 0.133333
0.092157 0.305883 0.117647
0.250981 0.334314 0.084314
0.390196 0.350981 0.035294
0.497059 0.350981 0.016667
0.578431 0.333334 0.013726
0.652941 0.324510 0.012745
0.711765 0.317647 0.009804
0.771569 0.317647 0.009804
0.825490 0.327451 0.003921
0.878432 0.335294 0.018627
0.931372 0.341176 0.017647
0.976471 0.359804 0.037255
1.000000 0.380392 0.076470
0.000000 0.352941 0.168627
0.000000 0.366667 0.160784
0.000000 0.364706 0.164706
0.000000 0.362745 0.162745
0.015686 0.372549 0.152941
0.190196 0.398039 0.123529
0.321569 0.415686 0.078431
0.490196 0.445098 0.000000
0.580392 0.447059 0.000000
0.656863 0.421569 0.000000
0.725490 0.396078 0.000000
0.786274 0.388235 0.000000
0.843137 0.392157 0.000000
0.888235 0.386274 0.000000
0.929412 0.396078 0.019608
0.972549 0.403922 0.031372
1.000000 0.423529 0.086275
0.000000 0.429412 0.190196
0.000000 0.440196 0.197059
0.000000 0.441176 0.196078
0.000000 0.442157 0.199020
0.000000 0.437255 0.194118
0.135294 0.459804 0.175490
0.268628 0.478432 0.141177
0.407843 0.500980 0.089216
0.560785 0.519608 0.013725
0.656863 0.522549 0.000000
0.723529 0.501961 0.000000
0.785294 0.478431 0.000000
0.841176 0.458824 0.000000
0.891176 0.456863 0.000000
0.935294 0.454902 0.001961
0.977451 0.464706 0.021569
1.000000 0.478432 0.084313
0.000000 0.494118 0.223529
0.000000 0.505882 0.229412
0.000000 0.505882 0.231373
0.000000 0.503922 0.235294
0.000000 0.501961 0.235294
0.098039 0.517647 0.223529
0.223529 0.529412 0.200000
0.352941 0.547059 0.160784
0.478431 0.564706 0.113725
0.625490 0.588235 0.031372
0.721569 0.588235 0.000000
0.782353 0.568627 0.000000
0.843137 0.549020 0.000000
0.894117 0.539216 0.000000
0.933333 0.509804 0.000000
0.976471 0.517647 0.015686
1.000000 0.521569 0.058824
0.000000 0.564705 0.266667
0.000000 0.570588 0.272549
0.000000 0.568628 0.274510
0.000000 0.566667 0.274510
0.000000 0.564705 0.278431
0.087255 0.567647 0.272549
0.205882 0.580392 0.256863
0.322549 0.596078 0.229412
0.427451 0.613725 0.203922
0.550000 0.628431 0.150980
0.672549 0.650980 0.068627
0.774510 0.656863 0.015686
0.831373 0.643137 0.000000
0.883333 0.623530 0.005882
0.931372 0.601961 0.013725
0.976470 0.592157 0.043137
1.000000 0.584313 0.084314
0.000000 0.615686 0.301961
0.000000 0.627451 0.313725
0.000000 0.623529 0.313725
0.000000 0.623529 0.315686
0.000000 0.623529 0.317647
0.123530 0.619608 0.317647
0.215686 0.627451 0.305882
0.305882 0.643138 0.292157
0.396078 0.654902 0.270588
0.501961 0.674509 0.243138
0.607843 0.686275 0.196078
0.727451 0.700000 0.123530
0.827451 0.717647 0.019608
0.876471 0.701961 0.064706
0.925490 0.682353 0.066667
0.968627 0.666667 0.096078
1.000000 0.658824 0.137255
0.000000 0.684314 0.360785
0.000000 0.683333 0.363725
0.000000 0.682353 0.364706
0.019608 0.681373 0.364706
0.096078 0.684314 0.368627
0.171569 0.678432 0.368627
0.239216 0.680392 0.364706
0.314706 0.689215 0.350000
0.390196 0.701961 0.335294
0.480392 0.711765 0.309804
0.566667 0.723529 0.284313
0.663725 0.737255 0.253921
0.762745 0.745098 0.205883
0.861765 0.763726 0.141177
0.915686 0.752941 0.135294
0.961765 0.738235 0.151961
1.000000 0.727451 0.174510
0.000000 0.725490 0.403922
0.021568 0.733333 0.411765
0.074510 0.729412 0.407843
0.135294 0.729411 0.411765
0.180392 0.729412 0.411765
0.243138 0.731372 0.419608
0.286275 0.725490 0.415686
0.333333 0.729411 0.407844
0.403922 0.745098 0.396078
0.468627 0.752941 0.380392
0.552941 0.764706 0.356863
0.629412 0.774510 0.341176
0.713725 0.780392 0.298039
0.801960 0.788235 0.256862
0.898039 0.815686 0.235294
0.956862 0.801961 0.209804
1.000000 0.792157 0.231373
0.209804 0.778431 0.470588
0.250000 0.785294 0.483333
0.262745 0.788235 0.486274
0.277451 0.784314 0.483333
0.307843 0.784314 0.486274
0.329412 0.779412 0.482353
0.352942 0.776471 0.480393
0.403922 0.782353 0.488236
0.441176 0.788236 0.472549
0.504902 0.803921 0.472549
0.550980 0.805882 0.449020
0.623530 0.813725 0.426471
0.688236 0.821569 0.401961
0.767647 0.828431 0.372549
0.841176 0.835294 0.341176
0.931373 0.855883 0.311765
0.992156 0.858823 0.301961
0.364706 0.827451 0.549020
0.380392 0.831373 0.556863
0.388235 0.831373 0.556863
0.403921 0.833333 0.562745
0.411765 0.831373 0.556863
0.431372 0.827451 0.560784
0.450980 0.827451 0.560784
0.478432 0.827451 0.562745
0.505882 0.831373 0.556863
0.545098 0.839216 0.549019
0.584314 0.843137 0.537255
0.635294 0.852941 0.521568
0.694118 0.862745 0.509804
0.754902 0.868627 0.484314
0.815686 0.874510 0.462745
0.884313 0.884313 0.437255
0.964706 0.901961 0.400000
0.517648 0.884313 0.652941
0.510784 0.880392 0.647059
0.503922 0.878432 0.639216
0.522549 0.881373 0.647059
0.523529 0.878432 0.645098
0.538235 0.877451 0.645098
0.554902 0.878432 0.649020
0.571569 0.876471 0.650000
0.588235 0.876471 0.649020
0.620588 0.888235 0.652941
0.652942 0.898039 0.650980
0.679412 0.899020 0.628432
0.717647 0.905882 0.615686
0.765686 0.913725 0.605882
0.813725 0.919607 0.586275
0.871569 0.931372 0.577451
0.925490 0.933334 0.547059
0.615686 0.929412 0.725490
0.617647 0.929412 0.727451
0.619608 0.929412 0.729412
0.625490 0.929412 0.729412
0.631373 0.925490 0.729412
0.643138 0.929412 0.733333
0.650980 0.925490 0.733333
0.668628 0.929412 0.739216
0.682353 0.929412 0.741176
0.696079 0.931372 0.739216
0.713725 0.941176 0.733333
0.739216 0.947059 0.729411
0.764706 0.952941 0.725490
0.794118 0.958824 0.715686
0.827451 0.960784 0.701961
0.870588 0.968627 0.694117
0.913725 0.972549 0.678431
0.017647 0.023529 0.117647
0.041176 0.025490 0.114706
0.070588 0.023529 0.113725
0.109804 0.028431 0.117647
0.154902 0.029412 0.109804
0.233334 0.022549 0.114706
0.329411 0.003921 0.113726
0.417647 0.000000 0.111765
0.505883 0.007843 0.117647
0.585294 0.033333 0.127451
0.662745 0.066667 0.135294
0.726471 0.089216 0.129412
0.788235 0.113726 0.131373
0.851961 0.141176 0.133333
0.905882 0.170588 0.133333
0.958824 0.205882 0.137255
1.000000 0.245098 0.147059
0.002941 0.049020 0.124509
0.029412 0.048039 0.124019
0.072549 0.052941 0.126470
