luts/Neon_Metropolis.CUBE
# kravix mobile - LUTs Pack
LUT_3D_SIZE 17
0.018326 0.031205 0.037430
0.050462 0.032578 0.038376
0.082582 0.033784 0.039063
0.121080 0.034089 0.037293
0.167544 0.031357 0.036027
0.212985 0.029496 0.033448
0.264332 0.026856 0.030533
0.321736 0.023819 0.027192
0.381399 0.020447 0.023453
0.435096 0.017090 0.019715
0.485801 0.013855 0.016113
0.538567 0.010666 0.012573
0.605325 0.007492 0.008942
0.675349 0.003662 0.004578
0.750332 0.000000 0.000000
0.819455 0.000000 0.000000
0.889021 0.000000 0.000000
0.020020 0.065309 0.042573
0.051774 0.065477 0.041993
0.083192 0.065705 0.041657
0.120546 0.065370 0.037781
0.167819 0.062837 0.035401
0.214771 0.061112 0.033005
0.269169 0.059007 0.030426
0.331777 0.056535 0.027344
0.399680 0.054170 0.024262
0.464622 0.052094 0.021439
0.527199 0.049851 0.018463
0.598627 0.047532 0.015213
0.678111 0.043763 0.010330
0.760510 0.039429 0.004746
0.842741 0.035569 0.000000
0.910903 0.035462 0.000000
0.978683 0.035630 0.000000
0.019974 0.096544 0.044099
0.052003 0.096941 0.043732
0.083757 0.097765 0.044129
0.122560 0.098329 0.041306
0.172930 0.096895 0.038041
0.226322 0.096696 0.037262
0.290654 0.095934 0.035767
0.367025 0.095201 0.034012
0.446921 0.094575 0.032212
0.521019 0.093767 0.030350
0.593561 0.092470 0.027970
0.675502 0.089235 0.023529
0.758679 0.085420 0.018189
0.840345 0.081865 0.013092
0.918914 0.079484 0.009186
0.970184 0.082048 0.010575
1.000000 0.084871 0.011887
0.017517 0.130907 0.047150
0.050278 0.133333 0.048554
0.083223 0.137041 0.051682
0.123888 0.140414 0.049973
0.181415 0.142153 0.041245
0.246098 0.142870 0.041245
0.322835 0.143862 0.040757
0.412268 0.145510 0.040162
0.497826 0.146349 0.039200
0.574014 0.146120 0.037568
0.649042 0.144030 0.034195
0.731395 0.140963 0.029541
0.812619 0.138354 0.025467
0.891295 0.136919 0.022690
0.940368 0.137407 0.022049
0.970184 0.143542 0.027481
1.000000 0.149248 0.032487
0.011887 0.176089 0.056123
0.046158 0.182254 0.059587
0.080034 0.188891 0.064134
0.122286 0.195636 0.062852
0.188052 0.198672 0.046723
0.259052 0.200427 0.041779
0.339712 0.203830 0.036240
0.435691 0.206989 0.036133
0.524330 0.209262 0.036286
0.601312 0.210117 0.035752
0.676661 0.209232 0.033616
0.756085 0.208164 0.031342
0.833509 0.208103 0.030472
0.908812 0.208789 0.030381
0.940368 0.210681 0.031556
0.970184 0.217578 0.038071
1.000000 0.223514 0.043549
0.001022 0.234470 0.071229
0.037049 0.242405 0.074372
0.071992 0.250462 0.078859
0.117159 0.257404 0.076051
0.181262 0.262867 0.055589
0.274235 0.259556 0.053925
0.352270 0.266850 0.041733
0.441352 0.276417 0.032639
0.531853 0.280919 0.035645
0.609552 0.284062 0.038193
0.685832 0.285100 0.038636
0.765499 0.284871 0.037705
0.843946 0.285115 0.037232
0.910567 0.285954 0.037415
0.940368 0.288014 0.038712
0.970184 0.295277 0.045655
1.000000 0.301579 0.051545
0.000000 0.299474 0.084749
0.029801 0.307836 0.086809
0.059617 0.316411 0.091142
0.106050 0.324437 0.088167
0.173953 0.331579 0.068925
0.271427 0.331151 0.055589
0.375799 0.330144 0.066667
0.456672 0.344076 0.053162
0.532845 0.356786 0.041520
0.609659 0.362692 0.041154
0.688212 0.365133 0.042283
0.768978 0.365042 0.041169
0.848722 0.365682 0.040925
0.910567 0.366995 0.041550
0.940368 0.369558 0.043564
0.970184 0.377264 0.051103
1.000000 0.383703 0.057313
0.000000 0.367712 0.097337
0.029801 0.376532 0.099565
0.059617 0.385626 0.104982
0.101472 0.394232 0.103319
0.172000 0.402914 0.086412
0.265019 0.407248 0.066484
0.379477 0.405493 0.074281
0.487785 0.409125 0.086915
0.561669 0.423529 0.074128
0.622568 0.436927 0.059541
0.692042 0.444678 0.051392
0.770443 0.447349 0.046158
0.851209 0.448524 0.045411
0.910567 0.450187 0.046067
0.940368 0.452888 0.048020
0.970184 0.460380 0.055253
1.000000 0.466545 0.061051
0.000000 0.438056 0.112093
0.029801 0.447425 0.115114
0.059617 0.457023 0.121019
0.099153 0.466819 0.120394
0.170260 0.477043 0.105287
0.259098 0.485435 0.084382
0.378164 0.486473 0.080720
0.494881 0.488853 0.098482
0.595300 0.493889 0.109697
0.666194 0.503685 0.104784
0.720409 0.517143 0.084184
0.784390 0.525856 0.066194
0.855009 0.531090 0.055024
0.910567 0.534249 0.050050
0.940368 0.536568 0.049851
0.970184 0.543618 0.056153
1.000000 0.549767 0.061402
0.000000 0.509789 0.129030
0.029801 0.519753 0.132387
0.059617 0.530236 0.138750
0.100160 0.541131 0.139071
0.172488 0.553323 0.125917
0.260105 0.564752 0.106432
0.377569 0.570001 0.094346
0.502876 0.571893 0.109102
0.605890 0.575174 0.124285
0.691035 0.577920 0.132113
0.764599 0.582437 0.129442
0.821973 0.593408 0.106325
0.878172 0.603937 0.083131
0.910567 0.610727 0.069459
0.940368 0.616526 0.061357
0.970184 0.625101 0.064912
1.000000 0.632593 0.067491
0.000000 0.584054 0.147707
0.029801 0.595010 0.151568
0.059617 0.605951 0.158206
0.103212 0.616999 0.158846
0.175113 0.629206 0.146059
0.261067 0.641688 0.127352
0.374105 0.649912 0.109972
0.503304 0.651926 0.116030
0.610697 0.652842 0.131655
0.696590 0.653971 0.141405
0.779583 0.654841 0.147570
0.850935 0.657984 0.146288
0.880751 0.667765 0.128099
0.910567 0.680049 0.104646
0.940368 0.689738 0.089250
0.970184 0.699367 0.090227
1.000000 0.708125 0.090150
0.000000 0.659190 0.167071
0.029801 0.669917 0.170733
0.059617 0.680369 0.176928
0.105119 0.690974 0.177447
0.175753 0.702403 0.164233
0.258839 0.714168 0.144915
0.365988 0.723476 0.123781
0.495140 0.726726 0.120424
0.609339 0.727214 0.133867
0.699519 0.728374 0.146532
0.784192 0.729839 0.156024
0.850935 0.730968 0.163073
0.880751 0.733974 0.163363
0.910567 0.742382 0.150729
0.940368 0.754467 0.131106
0.970184 0.765896 0.128023
1.000000 0.777005 0.123644
0.000000 0.732448 0.185290
0.029801 0.742626 0.188540
0.059617 0.752712 0.194293
0.105837 0.762966 0.194842
0.175952 0.774365 0.181857
0.257969 0.786328 0.162783
0.361410 0.796643 0.139879
0.487953 0.801511 0.129061
0.606073 0.802121 0.137392
0.700847 0.802976 0.150362
0.788342 0.804486 0.162463
0.850935 0.806073 0.172580
0.880751 0.807294 0.179370
0.910567 0.810224 0.181018
0.940368 0.817258 0.174105
0.970184 0.827604 0.172930
1.000000 0.838483 0.168261
0.000000 0.803876 0.202899
0.029801 0.814099 0.206180
0.059617 0.824323 0.211933
0.108965 0.834806 0.212909
0.178882 0.846418 0.200381
0.260227 0.858549 0.181582
0.360998 0.869535 0.157870
0.483955 0.875807 0.141939
0.602731 0.876875 0.144289
0.700816 0.877333 0.155200
0.791806 0.878340 0.168063
0.850935 0.879698 0.180606
0.880751 0.880980 0.189487
0.910567 0.882292 0.195911
0.940368 0.885267 0.198749
0.970184 0.892958 0.202884
1.000000 0.901091 0.204181
0.000000 0.875151 0.221576
0.029801 0.885512 0.224994
0.065599 0.895796 0.230777
0.115679 0.906294 0.231998
0.185214 0.917800 0.219730
0.266148 0.929839 0.200900
0.365072 0.940368 0.176837
0.484489 0.940368 0.157702
0.601358 0.940368 0.154940
0.700710 0.940368 0.162539
0.795605 0.940368 0.174777
0.850935 0.940368 0.188403
0.880751 0.940368 0.199222
0.910567 0.940368 0.206851
0.940368 0.940368 0.212818
0.970184 0.940368 0.219516
1.000000 0.940368 0.224628
0.000000 0.942946 0.243671
0.044083 0.953140 0.247349
0.088136 0.963272 0.253223
0.138277 0.970184 0.254688
0.208042 0.970184 0.242649
0.289525 0.970184 0.223911
0.390066 0.970184 0.199710
0.504204 0.970184 0.181247
0.615198 0.970184 0.176455
0.712795 0.970184 0.181750
0.813321 0.970184 0.193713
0.850935 0.970184 0.207324
0.880751 0.970184 0.218585
0.910567 0.970184 0.226749
0.940368 0.970184 0.232654
0.970184 0.970184 0.239017
1.000000 0.970184 0.243595
0.021485 1.000000 0.266545
0.067887 1.000000 0.269917
0.111299 1.000000 0.275364
0.160494 1.000000 0.276905
0.229648 1.000000 0.264790
0.311879 1.000000 0.245609
0.411948 1.000000 0.221454
0.519509 1.000000 0.203296
0.625452 1.000000 0.196475
0.724300 1.000000 0.199496
0.821118 1.000000 0.210361
0.850935 1.000000 0.223560
0.880751 1.000000 0.234455
0.910567 1.000000 0.241733
0.940368 1.000000 0.244572
0.970184 1.000000 0.246036
1.000000 1.000000 0.246677
0.017823 0.031708 0.068284
0.049882 0.033097 0.069291
0.081972 0.034424 0.070161
0.120180 0.034302 0.068696
0.166629 0.031464 0.068177
0.212589 0.029465 0.065583
0.264042 0.026810 0.062821
0.321630 0.023713 0.059693
0.381598 0.020340 0.056230
0.436225 0.017044 0.052750
0.487388 0.013809 0.049210
0.542168 0.010742 0.045884
0.610727 0.007568 0.042466
0.682155 0.003616 0.038224
0.758587 0.000000 0.033265
0.827893 0.000000 0.030930
0.898589 0.000000 0.029801
0.019348 0.065492 0.073320
0.050996 0.065690 0.072801
0.082399 0.065965 0.072450
0.119585 0.065721 0.069001
0.167330 0.062928 0.067826
0.215030 0.061234 0.065431
0.269978 0.059174 0.063050
0.333288 0.056733 0.060319
0.402564 0.054444 0.057618
0.468376 0.052476 0.055222
0.532372 0.050385 0.052659
0.605814 0.048096 0.049775
0.685863 0.044205 0.045075
0.768566 0.039918 0.039857
0.850446 0.036179 0.035096
0.918120 0.036347 0.034455
0.985016 0.036606 0.033829
0.019394 0.096757 0.075105
0.051408 0.097246 0.074907
0.083268 0.098299 0.075578
0.121950 0.099077 0.072679
0.173693 0.097551 0.071534
0.228244 0.097444 0.070741
0.293568 0.096696 0.069520
0.371969 0.096239 0.068437
0.451896 0.095552 0.066957
0.526482 0.094850 0.065507
0.599954 0.093629 0.063478
0.682155 0.090303 0.059083
0.764706 0.086427 0.054032
0.846036 0.083024 0.049393
0.924514 0.080980 0.046097
0.970184 0.083909 0.047974
1.000000 0.086961 0.049897
0.017533 0.131472 0.079438
0.050553 0.134310 0.081559
0.083650 0.138201 0.085176
0.124956 0.141863 0.084337
0.183581 0.143633 0.075578
0.249485 0.144137 0.076005
0.327596 0.145449 0.076020
0.417441 0.147066 0.075792
0.502327 0.147814 0.075090
0.578042 0.147585 0.073686
0.654002 0.145663 0.070649
0.735943 0.142687 0.066346
0.816709 0.140246 0.062699
0.894865 0.139178 0.060471
0.940368 0.140108 0.060456
0.970184 0.146593 0.066407
1.000000 0.152132 0.071229
0.012039 0.177844 0.090486
0.046525 0.184192 0.094346
0.080598 0.191119 0.099351
0.123445 0.197787 0.098283
0.188312 0.201205 0.081102
0.260929 0.202777 0.075288
0.343847 0.205493 0.072114
0.439750 0.208682 0.072480
0.527764 0.211048 0.072999
0.604486 0.212314 0.073045
0.680354 0.211765 0.071443
0.759060 0.210895 0.069566
0.836316 0.210880 0.068742
0.910567 0.211627 0.068757
0.940368 0.213764 0.070222
0.970184 0.220798 0.076951
1.000000 0.226505 0.082307
0.001205 0.236835 0.106813
0.037522 0.244816 0.110063
0.072664 0.252674 0.114595
0.118425 0.259403 0.112093
0.181506 0.265263 0.092134
0.275639 0.262043 0.088579
0.353491 0.269566 0.076402
0.444816 0.278340 0.069703
0.534554 0.283085 0.073182
0.612024 0.286564 0.076097
0.689418 0.288121 0.077073
0.768887 0.287861 0.076127
0.847120 0.288014 0.075624
0.910567 0.288899 0.075868
0.940368 0.291005 0.077394
0.970184 0.298711 0.084672
1.000000 0.304967 0.090593
0.000000 0.301793 0.120989
0.029801 0.310063 0.123186
0.059617 0.318502 0.127596
0.107958 0.326436 0.125017
0.175494 0.333593 0.106630
0.272129 0.333898 0.091539
0.377447 0.332723 0.102480
0.457359 0.346975 0.088106
0.534585 0.359274 0.078004
0.612085 0.365118 0.078828
0.691936 0.368124 0.080674
0.772824 0.368200 0.079851
0.852369 0.368780 0.079576
0.910567 0.370123 0.080217
0.940368 0.372793 0.082368
0.970184 0.380591 0.090059
1.000000 0.387121 0.096407
0.000000 0.369833 0.134173
0.029801 0.378607 0.136690
0.059617 0.387503 0.142061
0.104036 0.396078 0.140597
0.174060 0.404852 0.124331
0.265385 0.409888 0.103395
0.380880 0.408148 0.110109
0.489143 0.411780 0.122698
0.561944 0.426581 0.109560
0.623652 0.439963 0.096208
0.694789 0.448188 0.088869
0.774395 0.450874 0.084794
0.855238 0.451987 0.084276
0.910567 0.453544 0.084871
0.940368 0.456138 0.086778
0.970184 0.463676 0.094072
1.000000 0.469734 0.099824
0.000000 0.440162 0.149187
0.029801 0.449516 0.152575
0.059617 0.459083 0.158511
0.101823 0.468666 0.157855
0.172549 0.478981 0.143252
0.260044 0.487938 0.122164
0.379309 0.489448 0.116991
0.496696 0.491936 0.134844
0.596323 0.497093 0.146029
0.666865 0.507149 0.141192
0.722087 0.521309 0.120836
0.786816 0.529717 0.103609
0.857862 0.534752 0.092775
0.910567 0.537728 0.088472
0.940368 0.539910 0.088472
0.970184 0.547066 0.094972
1.000000 0.552941 0.100145
0.000000 0.511818 0.166217
0.029801 0.522057 0.170077
0.059617 0.532586 0.176532
0.103105 0.543435 0.176928
0.175113 0.555596 0.164080
0.261509 0.567391 0.144732
0.378592 0.573159 0.131136
0.504448 0.575158 0.145403
0.607034 0.578653 0.160830
0.692073 0.581735 0.169024
0.766308 0.586419 0.166262
0.823255 0.597513 0.142763
0.879988 0.607858 0.120073
0.910567 0.614481 0.106874
0.940368 0.620249 0.099062
0.970184 0.628946 0.103044
1.000000 0.636332 0.105882
0.000000 0.586404 0.185153
0.029801 0.597253 0.189349
0.059617 0.608362 0.196124
0.106310 0.619318 0.196780
0.177981 0.631525 0.184283
0.262943 0.644114 0.165530
0.375219 0.652949 0.147311
0.504524 0.655146 0.152407
0.611734 0.656291 0.168109
0.697597 0.657725 0.178241
0.781582 0.658778 0.184695
0.850935 0.662043 0.183322
0.880751 0.671977 0.164706
0.910567 0.684092 0.141268
0.940368 0.693614 0.126436
0.970184 0.703243 0.127779
1.000000 0.711879 0.127672
0.000000 0.661387 0.204639
0.029801 0.672023 0.208438
0.059617 0.682414 0.214649
0.107836 0.692958 0.215137
0.178302 0.704494 0.202243
0.260884 0.716564 0.183185
0.367407 0.726467 0.161563
0.496452 0.730114 0.157198
0.610132 0.730770 0.170306
0.700236 0.732021 0.183093
0.785885 0.733608 0.192935
0.850935 0.734798 0.200076
0.880751 0.737987 0.200381
0.910567 0.746593 0.187518
0.940368 0.758755 0.167865
0.970184 0.770138 0.165225
1.000000 0.780972 0.160555
0.000000 0.734569 0.222965
0.029801 0.744625 0.226184
0.059617 0.754604 0.231983
0.108492 0.764874 0.232486
0.178546 0.776364 0.219730
0.260075 0.788556 0.200946
0.362936 0.799542 0.177935
0.489311 0.804974 0.166293
0.606806 0.805814 0.174029
0.701427 0.806714 0.186908
0.790021 0.808255 0.199298
0.850935 0.809842 0.209491
0.880751 0.811078 0.216327
0.910567 0.814038 0.217914
0.940368 0.821180 0.210895
0.970184 0.831525 0.209888
1.000000 0.842420 0.204898
0.000000 0.805829 0.240497
0.029801 0.816236 0.243977
0.061540 0.826429 0.249836
0.111818 0.836896 0.250736
0.181659 0.848508 0.238300
0.262516 0.860761 0.219715
0.362829 0.872206 0.195865
0.485100 0.878950 0.179232
0.603006 0.880262 0.180896
0.700908 0.880812 0.191501
0.793194 0.881926 0.204669
0.850935 0.883452 0.217487
0.880751 0.884794 0.226459
0.910567 0.886091 0.232898
0.940368 0.889036 0.235676
0.970184 0.896742 0.239887
1.000000 0.904723 0.240909
0.000000 0.877134 0.259251
0.029801 0.887480 0.262745
0.068360 0.897749 0.268574
0.118578 0.908232 0.269749
0.188205 0.919890 0.257679
0.268742 0.932097 0.239124
0.367407 0.940368 0.214969
0.485985 0.940368 0.195346
0.601450 0.940368 0.191745
0.700603 0.940368 0.198917
0.796719 0.940368 0.211231
0.850935 0.940368 0.224979
0.880751 0.940368 0.235859
0.910567 0.940368 0.243565
0.940368 0.940368 0.249531
0.970184 0.940368 0.256260
1.000000 0.940368 0.261357
0.000366 0.944976 0.281590
0.047334 0.955077 0.285267
0.091234 0.965118 0.291173
0.141421 0.970184 0.292500
0.211109 0.970184 0.280583
0.292378 0.970184 0.261952
0.392462 0.970184 0.237690
0.505058 0.970184 0.218891
0.615305 0.970184 0.213458
0.713008 0.970184 0.218372
0.814618 0.970184 0.230381
0.850935 0.970184 0.244099
0.880751 0.970184 0.255436
0.910567 0.970184 0.263539
0.940368 0.970184 0.269413
0.970184 0.970184 0.275395
1.000000 0.970184 0.279713
0.024353 1.000000 0.304265
0.070665 1.000000 0.307652
0.113985 1.000000 0.313161
0.163439 1.000000 0.314672
0.232547 1.000000 0.302632
0.314580 1.000000 0.283543
0.413931 1.000000 0.259358
0.519768 1.000000 0.240940
0.624750 1.000000 0.233295
0.724254 1.000000 0.235859
0.821118 1.000000 0.246525
0.850935 1.000000 0.259648
0.880751 1.000000 0.270314
0.910567 1.000000 0.277317
0.940368 1.000000 0.279332
0.970184 1.000000 0.280674
1.000000 1.000000 0.281025
0.017441 0.032319 0.099214
0.049378 0.033707 0.100298
0.081392 0.035020 0.101228
0.119341 0.034516 0.099718
0.166003 0.031617 0.099458
0.212390 0.029526 0.096681
0.264103 0.026856 0.093889
0.321904 0.023728 0.090730
0.382605 0.020432 0.087205
0.437873 0.017197 0.083894
0.489799 0.013992 0.080476
0.547189 0.011078 0.077439
0.616403 0.007828 0.074113
0.689769 0.003754 0.069963
0.767803 0.000000 0.065217
0.837186 0.000000 0.063249
0.908049 0.000000 0.061814
0.018799 0.065675 0.103777
0.050324 0.065919 0.103349
0.081712 0.066239 0.103059
0.119005 0.065980 0.099947
0.167086 0.063142 0.099291
0.215579 0.061494 0.096895
0.271046 0.059434 0.094514
0.335805 0.057191 0.092042
0.406332 0.055039 0.089509
0.472862 0.053117 0.087175
0.538781 0.051286 0.084886
0.613153 0.048890 0.081895
0.694026 0.044907 0.077195
0.777584 0.040772 0.072251
0.859052 0.037125 0.067765
0.925368 0.037461 0.067475
0.991775 0.037903 0.067231
0.019058 0.096986 0.105699
0.051026 0.097627 0.105669
0.082963 0.098909 0.106615
0.121950 0.099840 0.103792
0.174823 0.098390 0.103944
0.230457 0.098344 0.103151
0.297353 0.097749 0.102144
0.377157 0.097444 0.101274
0.457343 0.096819 0.099931
0.532830 0.096361 0.098741
0.606546 0.095018 0.096590
0.688823 0.091569 0.092073
0.771267 0.087800 0.087114
0.852674 0.084642 0.082704
0.930373 0.082765 0.079591
0.970184 0.086046 0.081941
1.000000 0.089464 0.084337
0.017731 0.132219 0.111025
0.051057 0.135576 0.113848
0.084184 0.139620 0.117678
0.126238 0.143511 0.117250
0.186526 0.145129 0.108797
0.253376 0.145815 0.109300
0.332631 0.147189 0.109422
0.422843 0.148867 0.109346
0.507362 0.149752 0.108858
0.582803 0.149508 0.107469
0.659175 0.147539 0.104356
0.740856 0.144717 0.100191
0.821576 0.142702 0.096925
0.899092 0.141985 0.095033
0.940368 0.143160 0.095262
0.970184 0.149783 0.101335
1.000000 0.155322 0.106142
0.012543 0.179980 0.123735
0.047196 0.186404 0.127718
0.081422 0.193454 0.132906
0.124620 0.200183 0.131838
0.190188 0.203693 0.114046
0.263752 0.205020 0.107576
0.348318 0.207492 0.105608
0.444312 0.210895 0.106386
0.531823 0.213504 0.107271
0.607950 0.214893 0.107530
0.684108 0.214527 0.106126
0.762478 0.213886 0.104555
0.839826 0.214084 0.103777
0.910567 0.214984 0.103868
0.940368 0.217075 0.105226
0.970184 0.224170 0.111955
1.000000 0.229847 0.117220
0.001785 0.239551 0.140444
0.038315 0.247318 0.143542
0.073625 0.255116 0.148104
0.119921 0.262013 0.145785
0.183200 0.267964 0.125887
0.278279 0.264561 0.121614
0.356466 0.272450 0.109361
0.448493 0.280934 0.104189
0.537972 0.286076 0.108095
0.615091 0.289677 0.111131
0.693156 0.291295 0.112108
0.772580 0.291081 0.111162
0.850828 0.291341 0.110689
0.910567 0.292363 0.111025
0.940368 0.294591 0.112627
0.970184 0.302296 0.119905
1.000000 0.308553 0.125719
0.000000 0.304417 0.154421
0.029801 0.312612 0.156710
0.060944 0.321096 0.161303
0.110292 0.329122 0.159045
0.178134 0.336339 0.141024
0.274601 0.336706 0.125307
0.380743 0.335546 0.136355
0.460151 0.350225 0.121538
0.537667 0.362402 0.112398
0.615198 0.368292 0.113725
0.695811 0.371359 0.115663
0.776776 0.371557 0.114931
0.856382 0.372168 0.114763
0.910567 0.373693 0.115450
0.940368 0.376562 0.117754
0.970184 0.384436 0.125490
1.000000 0.390753 0.131594
0.000000 0.372503 0.167895
0.029801 0.381216 0.170535
0.059617 0.390097 0.176028
0.107103 0.398871 0.174823
0.177066 0.407752 0.158801
0.267964 0.412955 0.137560
0.384100 0.411154 0.144030
0.492454 0.414954 0.156649
0.564523 0.429999 0.143557
0.626490 0.443519 0.130846
0.698848 0.451987 0.123857
0.778531 0.454520 0.119905
0.859327 0.455589 0.119387
0.910567 0.457145 0.119997
0.940368 0.459724 0.121843
0.970184 0.467414 0.129244
1.000000 0.473442 0.134905
0.000000 0.442817 0.183398
0.029801 0.452247 0.186603
0.059617 0.461860 0.192554
0.104814 0.471473 0.191974
0.175784 0.482124 0.177752
0.263127 0.491356 0.156725
0.382849 0.492912 0.151186
0.500221 0.495491 0.169146
0.599115 0.500648 0.180377
0.669581 0.510750 0.175753
0.725505 0.525368 0.155444
0.790555 0.533715 0.138369
0.861738 0.538613 0.127611
0.910567 0.541222 0.123201
0.940368 0.543389 0.123247
0.970184 0.550683 0.129870
1.000000 0.556542 0.134997
0.000000 0.514748 0.200748
0.029801 0.525048 0.204379
0.059617 0.535653 0.210819
0.106416 0.546593 0.211307
0.178454 0.558862 0.198642
0.264851 0.571008 0.179538
0.382391 0.577005 0.165682
0.508186 0.579004 0.179889
0.609720 0.582315 0.195041
0.694469 0.585412 0.203311
0.769497 0.590173 0.200580
0.826352 0.601312 0.176989
0.880751 0.611811 0.154665
0.910567 0.618387 0.141543
0.940368 0.624155 0.133852
0.970184 0.632822 0.137972
1.000000 0.640070 0.140780
0.000000 0.589609 0.220035
0.029801 0.600549 0.224002
0.059617 0.611414 0.230564
0.109667 0.622354 0.231189
0.181262 0.634592 0.218738
0.266056 0.647288 0.200092
0.378607 0.656397 0.181720
0.507912 0.658732 0.186740
0.614374 0.659953 0.202380
0.699870 0.661372 0.212512
0.784741 0.662409 0.219089
0.850935 0.665751 0.217685
0.880751 0.675761 0.198947
0.910567 0.687892 0.175662
0.940368 0.697368 0.160967
0.970184 0.707164 0.162737
1.000000 0.715816 0.162554
0.000000 0.664317 0.239353
0.029801 0.675059 0.243076
0.059999 0.685496 0.249226
0.111040 0.695888 0.249516
0.181369 0.707378 0.236637
0.263874 0.719554 0.217685
0.370611 0.729732 0.195941
0.499626 0.733593 0.191516
0.612512 0.734340 0.204471
0.702480 0.735821 0.217411
0.789151 0.737484 0.227527
0.850935 0.738689 0.234714
0.880751 0.741817 0.234928
0.910567 0.750408 0.221912
0.940368 0.762539 0.202335
0.970184 0.773922 0.199908
1.000000 0.784695 0.195071
0.000000 0.737240 0.257603
0.029801 0.747341 0.260716
0.061067 0.757366 0.266423
0.111620 0.767697 0.266865
0.181933 0.779431 0.254307
0.263401 0.791760 0.235645
0.366278 0.802869 0.212497
0.492409 0.808438 0.200732
0.608988 0.809354 0.208240
0.703197 0.810330 0.221012
0.792828 0.811917 0.233677
0.850935 0.813504 0.243931
0.880751 0.814801 0.250858
0.910567 0.817807 0.252461
0.940368 0.825025 0.245487
0.970184 0.835340 0.244663
1.000000 0.846220 0.239460
0.000000 0.808667 0.275425
0.029801 0.818998 0.278660
0.064653 0.829221 0.284443
0.115038 0.839750 0.285237
0.184939 0.851423 0.272831
0.265721 0.863752 0.254337
0.366232 0.875410 0.230426
0.488441 0.882490 0.213901
0.605203 0.883894 0.215335
0.702708 0.884459 0.225742
0.796094 0.885588 0.239109
0.850935 0.886992 0.251835
0.880751 0.888334 0.260853
0.910567 0.889586 0.267262
0.940368 0.892546 0.270054
0.970184 0.900221 0.274327
1.000000 0.908156 0.275227
0.000000 0.879820 0.294240
0.029801 0.890379 0.297704
0.071809 0.900649 0.303471
0.122057 0.911177 0.304524
0.191623 0.922789 0.292317
0.271977 0.935012 0.273869
0.370871 0.940368 0.249561
0.489006 0.940368 0.229938
0.603311 0.940368 0.226108
0.702098 0.940368 0.233051
0.799268 0.940368 0.245487
0.850935 0.940368 0.259297
0.880751 0.940368 0.270283
0.910567 0.940368 0.278035
0.940368 0.940368 0.283925
0.970184 0.940368 0.290700
1.000000 0.940368 0.295583
0.003784 0.947509 0.316762
0.050782 0.957671 0.320287
0.094636 0.967712 0.326055
0.144930 0.970184 0.327230
0.214740 0.970184 0.315312
0.296117 0.970184 0.296681
0.396307 0.970184 0.272480
0.507729 0.970184 0.253773
0.617136 0.970184 0.248112
0.714885 0.970184 0.252766
0.817258 0.970184 0.264805
0.850935 0.970184 0.278462
0.880751 0.970184 0.289830
0.910567 0.970184 0.297887
0.940368 0.970184 0.303593
0.970184 0.970184 0.309239
1.000000 0.970184 0.313146
0.027741 1.000000 0.339574
0.073991 1.000000 0.342779
0.117235 1.000000 0.348135
0.166598 1.000000 0.349371
0.235721 1.000000 0.337301
0.317891 1.000000 0.318105
0.417014 1.000000 0.293950
0.521614 1.000000 0.275578
0.625696 1.000000 0.267659
0.726040 1.000000 0.269978
0.821118 1.000000 0.280568
0.850935 1.000000 0.293492
0.880751 1.000000 0.303990
0.910567 1.000000 0.310338
0.940368 1.000000 0.311742
0.970184 1.000000 0.312901
1.000000 1.000000 0.313008
0.014679 0.033234 0.132219
0.046372 0.034638 0.133761
0.078096 0.035828 0.135042
0.115328 0.035081 0.134524
0.161837 0.032120 0.135805
0.209506 0.029679 0.132830
0.261738 0.026795 0.129976
0.320058 0.023529 0.126894
0.381811 0.020234 0.123476
0.437766 0.016968 0.119875
0.491417 0.013901 0.116609
0.550576 0.011063 0.113619
0.620844 0.007782 0.110353
0.696757 0.003693 0.106355
0.775036 0.000000 0.101701
0.845106 0.000000 0.099931
0.916609 0.000000 0.098726
0.015686 0.066255 0.136202
0.046998 0.066560 0.136065
0.078126 0.066941 0.136172
