luts/Neon_Metropolis.CUBE
# kravix mobile - LUTs Pack
LUT_3D_SIZE 5
0.018326 0.031205 0.037430
0.167544 0.031357 0.036027
0.381399 0.020447 0.023453
0.605325 0.007492 0.008942
0.889021 0.000000 0.000000
0.011887 0.176089 0.056123
0.188052 0.198672 0.046723
0.524330 0.209262 0.036286
0.833509 0.208103 0.030472
1.000000 0.223514 0.043549
0.000000 0.438056 0.112093
0.170260 0.477043 0.105287
0.595300 0.493889 0.109697
0.855009 0.531090 0.055024
1.000000 0.549767 0.061402
0.000000 0.732448 0.185290
0.175952 0.774365 0.181857
0.606073 0.802121 0.137392
0.880751 0.807294 0.179370
1.000000 0.838483 0.168261
0.021485 1.000000 0.266545
0.229648 1.000000 0.264790
0.625452 1.000000 0.196475
0.880751 1.000000 0.234455
1.000000 1.000000 0.246677
0.009964 0.034257 0.168078
0.154131 0.033402 0.172992
0.376974 0.019821 0.168429
0.621942 0.007050 0.157534
0.919585 0.000000 0.150271
0.009262 0.182956 0.207004
0.183398 0.206500 0.217655
0.528374 0.211719 0.212772
0.837583 0.216449 0.211887
1.000000 0.233005 0.223560
0.000000 0.441505 0.280262
0.176455 0.477699 0.280339
0.583062 0.500862 0.266392
0.864454 0.543770 0.230137
1.000000 0.559884 0.241428
0.000000 0.735454 0.352819
0.183307 0.775799 0.354757
0.594446 0.815839 0.298665
0.880751 0.823224 0.343648
1.000000 0.856245 0.328573
0.031327 1.000000 0.432410
0.236820 1.000000 0.435355
0.608896 1.000000 0.361273
0.880751 1.000000 0.391272
1.000000 1.000000 0.398825
0.000000 0.038285 0.324117
0.121981 0.036805 0.330587
0.336934 0.022461 0.362188
0.597284 0.005829 0.381567
0.891829 0.000000 0.407813
0.000000 0.199512 0.393256
0.119249 0.221866 0.438361
0.452888 0.210391 0.483314
0.775280 0.213931 0.490181
1.000000 0.231647 0.506935
0.000000 0.434272 0.530053
0.161059 0.463416 0.534539
0.499901 0.484688 0.472984
0.847318 0.523522 0.508141
1.000000 0.552331 0.533974
0.000000 0.717464 0.607477
0.169772 0.748959 0.610040
0.505592 0.794842 0.548165
0.880751 0.825849 0.570016
1.000000 0.880629 0.562005
0.021347 0.987778 0.685603
0.223255 1.000000 0.695735
0.541650 1.000000 0.638575
0.880751 1.000000 0.614740
1.000000 1.000000 0.633234
0.000000 0.043488 0.491279
0.119249 0.042634 0.504356
0.287800 0.032471 0.562417
0.547829 0.012406 0.638193
0.829816 0.000000 0.697200
0.000000 0.221134 0.632731
0.119249 0.243030 0.700221
0.359548 0.231373 0.736950
0.674357 0.223606 0.782284
0.945388 0.235279 0.806302
0.000000 0.462211 0.754299
0.119249 0.489769 0.758007
0.402396 0.496010 0.739971
0.729274 0.497459 0.786526
1.000000 0.521645 0.817823
0.000000 0.712520 0.880751
0.144198 0.738689 0.880751
0.465049 0.751812 0.820386
0.775418 0.775418 0.775418
1.000000 0.818158 0.813550
0.000916 0.969512 0.880751
0.197940 0.994110 0.880751
0.496162 1.000000 0.880751
0.790555 1.000000 0.835691
1.000000 1.000000 0.836118
0.000000 0.046189 0.638651
0.119249 0.047501 0.662654
0.256352 0.040513 0.749203
0.512520 0.023850 0.851698
0.782895 0.011719 0.932494
0.000000 0.239780 0.846571
0.119249 0.261311 0.916045
0.314961 0.248936 0.942168
0.619699 0.242390 0.987716
0.889097 0.251286 1.000000
0.000000 0.486564 0.947784
0.119249 0.513451 0.956817
0.352956 0.510643 0.947112
0.670100 0.509041 0.982696
0.942977 0.524224 1.000000
0.000000 0.729549 1.000000
0.119249 0.755901 1.000000
0.412146 0.763455 0.996918
0.715053 0.782528 0.979690
0.987808 0.797040 1.000000
0.000000 0.973770 1.000000
0.181689 0.996155 1.000000
0.473381 0.992233 1.000000
0.757046 0.991394 1.000000
1.000000 1.000000 1.000000
