luts/Neon_Metropolis.CUBE
# kravix mobile - LUTs Pack
LUT_3D_SIZE 9
0.018326 0.031205 0.037430
0.082582 0.033784 0.039063
0.167544 0.031357 0.036027
0.264332 0.026856 0.030533
0.381399 0.020447 0.023453
0.485801 0.013855 0.016113
0.605325 0.007492 0.008942
0.750332 0.000000 0.000000
0.889021 0.000000 0.000000
0.019974 0.096544 0.044099
0.083757 0.097765 0.044129
0.172930 0.096895 0.038041
0.290654 0.095934 0.035767
0.446921 0.094575 0.032212
0.593561 0.092470 0.027970
0.758679 0.085420 0.018189
0.918914 0.079484 0.009186
1.000000 0.084871 0.011887
0.011887 0.176089 0.056123
0.080034 0.188891 0.064134
0.188052 0.198672 0.046723
0.339712 0.203830 0.036240
0.524330 0.209262 0.036286
0.676661 0.209232 0.033616
0.833509 0.208103 0.030472
0.940368 0.210681 0.031556
1.000000 0.223514 0.043549
0.000000 0.299474 0.084749
0.059617 0.316411 0.091142
0.173953 0.331579 0.068925
0.375799 0.330144 0.066667
0.532845 0.356786 0.041520
0.688212 0.365133 0.042283
0.848722 0.365682 0.040925
0.940368 0.369558 0.043564
1.000000 0.383703 0.057313
0.000000 0.438056 0.112093
0.059617 0.457023 0.121019
0.170260 0.477043 0.105287
0.378164 0.486473 0.080720
0.595300 0.493889 0.109697
0.720409 0.517143 0.084184
0.855009 0.531090 0.055024
0.940368 0.536568 0.049851
1.000000 0.549767 0.061402
0.000000 0.584054 0.147707
0.059617 0.605951 0.158206
0.175113 0.629206 0.146059
0.374105 0.649912 0.109972
0.610697 0.652842 0.131655
0.779583 0.654841 0.147570
0.880751 0.667765 0.128099
0.940368 0.689738 0.089250
1.000000 0.708125 0.090150
0.000000 0.732448 0.185290
0.059617 0.752712 0.194293
0.175952 0.774365 0.181857
0.361410 0.796643 0.139879
0.606073 0.802121 0.137392
0.788342 0.804486 0.162463
0.880751 0.807294 0.179370
0.940368 0.817258 0.174105
1.000000 0.838483 0.168261
0.000000 0.875151 0.221576
0.065599 0.895796 0.230777
0.185214 0.917800 0.219730
0.365072 0.940368 0.176837
0.601358 0.940368 0.154940
0.795605 0.940368 0.174777
0.880751 0.940368 0.199222
0.940368 0.940368 0.212818
1.000000 0.940368 0.224628
0.021485 1.000000 0.266545
0.111299 1.000000 0.275364
0.229648 1.000000 0.264790
0.411948 1.000000 0.221454
0.625452 1.000000 0.196475
0.821118 1.000000 0.210361
0.880751 1.000000 0.234455
0.940368 1.000000 0.244572
1.000000 1.000000 0.246677
0.017441 0.032319 0.099214
0.081392 0.035020 0.101228
0.166003 0.031617 0.099458
0.264103 0.026856 0.093889
0.382605 0.020432 0.087205
0.489799 0.013992 0.080476
0.616403 0.007828 0.074113
0.767803 0.000000 0.065217
0.908049 0.000000 0.061814
0.019058 0.096986 0.105699
0.082963 0.098909 0.106615
0.174823 0.098390 0.103944
0.297353 0.097749 0.102144
0.457343 0.096819 0.099931
0.606546 0.095018 0.096590
0.771267 0.087800 0.087114
0.930373 0.082765 0.079591
1.000000 0.089464 0.084337
0.012543 0.179980 0.123735
0.081422 0.193454 0.132906
0.190188 0.203693 0.114046
0.348318 0.207492 0.105608
0.531823 0.213504 0.107271
0.684108 0.214527 0.106126
0.839826 0.214084 0.103777
0.940368 0.217075 0.105226
1.000000 0.229847 0.117220
0.000000 0.304417 0.154421
0.060944 0.321096 0.161303
0.178134 0.336339 0.141024
0.380743 0.335546 0.136355
0.537667 0.362402 0.112398
0.695811 0.371359 0.115663
0.856382 0.372168 0.114763
0.940368 0.376562 0.117754
1.000000 0.390753 0.131594
0.000000 0.442817 0.183398
0.059617 0.461860 0.192554
0.175784 0.482124 0.177752
0.382849 0.492912 0.151186
0.599115 0.500648 0.180377
0.725505 0.525368 0.155444
0.861738 0.538613 0.127611
0.940368 0.543389 0.123247
1.000000 0.556542 0.134997
0.000000 0.589609 0.220035
0.059617 0.611414 0.230564
0.181262 0.634592 0.218738
0.378607 0.656397 0.181720
0.614374 0.659953 0.202380
0.784741 0.662409 0.219089
0.880751 0.675761 0.198947
0.940368 0.697368 0.160967
1.000000 0.715816 0.162554
0.000000 0.737240 0.257603
0.061067 0.757366 0.266423
0.181933 0.779431 0.254307
0.366278 0.802869 0.212497
0.608988 0.809354 0.208240
0.792828 0.811917 0.233677
0.880751 0.814801 0.250858
0.940368 0.825025 0.245487
1.000000 0.846220 0.239460
0.000000 0.879820 0.294240
0.071809 0.900649 0.303471
0.191623 0.922789 0.292317
0.370871 0.940368 0.249561
0.603311 0.940368 0.226108
0.799268 0.940368 0.245487
0.880751 0.940368 0.270283
0.940368 0.940368 0.283925
1.000000 0.940368 0.295583
0.027741 1.000000 0.339574
0.117235 1.000000 0.348135
0.235721 1.000000 0.337301
0.417014 1.000000 0.293950
0.625696 1.000000 0.267659
0.821118 1.000000 0.280568
0.880751 1.000000 0.303990
0.940368 1.000000 0.311742
1.000000 1.000000 0.313008
0.009964 0.034257 0.168078
0.073076 0.036408 0.171252
0.154131 0.033402 0.172992
0.254826 0.027085 0.172503
0.376974 0.019821 0.168429
0.489647 0.013275 0.162188
0.621942 0.007050 0.157534
0.777920 0.000000 0.151080
0.919585 0.000000 0.150271
0.010483 0.098680 0.173602
0.073594 0.101427 0.177234
0.162783 0.102464 0.185748
0.292119 0.099535 0.193072
0.456214 0.096910 0.195743
0.607523 0.095018 0.195071
0.772610 0.088289 0.188128
0.930724 0.084214 0.182254
1.000000 0.092409 0.188037
0.009262 0.182956 0.207004
0.078904 0.196597 0.222248
0.183398 0.206500 0.217655
0.349172 0.205707 0.209827
0.528374 0.211719 0.212772
0.681819 0.216022 0.214466
0.837583 0.216449 0.211887
0.940368 0.220035 0.212650
1.000000 0.233005 0.223560
0.000000 0.305196 0.252354
0.060548 0.321065 0.261601
0.180148 0.334096 0.247044
0.367239 0.336828 0.224079
0.534356 0.358938 0.211154
0.698512 0.371542 0.222202
0.860212 0.374853 0.223560
0.940368 0.379416 0.226001
1.000000 0.393851 0.239216
0.000000 0.441505 0.280262
0.059617 0.459388 0.290700
0.176455 0.477699 0.280339
0.362387 0.494392 0.240391
0.583062 0.500862 0.266392
0.713756 0.531167 0.244938
0.864454 0.543770 0.230137
0.940368 0.546609 0.229770
1.000000 0.559884 0.241428
0.000000 0.588220 0.316381
0.060853 0.608988 0.328710
0.182406 0.630594 0.320272
0.361929 0.656687 0.280949
0.600519 0.663493 0.289662
0.777600 0.670481 0.312291
0.880751 0.686458 0.288960
0.940368 0.705715 0.255909
1.000000 0.723125 0.258915
0.000000 0.735454 0.352819
0.064286 0.754665 0.363836
0.183307 0.775799 0.354757
0.356802 0.802945 0.315801
0.594446 0.815839 0.298665
0.784726 0.819593 0.324849
0.880751 0.823224 0.343648
0.940368 0.834455 0.336217
1.000000 0.856245 0.328573
0.000000 0.878431 0.388678
0.075181 0.898131 0.400061
0.193561 0.919707 0.391760
0.364614 0.940368 0.351980
0.587015 0.940368 0.319158
0.788449 0.940368 0.334386
0.880751 0.940368 0.360830
0.940368 0.940368 0.375235
1.000000 0.940368 0.386679
0.031327 1.000000 0.432410
0.120150 1.000000 0.443610
0.236820 1.000000 0.435355
0.410010 1.000000 0.394522
0.608896 1.000000 0.361273
0.817945 1.000000 0.368048
0.880751 1.000000 0.391272
0.940368 1.000000 0.398001
1.000000 1.000000 0.398825
0.000000 0.036271 0.244511
0.059785 0.037629 0.247730
0.138994 0.035233 0.250309
0.236164 0.029023 0.259586
0.359472 0.020355 0.264652
0.478157 0.012940 0.263966
0.615091 0.005783 0.265721
0.774090 0.000000 0.267338
0.913970 0.000000 0.273899
0.000000 0.100893 0.251438
0.059617 0.104356 0.258701
0.144472 0.107103 0.272999
0.270405 0.104143 0.300206
0.434821 0.097780 0.314626
0.586023 0.094072 0.320195
0.753506 0.087709 0.320302
0.912169 0.084413 0.318791
1.000000 0.093721 0.325948
0.000000 0.191028 0.294133
0.059617 0.205692 0.313939
0.153674 0.214557 0.319799
0.316854 0.209277 0.340002
0.498039 0.207752 0.344488
0.656077 0.212863 0.348974
0.817563 0.215412 0.348730
0.940368 0.219562 0.349722
1.000000 0.232792 0.359350
0.000000 0.304967 0.368627
0.059617 0.320043 0.381247
0.174273 0.331685 0.371420
0.337789 0.338888 0.338430
0.522423 0.346197 0.341985
0.686244 0.361791 0.354437
0.853208 0.372656 0.361837
0.940368 0.377905 0.364096
1.000000 0.392142 0.375525
0.000000 0.435996 0.407233
0.059617 0.452995 0.416693
0.171649 0.468513 0.405341
0.331899 0.485649 0.371847
0.543374 0.491051 0.364034
0.686336 0.522225 0.351781
0.865904 0.541329 0.367056
0.940368 0.545296 0.368841
1.000000 0.558633 0.379126
0.000000 0.581033 0.440757
0.059617 0.600107 0.451530
0.177554 0.617243 0.442741
0.338598 0.640406 0.412848
0.556802 0.654871 0.385855
0.743465 0.665019 0.414450
0.880751 0.697444 0.398138
0.940368 0.712657 0.378500
1.000000 0.727565 0.385519
0.000000 0.726299 0.475807
0.061250 0.744366 0.486488
0.180224 0.762493 0.479194
0.342016 0.788830 0.450065
0.553887 0.816312 0.413642
0.758663 0.824689 0.435035
0.880751 0.832593 0.460288
0.940368 0.846723 0.447303
1.000000 0.868711 0.437369
0.000000 0.868421 0.512306
0.073518 0.887160 0.523354
0.191058 0.906355 0.516823
0.352132 0.932509 0.485649
0.549828 0.940368 0.444129
0.756725 0.940368 0.444114
0.880751 0.940368 0.473945
0.940368 0.940368 0.490593
1.000000 0.940368 0.500801
0.029755 1.000000 0.553491
0.117845 1.000000 0.563745
0.233173 1.000000 0.557351
0.395880 1.000000 0.524254
0.574792 1.000000 0.485466
0.783444 1.000000 0.475319
0.880751 1.000000 0.497734
0.940368 1.000000 0.507225
1.000000 1.000000 0.510002
0.000000 0.038285 0.324117
0.059617 0.038880 0.326558
0.121981 0.036805 0.330587
0.216770 0.031708 0.340703
0.336934 0.022461 0.362188
0.460044 0.013764 0.371145
0.597284 0.005829 0.381567
0.756008 0.000000 0.393851
0.891829 0.000000 0.407813
0.000000 0.103197 0.333608
0.059617 0.108110 0.346929
0.120974 0.112169 0.369635
0.242695 0.110643 0.402335
0.404547 0.101579 0.440085
0.554040 0.094575 0.449897
0.719432 0.088441 0.455695
0.877302 0.085817 0.458930
0.991485 0.095827 0.467918
0.000000 0.199512 0.393256
0.059617 0.214725 0.421164
0.119249 0.221866 0.438361
0.274266 0.218021 0.457801
0.452888 0.210391 0.483314
0.609918 0.210681 0.486686
0.775280 0.213931 0.490181
0.928573 0.218418 0.494316
1.000000 0.231647 0.506935
0.000000 0.313726 0.470115
0.059617 0.329091 0.484504
0.132769 0.341192 0.475044
0.295216 0.347601 0.465995
0.478569 0.342657 0.485801
0.642008 0.349844 0.493431
0.818387 0.363897 0.506264
0.940368 0.372229 0.512612
1.000000 0.386526 0.527214
0.000000 0.434272 0.530053
0.059617 0.450278 0.541756
0.161059 0.463416 0.534539
0.325444 0.476982 0.510567
0.499901 0.484688 0.472984
0.665003 0.498390 0.486107
0.847318 0.523522 0.508141
0.940368 0.538720 0.520714
1.000000 0.552331 0.533974
0.000000 0.574777 0.573754
0.059617 0.592386 0.585931
0.166110 0.605325 0.576043
0.326360 0.620066 0.545571
0.497078 0.639399 0.504692
0.687922 0.643885 0.510536
0.846143 0.683513 0.504921
0.940368 0.709178 0.524651
1.000000 0.725322 0.541176
0.000000 0.717464 0.607477
0.059617 0.734493 0.618936
0.169772 0.748959 0.610040
0.330022 0.765576 0.581750
0.505592 0.794842 0.548165
0.701747 0.809552 0.533501
0.880751 0.825849 0.570016
0.940368 0.858351 0.563043
1.000000 0.880629 0.562005
0.000000 0.858427 0.641840
0.065141 0.875715 0.654078
0.182391 0.891234 0.647791
0.341955 0.909911 0.621363
0.516136 0.940368 0.589303
0.704677 0.940368 0.564630
0.880751 0.940368 0.592142
0.940368 0.940368 0.615793
1.000000 0.940368 0.625788
0.021347 0.987778 0.685603
0.108339 1.000000 0.699794
0.223255 1.000000 0.695735
0.382788 1.000000 0.668956
0.541650 1.000000 0.638575
0.726177 1.000000 0.606912
0.880751 1.000000 0.614740
0.940368 1.000000 0.627405
1.000000 1.000000 0.633234
0.000000 0.041611 0.410529
0.059617 0.042023 0.413367
0.119249 0.040162 0.419562
0.196002 0.035355 0.432242
0.311879 0.027481 0.460685
0.438178 0.017075 0.485100
0.576974 0.007065 0.503517
0.734432 0.000000 0.523369
0.864012 0.000000 0.543984
0.000000 0.107683 0.425925
0.059617 0.114427 0.447959
0.119249 0.119677 0.481437
0.209506 0.118288 0.521508
0.363104 0.110964 0.568978
0.510582 0.101137 0.595621
0.677150 0.092119 0.609140
0.832456 0.089754 0.613794
0.943481 0.100099 0.624247
0.000000 0.210346 0.512856
0.059617 0.225711 0.547173
0.119249 0.231769 0.570886
0.227100 0.226841 0.589944
0.399725 0.221408 0.615671
0.555154 0.217105 0.636118
0.723323 0.215610 0.644144
0.876631 0.219257 0.649042
0.989868 0.232044 0.661616
0.000000 0.330434 0.588098
0.059617 0.345480 0.603021
0.119249 0.353613 0.598444
0.245151 0.354620 0.598398
0.425422 0.352148 0.616571
0.583902 0.351095 0.641627
0.757427 0.355795 0.653544
0.915404 0.365072 0.663798
1.000000 0.379385 0.678325
0.000000 0.445945 0.646189
0.059617 0.462058 0.658396
0.120211 0.473457 0.647517
0.275914 0.485740 0.621424
0.450126 0.492546 0.617945
0.609339 0.491081 0.639155
0.785885 0.500313 0.652186
0.940368 0.519219 0.670924
1.000000 0.536980 0.687602
0.000000 0.575250 0.709651
0.059617 0.592035 0.722942
0.151217 0.602045 0.713390
0.308690 0.610040 0.684596
0.482536 0.624369 0.658030
0.631251 0.631251 0.631251
0.809461 0.647044 0.644099
0.940368 0.679133 0.672404
1.000000 0.703975 0.695888
0.000000 0.710979 0.754955
0.059617 0.727047 0.767910
0.158648 0.738750 0.758785
0.312398 0.746929 0.725612
0.483650 0.763394 0.692638
0.630716 0.780865 0.666163
0.830030 0.790570 0.664927
0.940368 0.832654 0.666957
1.000000 0.860426 0.690440
0.000000 0.848997 0.793240
0.059617 0.865309 0.805707
0.169406 0.878233 0.797284
0.324529 0.888533 0.763317
0.492668 0.904768 0.730694
0.643107 0.928832 0.708125
0.846967 0.940368 0.689998
0.940368 0.940368 0.726390
1.000000 0.940368 0.741650
0.009476 0.976074 0.821118
0.095842 0.991348 0.821118
0.208713 1.000000 0.821118
0.365011 1.000000 0.804700
0.519844 1.000000 0.775784
0.671946 1.000000 0.750561
0.863279 1.000000 0.718395
0.940368 1.000000 0.740536
1.000000 1.000000 0.757366
0.000000 0.043488 0.491279
0.059617 0.044038 0.495323
0.119249 0.042634 0.504356
0.178866 0.038834 0.524163
0.287800 0.032471 0.562417
0.411139 0.023407 0.602243
0.547829 0.012406 0.638193
0.704585 0.001129 0.671275
0.829816 0.000000 0.697200
0.000000 0.111437 0.515663
0.059617 0.120073 0.547448
0.119249 0.126909 0.592035
0.178866 0.126284 0.640558
0.328191 0.119371 0.688624
0.469078 0.110780 0.721965
0.631754 0.100771 0.750164
0.787884 0.096681 0.761196
0.900328 0.105837 0.771191
0.000000 0.221134 0.632731
0.059617 0.236988 0.672145
0.119249 0.243030 0.700221
0.186358 0.237675 0.719112
0.359548 0.231373 0.736950
0.508171 0.227924 0.760021
0.674357 0.223606 0.782284
0.831312 0.223789 0.793149
0.945388 0.235279 0.806302
0.000000 0.344945 0.709758
0.059617 0.359548 0.724407
0.119249 0.366644 0.724910
0.203708 0.363928 0.725917
0.382696 0.358984 0.738079
0.535515 0.359609 0.762417
0.705440 0.359625 0.790341
0.865538 0.363546 0.803876
0.980240 0.376242 0.817914
0.000000 0.462211 0.754299
0.059617 0.478462 0.766506
0.119249 0.489769 0.758007
0.227726 0.494820 0.737728
0.402396 0.496010 0.739971
0.559960 0.496574 0.757031
0.729274 0.497459 0.786526
0.892622 0.505547 0.801755
1.000000 0.521645 0.817823
0.000000 0.585504 0.822034
0.059617 0.602152 0.834424
0.119661 0.612192 0.823545
0.269047 0.617197 0.788754
0.432471 0.629664 0.760098
0.583215 0.637217 0.759213
0.753826 0.637369 0.782712
0.920943 0.650828 0.799680
1.000000 0.672541 0.821027
0.000000 0.712520 0.880751
0.059617 0.728328 0.880751
0.144198 0.738689 0.880751
0.296880 0.742596 0.851850
0.465049 0.751812 0.820386
0.616220 0.765866 0.802731
0.775418 0.775418 0.775418
0.940368 0.792828 0.789578
1.000000 0.818158 0.813550
0.000000 0.845197 0.880751
0.059617 0.860990 0.880751
0.159930 0.871900 0.880751
0.311955 0.877302 0.880751
0.472007 0.883482 0.860960
0.619867 0.897734 0.836881
0.776761 0.917021 0.808255
0.940368 0.926619 0.807858
1.000000 0.940368 0.812711
0.000916 0.969512 0.880751
0.086519 0.984009 0.880751
0.197940 0.994110 0.880751
0.349508 0.999374 0.880751
0.496162 1.000000 0.880751
0.641779 1.000000 0.870680
0.790555 1.000000 0.835691
0.940368 1.000000 0.817639
1.000000 1.000000 0.836118
0.000000 0.045197 0.569680
0.059617 0.045960 0.575051
0.119249 0.045472 0.588632
0.178866 0.042267 0.614298
0.266346 0.036866 0.661723
0.388724 0.029160 0.710719
0.521370 0.019150 0.756497
0.674128 0.007538 0.800855
0.796231 0.005859 0.832944
0.000000 0.116060 0.607187
0.059617 0.126619 0.648463
0.119249 0.135180 0.703075
0.178866 0.135088 0.758267
0.298116 0.127428 0.805280
0.436042 0.119844 0.838254
0.592676 0.111162 0.871168
0.746670 0.106828 0.890120
0.859739 0.114900 0.903960
0.000000 0.231800 0.750851
0.059617 0.247684 0.792782
0.119249 0.253574 0.822477
0.178866 0.248356 0.840162
0.327047 0.241184 0.853376
0.473396 0.238056 0.873198
0.633890 0.234226 0.900328
0.789715 0.232898 0.921263
0.904570 0.243091 0.938170
0.000000 0.357504 0.828107
0.059617 0.371756 0.841489
0.119249 0.378164 0.844419
0.178866 0.375158 0.847044
0.349386 0.369131 0.856794
0.500877 0.368414 0.875456
0.663981 0.368811 0.906126
0.822019 0.369970 0.930617
0.936721 0.380041 0.940368
0.000000 0.477028 0.861616
0.059617 0.493385 0.874174
0.119249 0.504036 0.869383
0.193744 0.506874 0.856123
0.364981 0.502586 0.856764
0.521050 0.500725 0.868894
0.684840 0.502998 0.897612
0.844602 0.506462 0.925582
0.961105 0.518791 0.940368
0.000000 0.599863 0.923980
0.059617 0.616114 0.935500
0.119249 0.626581 0.924712
0.230442 0.631601 0.892149
0.387808 0.634546 0.867018
0.539544 0.637919 0.870756
0.709407 0.641199 0.891859
0.869627 0.646479 0.922454
0.987610 0.660105 0.940368
0.000000 0.720943 0.940368
0.059617 0.736782 0.940368
0.120150 0.747173 0.940368
0.270680 0.751461 0.940368
0.428229 0.755657 0.917006
0.572198 0.768933 0.897078
0.732631 0.780224 0.894789
0.891981 0.782071 0.917556
1.000000 0.794888 0.932631
0.000000 0.848005 0.940368
0.059617 0.863523 0.940368
0.146242 0.873549 0.940368
0.297948 0.876646 0.940368
0.454871 0.876722 0.940368
0.600855 0.885740 0.940368
0.762249 0.902159 0.935042
0.910033 0.910033 0.910033
1.000000 0.917174 0.915434
0.000000 0.969207 0.940368
0.075044 0.983322 0.940368
0.186389 0.992218 0.940368
0.337240 0.994217 0.940368
0.480827 0.991470 0.940368
0.618814 0.991028 0.940368
0.767941 0.997528 0.940368
0.901946 1.000000 0.918929
1.000000 1.000000 0.915831
0.000000 0.046189 0.638651
0.059617 0.047135 0.644999
0.119249 0.047501 0.662654
0.178866 0.045335 0.695262
0.256352 0.040513 0.749203
0.379980 0.033249 0.802411
0.512520 0.023850 0.851698
0.662791 0.012558 0.898161
0.782895 0.011719 0.932494
0.000000 0.120546 0.690455
0.059617 0.133043 0.739467
0.119249 0.142229 0.798306
0.178866 0.141787 0.854002
0.285405 0.133623 0.898329
0.423362 0.126452 0.928954
0.578164 0.119020 0.960372
0.730632 0.115145 0.981353
0.843641 0.123201 0.997772
0.000000 0.239780 0.846571
0.059617 0.255665 0.887984
0.119249 0.261311 0.916045
0.178866 0.256062 0.930373
0.314961 0.248936 0.942168
0.461357 0.245701 0.960494
0.619699 0.242390 0.987716
0.774395 0.241230 1.000000
0.889097 0.251286 1.000000
0.000000 0.365759 0.917906
0.059617 0.379980 0.930495
0.119249 0.386236 0.934295
0.178866 0.383230 0.937606
0.337423 0.377295 0.946853
0.489311 0.376135 0.963668
0.649989 0.376440 0.992828
0.806058 0.377508 1.000000
0.920073 0.386816 1.000000
0.000000 0.486564 0.947784
0.059617 0.503029 0.960296
0.119249 0.513451 0.956817
0.183505 0.515557 0.946151
0.352956 0.510643 0.947112
0.507637 0.507256 0.957000
0.670100 0.509041 0.982696
0.827222 0.512810 1.000000
0.942977 0.524224 1.000000
0.000000 0.610117 1.000000
0.059617 0.625895 1.000000
0.119249 0.636210 1.000000
0.217746 0.641108 0.976715
0.373465 0.641337 0.954589
0.523827 0.642069 0.957458
0.693355 0.644938 0.976318
0.850507 0.651270 1.000000
0.967468 0.663447 1.000000
0.000000 0.729549 1.000000
0.059617 0.745251 1.000000
0.119249 0.755901 1.000000
0.259403 0.760662 1.000000
0.412146 0.763455 0.996918
0.553033 0.773037 0.977279
0.715053 0.782528 0.979690
0.872877 0.787015 1.000000
0.987808 0.797040 1.000000
0.000000 0.854109 1.000000
0.059617 0.869596 1.000000
0.140612 0.879408 1.000000
0.292012 0.882200 1.000000
0.446250 0.881590 1.000000
0.588251 0.887602 1.000000
0.747295 0.904906 1.000000
0.889204 0.914687 1.000000
0.999924 0.913314 1.000000
0.000000 0.973770 1.000000
0.070436 0.987671 1.000000
0.181689 0.996155 1.000000
0.332113 0.997147 1.000000
0.473381 0.992233 1.000000
0.607370 0.986511 1.000000
0.757046 0.991394 1.000000
0.896880 0.999832 1.000000
1.000000 1.000000 1.000000
