luts/Nostalgic City.CUBE
# kravix mobile - LUTs Pack
LUT_3D_SIZE 5
0.019104 0.026139 0.032624
0.203616 0.020569 0.032151
0.460121 0.017166 0.030167
0.669596 0.040208 0.040208
0.819409 0.048356 0.048356
0.018280 0.194064 0.034958
0.205234 0.193439 0.040269
0.489632 0.215320 0.034058
0.687709 0.202670 0.051026
0.840421 0.218341 0.061311
0.089647 0.475547 0.092042
0.279255 0.477592 0.096849
0.528572 0.471382 0.130983
0.775448 0.514900 0.115938
0.913863 0.518883 0.118151
0.244953 0.783352 0.213397
0.408759 0.776226 0.208621
0.633799 0.769665 0.231525
0.824277 0.757366 0.271870
0.973785 0.758984 0.261250
0.267506 0.935470 0.234836
0.443488 0.938643 0.244327
0.662074 0.942809 0.278218
0.844388 0.936339 0.321202
0.990066 0.937911 0.334325
0.002930 0.030732 0.209918
0.190646 0.017701 0.221012
0.465629 0.017410 0.222232
0.682368 0.040955 0.218738
0.835294 0.048432 0.233585
0.007172 0.203983 0.223514
0.197940 0.211688 0.229801
0.483604 0.182956 0.221866
0.685450 0.177325 0.224903
0.835416 0.183932 0.234073
0.049378 0.492073 0.259037
0.245289 0.490303 0.257969
0.533516 0.480278 0.286625
0.783642 0.512917 0.280507
0.923537 0.513756 0.284367
0.208911 0.785290 0.367819
0.377203 0.775921 0.354788
0.622095 0.768353 0.371923
0.820005 0.755825 0.411063
0.973419 0.756390 0.397177
0.234409 0.940627 0.393439
0.417517 0.942077 0.392248
0.651743 0.945418 0.419944
0.842985 0.940963 0.460731
0.991058 0.940642 0.476448
0.025757 0.103914 0.466651
0.158129 0.086931 0.464881
0.447044 0.021134 0.468818
0.688838 0.044724 0.480308
0.845273 0.053300 0.491966
0.031632 0.268513 0.470314
0.166613 0.261967 0.474205
0.452964 0.165957 0.476997
0.694148 0.182040 0.481483
0.847028 0.189151 0.488594
0.065080 0.498955 0.520623
0.200122 0.498695 0.518791
0.521904 0.519585 0.530617
0.792035 0.506828 0.525872
0.944183 0.504891 0.525750
0.157900 0.793362 0.623880
0.330877 0.797238 0.615228
0.563241 0.785443 0.556313
0.816663 0.771740 0.589532
0.982635 0.771832 0.577096
0.195789 0.949645 0.645090
0.400168 0.961181 0.633387
0.602472 0.957931 0.589990
0.838193 0.956847 0.623240
0.993103 0.952529 0.640635
0.063615 0.176013 0.703365
0.197360 0.172152 0.700282
0.385504 0.093553 0.697505
0.659052 0.047822 0.685023
0.816541 0.055116 0.690517
0.070344 0.336202 0.706905
0.204364 0.330236 0.706737
0.388281 0.267567 0.712779
0.658427 0.183276 0.685450
0.819883 0.191485 0.689982
0.094270 0.531014 0.734340
0.228443 0.528923 0.732052
0.451118 0.543999 0.758923
0.747753 0.497658 0.777829
0.931945 0.491356 0.776822
0.136828 0.750042 0.777401
0.268589 0.745800 0.770855
0.553384 0.781140 0.803449
0.803449 0.799100 0.802655
0.985061 0.797742 0.805661
0.144503 0.897734 0.785199
0.319753 0.915145 0.797772
0.598016 0.958602 0.827039
0.816083 0.974365 0.816861
0.987427 0.973510 0.825879
0.072679 0.191806 0.856764
0.208362 0.192279 0.857023
0.375174 0.127123 0.854047
0.657343 0.049302 0.827771
0.815564 0.055344 0.827817
0.080949 0.351766 0.864607
0.216220 0.350805 0.864622
0.392844 0.301625 0.871565
0.654994 0.184390 0.828321
0.818097 0.191791 0.828489
0.102770 0.542046 0.885832
0.237324 0.539818 0.885008
0.459388 0.560967 0.917662
0.741299 0.514336 0.935912
0.922377 0.488487 0.925185
0.138766 0.751568 0.916579
0.271168 0.746029 0.913924
0.532952 0.778073 0.952651
0.797803 0.806256 0.967620
0.983627 0.800595 0.973465
0.144656 0.897719 0.921111
0.294667 0.906188 0.928481
0.587411 0.950210 0.968688
0.824826 0.973907 0.977218
0.987442 0.983032 0.980041
