luts/Nostalgic City.CUBE
# kravix mobile - LUTs Pack
LUT_3D_SIZE 9
0.019104 0.026139 0.032624
0.086854 0.026139 0.032624
0.203616 0.020569 0.032151
0.334722 0.007446 0.030350
0.460121 0.017166 0.030167
0.571572 0.028717 0.031525
0.669596 0.040208 0.040208
0.751659 0.048356 0.048356
0.819409 0.048356 0.048356
0.018998 0.094011 0.032654
0.086854 0.093996 0.032624
0.201373 0.089418 0.032181
0.332616 0.075670 0.030091
0.459312 0.084749 0.029725
0.571893 0.096605 0.030899
0.670512 0.108400 0.040650
0.752026 0.116350 0.048600
0.819821 0.116381 0.048646
0.018280 0.194064 0.034958
0.089219 0.195499 0.035294
0.205234 0.193439 0.040269
0.360967 0.213184 0.029923
0.489632 0.215320 0.034058
0.597910 0.211505 0.044251
0.687709 0.202670 0.051026
0.763729 0.203021 0.055757
0.840421 0.218341 0.061311
0.037110 0.329259 0.054826
0.110002 0.330297 0.055360
0.236042 0.329686 0.062058
0.355673 0.322652 0.080217
0.526528 0.358602 0.056428
0.640742 0.366537 0.072755
0.740414 0.373083 0.087098
0.817075 0.376761 0.092210
0.887510 0.383139 0.094362
0.089647 0.475547 0.092042
0.161715 0.476677 0.092607
0.279255 0.477592 0.096849
0.406058 0.476585 0.109712
0.528572 0.471382 0.130983
0.670390 0.500969 0.118730
0.775448 0.514900 0.115938
0.844816 0.515312 0.116838
0.913863 0.518883 0.118151
0.154345 0.629862 0.135683
0.226734 0.629725 0.135668
0.337240 0.629679 0.138949
0.459815 0.628595 0.150195
0.585061 0.628077 0.172457
0.689052 0.619760 0.196582
0.801419 0.633570 0.186603
0.875303 0.636561 0.172519
0.944411 0.638666 0.175845
0.244953 0.783352 0.213397
0.313542 0.779965 0.209491
0.408759 0.776226 0.208621
0.517601 0.772335 0.214817
0.633799 0.769665 0.231525
0.734829 0.763867 0.251392
0.824277 0.757366 0.271870
0.905638 0.758007 0.259983
0.973785 0.758984 0.261250
0.267506 0.867720 0.234836
0.343130 0.868437 0.236378
0.441764 0.870787 0.243839
0.549554 0.872984 0.257160
0.661250 0.875013 0.277745
0.763088 0.877119 0.300038
0.844312 0.868589 0.321004
0.922332 0.870115 0.334524
0.990066 0.870161 0.334325
0.267506 0.935470 0.234836
0.344442 0.936309 0.236637
0.443488 0.938643 0.244327
0.551003 0.940810 0.257710
0.662074 0.942809 0.278218
0.763455 0.944900 0.300328
0.844388 0.936339 0.321202
0.922332 0.937865 0.334524
0.990066 0.937911 0.334325
0.019028 0.026154 0.100526
0.086778 0.026154 0.100526
0.201877 0.020096 0.100542
0.333959 0.007401 0.098314
0.460121 0.017105 0.099489
0.571893 0.028687 0.101228
0.669612 0.040223 0.107988
0.751720 0.048402 0.116136
0.819684 0.048402 0.116640
0.018860 0.094057 0.100649
0.086763 0.093996 0.100587
0.200534 0.089143 0.100328
0.332738 0.076753 0.098360
0.459998 0.084810 0.099733
0.572885 0.096666 0.102266
0.670649 0.108446 0.108583
0.752071 0.116381 0.116381
0.820356 0.116365 0.117693
0.015396 0.196170 0.104250
0.085771 0.197955 0.105089
0.206485 0.195102 0.110964
0.361593 0.212634 0.100771
0.489723 0.213596 0.104005
0.596521 0.208194 0.111055
0.683146 0.194308 0.115892
0.759365 0.195789 0.120806
0.830823 0.201923 0.123095
0.033005 0.330465 0.125032
0.105501 0.331624 0.126070
0.235981 0.331014 0.132403
0.356909 0.324041 0.149615
0.526604 0.358572 0.124620
0.640299 0.365774 0.140215
0.739651 0.371725 0.154299
0.816190 0.374716 0.159274
0.886397 0.380499 0.161212
0.086885 0.476982 0.161990
0.158450 0.477867 0.162753
0.278248 0.478523 0.166415
0.405966 0.477241 0.178820
0.528359 0.471489 0.200229
0.670695 0.500847 0.188663
0.774548 0.514229 0.183169
0.844419 0.514244 0.184192
0.913359 0.517525 0.185382
0.150164 0.630854 0.206210
0.221881 0.629984 0.205737
0.334142 0.629587 0.208057
0.457984 0.628275 0.218769
0.583719 0.627405 0.240543
0.687800 0.618891 0.264195
0.800427 0.632578 0.254276
0.874891 0.635401 0.239704
0.943801 0.637263 0.242481
0.239384 0.782986 0.282918
0.306905 0.778927 0.277989
0.403281 0.774777 0.276005
0.513588 0.770779 0.281559
0.630838 0.767803 0.297719
0.732662 0.762158 0.317327
0.822187 0.755199 0.337484
0.904753 0.755795 0.324926
0.972747 0.756497 0.325536
0.262394 0.868971 0.306966
0.337530 0.869093 0.307134
0.437537 0.871290 0.313390
0.546426 0.873396 0.325765
0.659144 0.875273 0.345724
0.761547 0.877241 0.367620
0.843671 0.869215 0.388006
0.922377 0.870176 0.402701
0.990097 0.870268 0.402289
0.261128 0.936996 0.307973
0.337728 0.937087 0.307927
0.438621 0.939223 0.314076
0.547478 0.941253 0.326360
0.659739 0.943084 0.346181
0.761791 0.945022 0.367864
0.843702 0.936950 0.388083
0.922393 0.937942 0.402716
0.990097 0.938018 0.402289
0.002930 0.030732 0.209918
0.070771 0.030976 0.211307
0.190646 0.017701 0.221012
0.331594 0.007599 0.223056
0.465629 0.017410 0.222232
0.581781 0.029358 0.220783
0.682368 0.040955 0.218738
0.765057 0.048386 0.223621
0.835294 0.048432 0.233585
0.003174 0.102113 0.210010
0.070909 0.102235 0.209857
0.189014 0.087297 0.220218
0.330526 0.075242 0.223423
0.466270 0.085298 0.224537
0.583581 0.097520 0.225666
0.684810 0.109270 0.225071
0.766171 0.116136 0.227924
0.835477 0.116182 0.234363
0.007172 0.203983 0.223514
0.075196 0.205310 0.224994
0.197940 0.211688 0.229801
0.355612 0.202426 0.226581
0.483604 0.182956 0.221866
0.585824 0.166644 0.218402
0.685450 0.177325 0.224903
0.766842 0.183902 0.230625
0.835416 0.183932 0.234073
0.024094 0.350637 0.250187
0.092256 0.351812 0.251942
0.209186 0.347036 0.236332
0.363653 0.338003 0.246769
0.531640 0.355566 0.243107
0.645579 0.356573 0.250675
0.745983 0.359274 0.259007
0.824094 0.360357 0.263142
0.895415 0.366629 0.268101
0.049378 0.492073 0.259037
0.117418 0.492805 0.260456
0.245289 0.490303 0.257969
0.401266 0.488182 0.265507
0.533516 0.480278 0.286625
0.678767 0.504189 0.280735
0.783642 0.512917 0.280507
0.853956 0.510506 0.281010
0.923537 0.513756 0.284367
0.085893 0.632822 0.301778
0.158038 0.632654 0.301350
0.302617 0.635203 0.295232
0.444190 0.633494 0.301579
0.580987 0.632029 0.322606
0.688548 0.623423 0.345342
0.803861 0.635431 0.335805
0.878996 0.636088 0.322347
0.947509 0.637644 0.324041
0.208911 0.785290 0.367819
0.277317 0.781521 0.362814
0.377203 0.775921 0.354788
0.496544 0.771710 0.357092
0.622095 0.768353 0.371923
0.730297 0.764538 0.391608
0.820005 0.755825 0.411063
0.905623 0.755962 0.397391
0.973419 0.756390 0.397177
0.237247 0.872663 0.391791
0.314717 0.873091 0.390875
0.417121 0.874067 0.391394
0.532555 0.876005 0.400854
0.651347 0.877592 0.419501
0.756832 0.878752 0.440299
0.842588 0.872419 0.459861
0.922820 0.871962 0.475898
0.990845 0.872160 0.475151
0.234409 0.940627 0.393439
0.314046 0.941131 0.392020
0.417517 0.942077 0.392248
0.533150 0.943923 0.401511
0.651743 0.945418 0.419944
0.757168 0.946883 0.441016
0.842985 0.940963 0.460731
0.923018 0.940475 0.477272
0.991058 0.940642 0.476448
0.010514 0.059770 0.334951
0.078309 0.060243 0.334951
0.142840 0.033829 0.334981
0.316091 0.008896 0.342916
0.458976 0.018006 0.346166
0.585000 0.030823 0.354192
0.691585 0.042542 0.358923
0.777569 0.049989 0.364218
0.845884 0.050294 0.370993
0.010773 0.131090 0.333303
0.078477 0.131136 0.332982
0.143099 0.104189 0.334127
0.315007 0.076585 0.342824
0.460426 0.086107 0.347951
0.586816 0.099168 0.357183
0.693294 0.110964 0.362356
0.777798 0.117845 0.366857
0.845945 0.118074 0.371878
0.015656 0.227909 0.341939
0.083864 0.229648 0.343618
0.151522 0.226764 0.346303
0.331060 0.195529 0.362417
0.471901 0.157748 0.350179
0.591546 0.167956 0.351614
0.695308 0.179324 0.352575
0.776532 0.185061 0.353872
0.844755 0.185245 0.358373
0.027604 0.345281 0.365286
0.095888 0.346929 0.366796
0.168719 0.349142 0.366659
0.349844 0.357153 0.372946
0.522393 0.345449 0.370443
0.640833 0.334081 0.366476
0.733669 0.315999 0.361440
0.815229 0.320333 0.364858
0.885527 0.324193 0.369451
0.068330 0.523278 0.423804
0.136599 0.524269 0.424857
0.200061 0.516182 0.409476
0.366125 0.511467 0.378866
0.539940 0.498985 0.392905
0.688685 0.511727 0.392309
0.792004 0.511345 0.397772
0.866163 0.507774 0.398016
0.935866 0.511666 0.401724
0.099413 0.656184 0.449180
0.166262 0.654688 0.447272
0.250645 0.651026 0.426062
0.403342 0.646830 0.402365
0.570947 0.641550 0.415793
0.690654 0.633890 0.438392
0.811749 0.643809 0.431067
0.887037 0.640177 0.419379
0.955215 0.641215 0.420264
0.187335 0.792599 0.486656
0.246998 0.787671 0.479484
0.322866 0.781643 0.456672
0.458061 0.777173 0.444404
0.603693 0.772305 0.453132
0.725597 0.770031 0.473655
0.818433 0.760479 0.493400
0.908629 0.760159 0.479088
0.976410 0.760571 0.478538
0.231495 0.881773 0.510384
0.293355 0.879896 0.500694
0.380179 0.880201 0.485908
0.502892 0.881056 0.484001
0.634668 0.881590 0.497444
0.748196 0.881544 0.516991
0.841230 0.878218 0.536446
0.922408 0.875212 0.553033
0.992126 0.875578 0.552102
0.238819 0.951354 0.517586
0.296559 0.948653 0.504616
0.379629 0.948272 0.487312
0.503044 0.949081 0.484932
0.635019 0.949660 0.498192
0.748775 0.950378 0.518547
0.842237 0.947997 0.538460
0.922774 0.944823 0.556222
0.992645 0.945235 0.555322
0.025757 0.103914 0.466651
0.093248 0.103471 0.465599
0.158129 0.086931 0.464881
0.254688 0.033844 0.462104
0.447044 0.021134 0.468818
0.576150 0.032380 0.472389
0.688838 0.044724 0.480308
0.778286 0.053040 0.486595
0.845273 0.053300 0.491966
0.025254 0.172229 0.463157
0.092897 0.172152 0.462638
0.158007 0.155550 0.463294
0.258656 0.106111 0.464164
0.448157 0.089250 0.470603
0.578058 0.100862 0.475471
0.690272 0.113222 0.483284
0.778592 0.121126 0.488685
0.846052 0.121447 0.492790
0.031632 0.268513 0.470314
0.099947 0.269993 0.471855
0.166613 0.261967 0.474205
0.247074 0.223697 0.477699
0.452964 0.165957 0.476997
0.583352 0.169940 0.476814
0.694148 0.182040 0.481483
0.779385 0.188815 0.484779
0.847028 0.189151 0.488594
0.043015 0.372412 0.489860
0.111162 0.373388 0.490791
0.178485 0.372305 0.489876
0.276570 0.369757 0.496925
0.488594 0.335515 0.517082
0.631754 0.313436 0.508873
0.723629 0.288960 0.493477
0.781231 0.257939 0.473930
0.851560 0.261707 0.479515
0.065080 0.498955 0.520623
0.133074 0.499458 0.521126
0.200122 0.498695 0.518791
0.340352 0.511147 0.529641
0.521904 0.519585 0.530617
0.680003 0.511116 0.529015
0.792035 0.506828 0.525872
0.874525 0.500771 0.522164
0.944183 0.504891 0.525750
0.115694 0.665980 0.591394
0.182574 0.664805 0.589746
0.249195 0.664759 0.584695
0.373510 0.676646 0.582101
0.539498 0.666529 0.540734
0.691997 0.653788 0.549584
0.819379 0.659449 0.548638
0.901549 0.653941 0.546593
0.969726 0.654963 0.547982
0.157900 0.793362 0.623880
0.223545 0.790661 0.619776
0.330877 0.797238 0.615228
0.456596 0.798444 0.596658
0.563241 0.785443 0.556313
0.710781 0.778408 0.567819
0.816663 0.771740 0.589532
0.914748 0.771786 0.577996
0.982635 0.771832 0.577096
0.205219 0.884077 0.643091
0.290898 0.887755 0.640085
0.400854 0.893217 0.631449
0.500542 0.893294 0.611093
0.601816 0.889509 0.588754
0.730770 0.886946 0.601190
0.837293 0.886656 0.620722
0.920897 0.881437 0.637034
0.992782 0.881926 0.636057
0.195789 0.949645 0.645090
0.287968 0.955154 0.642329
0.400168 0.961181 0.633387
0.502449 0.961410 0.613260
0.602472 0.957931 0.589990
0.731685 0.956420 0.603296
0.838193 0.956847 0.623240
0.921248 0.951919 0.641138
0.993103 0.952529 0.640635
0.044877 0.143267 0.590829
0.112108 0.142428 0.589395
0.177584 0.133410 0.587396
0.232242 0.080369 0.574166
0.411185 0.022888 0.574456
0.560967 0.035111 0.583993
0.677180 0.046677 0.588937
0.766598 0.054215 0.593683
0.831876 0.054170 0.597894
0.043763 0.210239 0.586801
0.111360 0.210147 0.586282
0.177127 0.200900 0.585626
0.232761 0.150103 0.574838
0.414755 0.095750 0.578561
0.562417 0.103471 0.586206
0.678019 0.114992 0.590967
0.766384 0.122087 0.594751
0.832639 0.122240 0.598199
0.051347 0.306355 0.593393
0.119615 0.307469 0.594491
0.185351 0.297658 0.595071
0.244831 0.262501 0.590646
0.430076 0.224292 0.609216
0.561624 0.171130 0.586480
0.679850 0.183230 0.590814
0.772747 0.192203 0.595056
0.838697 0.192050 0.597681
0.061753 0.402640 0.608194
0.129778 0.403265 0.608743
0.196643 0.401053 0.607401
0.261891 0.391562 0.606638
0.434058 0.360601 0.633219
0.601877 0.321950 0.630945
0.699641 0.275090 0.604181
0.776577 0.260868 0.592004
0.845747 0.263416 0.596338
0.079973 0.514763 0.632395
0.147799 0.514961 0.632502
0.214359 0.512978 0.630106
0.281804 0.512261 0.627604
0.475624 0.529366 0.656123
0.642802 0.502968 0.669596
0.784649 0.493812 0.668528
0.877531 0.495537 0.662318
0.947158 0.499840 0.666178
0.105898 0.637797 0.663218
0.172946 0.636744 0.661997
0.239307 0.635264 0.658625
0.359854 0.648173 0.670634
0.526116 0.664027 0.682109
0.674449 0.669993 0.677409
0.810590 0.663615 0.677241
0.908827 0.659785 0.671519
0.977966 0.660853 0.672358
0.141146 0.765469 0.703868
0.207462 0.763714 0.701701
0.279622 0.765545 0.701411
0.429694 0.790051 0.721233
0.566903 0.805280 0.722103
0.692729 0.796902 0.690532
0.812787 0.787472 0.694102
0.919936 0.788937 0.691295
0.990356 0.788754 0.691371
0.150973 0.846799 0.715663
0.220859 0.850721 0.716854
0.345968 0.878676 0.737118
0.476463 0.899214 0.742351
0.608789 0.901900 0.726726
0.707317 0.896696 0.700191
0.824918 0.893065 0.710430
0.917617 0.890394 0.726818
0.990738 0.891035 0.726284
0.149920 0.912657 0.715068
0.220050 0.916976 0.716457
0.347234 0.945388 0.737484
0.476326 0.966720 0.743313
0.609613 0.970291 0.727794
0.708431 0.966354 0.701839
0.825818 0.963607 0.712566
0.918196 0.961151 0.730297
0.990921 0.961807 0.730678
0.063615 0.176013 0.703365
0.130709 0.174960 0.701930
0.197360 0.172152 0.700282
0.254170 0.134463 0.689693
0.385504 0.093553 0.697505
0.533211 0.036072 0.678950
0.659052 0.047822 0.685023
0.750179 0.054917 0.688243
0.816541 0.055116 0.690517
0.062242 0.242344 0.699672
0.129839 0.242252 0.699245
0.196841 0.239429 0.698817
0.254719 0.203998 0.690349
0.388785 0.164324 0.700282
0.534615 0.103990 0.680079
0.659709 0.115969 0.686015
0.750103 0.122805 0.688838
0.816953 0.123003 0.690578
0.070344 0.336202 0.706905
0.138598 0.337469 0.707668
0.204364 0.330236 0.706737
0.265827 0.307713 0.702663
0.388281 0.267567 0.712779
0.554879 0.221469 0.709895
0.658427 0.183276 0.685450
0.753201 0.191257 0.687938
0.819883 0.191485 0.689982
0.079698 0.429252 0.717250
0.147646 0.429694 0.717540
0.214801 0.428550 0.716533
0.279850 0.419516 0.715267
0.400198 0.393927 0.731640
0.579141 0.366430 0.747829
0.693492 0.311467 0.723308
0.758877 0.260380 0.686046
0.832227 0.268956 0.694316
0.094270 0.531014 0.734340
0.161929 0.530953 0.734142
0.228443 0.528923 0.732052
0.295109 0.527535 0.729839
0.451118 0.543999 0.758923
0.605646 0.523888 0.776928
0.747753 0.497658 0.777829
0.861204 0.486946 0.773404
0.931945 0.491356 0.776822
0.114427 0.640955 0.755871
0.181338 0.639780 0.754589
0.247486 0.637934 0.751568
0.315648 0.638163 0.749371
0.491920 0.662486 0.779767
0.644541 0.675395 0.791302
0.779828 0.659709 0.799847
0.902327 0.654917 0.800488
0.975341 0.657221 0.801831
0.136828 0.750042 0.777401
0.202594 0.747585 0.774533
0.268589 0.745800 0.770855
0.406332 0.765209 0.791333
0.553384 0.781140 0.803449
0.687205 0.792798 0.806271
0.803449 0.799100 0.802655
0.911421 0.797116 0.805066
0.985061 0.797742 0.805661
0.144335 0.829999 0.784726
0.211765 0.830610 0.783200
0.321675 0.848142 0.797787
0.462119 0.871061 0.815290
0.597284 0.890227 0.826352
0.714946 0.903181 0.828519
0.815564 0.904097 0.815869
0.914229 0.902342 0.820584
0.987564 0.903044 0.822522
0.144503 0.897734 0.785199
0.212009 0.898344 0.783902
0.319753 0.915145 0.797772
0.462181 0.938384 0.815381
0.598016 0.958602 0.827039
0.715816 0.973037 0.829892
0.816083 0.974365 0.816861
0.914992 0.973144 0.822858
0.987427 0.973510 0.825879
0.072679 0.191806 0.789014
0.140444 0.191882 0.789044
0.208392 0.192401 0.789303
0.269490 0.170520 0.783398
0.367346 0.127733 0.784161
0.535195 0.061997 0.772274
0.654917 0.048722 0.759960
0.747814 0.055344 0.760067
0.815564 0.055344 0.760067
0.073243 0.261250 0.789563
0.141054 0.261479 0.789639
0.209018 0.262028 0.789899
0.270191 0.240391 0.784207
0.378317 0.197650 0.788159
0.540063 0.133532 0.774777
0.656107 0.116762 0.760067
0.748135 0.123201 0.760159
0.815991 0.123247 0.760189
0.080644 0.350851 0.796567
0.148669 0.351659 0.796841
0.216037 0.350332 0.796674
0.279377 0.335821 0.793622
0.387350 0.300755 0.801846
0.560647 0.261280 0.808957
0.653223 0.183963 0.760510
0.750072 0.191699 0.760678
0.818036 0.191775 0.760739
0.090730 0.446265 0.805829
0.158602 0.446571 0.805966
0.226291 0.446372 0.805951
0.292119 0.439933 0.805188
0.427893 0.430259 0.829572
0.578912 0.397192 0.840650
0.700343 0.342367 0.819104
0.754589 0.262119 0.762432
0.831357 0.273548 0.771344
0.102388 0.541192 0.817716
0.170077 0.541054 0.817670
0.236957 0.538979 0.816907
0.304387 0.538460 0.816449
0.456138 0.559609 0.848737
0.606317 0.545983 0.867964
0.739559 0.513710 0.867842
0.849790 0.482948 0.855039
0.921721 0.487251 0.856855
0.118746 0.644541 0.832563
0.185977 0.643503 0.832120
0.252949 0.642008 0.831312
0.320424 0.641794 0.830747
0.469322 0.662806 0.860258
0.638376 0.683803 0.883146
0.769116 0.669245 0.892348
0.889967 0.649531 0.891081
0.964263 0.651545 0.891432
0.138415 0.750896 0.848554
0.204639 0.748104 0.847333
0.270954 0.745617 0.846006
0.372061 0.755917 0.859586
0.532052 0.777615 0.884642
0.671290 0.793790 0.895460
0.797635 0.806104 0.899840
0.909178 0.799756 0.905394
0.983627 0.800549 0.905699
0.144656 0.829969 0.853361
0.212634 0.830427 0.853498
0.293294 0.837888 0.860105
0.444678 0.863676 0.886992
0.586328 0.881697 0.900649
0.713619 0.894850 0.906645
0.823026 0.904234 0.908705
0.916274 0.912169 0.910903
0.987182 0.913237 0.911650
0.144656 0.897719 0.853361
0.212650 0.898222 0.853513
0.294743 0.906218 0.860777
0.445075 0.931533 0.887083
0.587518 0.950240 0.900954
0.715709 0.964340 0.907210
0.824872 0.973922 0.909468
0.917113 0.981689 0.911681
0.987442 0.983032 0.912291
0.072679 0.191806 0.856764
0.140444 0.191882 0.856794
0.208362 0.192279 0.857023
0.269062 0.169192 0.850736
0.375174 0.127123 0.854047
0.535424 0.055863 0.836271
0.657343 0.049302 0.827771
0.747814 0.055344 0.827817
0.815564 0.055344 0.827817
0.073320 0.261509 0.857404
0.141146 0.261769 0.857496
0.209064 0.262150 0.857710
0.269734 0.238911 0.851499
0.386023 0.197635 0.858076
0.540841 0.130068 0.840452
0.657908 0.117205 0.827863
0.748180 0.123217 0.827924
0.816022 0.123262 0.827955
0.080949 0.351766 0.864607
0.148959 0.352499 0.864851
0.216220 0.350805 0.864622
0.279576 0.336309 0.861601
0.392844 0.301625 0.871565
0.563195 0.260960 0.876783
0.654994 0.184390 0.828321
0.750134 0.191714 0.828443
0.818097 0.191791 0.828489
0.090990 0.446891 0.873854
0.158831 0.447089 0.873960
0.226490 0.446815 0.873915
0.292424 0.440757 0.873243
0.431800 0.431434 0.898802
0.581704 0.397879 0.909072
0.702205 0.342565 0.886946
0.755734 0.263493 0.831266
0.834653 0.277867 0.842359
0.102770 0.542046 0.885832
0.170428 0.541848 0.885771
0.237324 0.539818 0.885008
0.304753 0.539300 0.884535
0.459388 0.560967 0.917662
0.608530 0.546929 0.936324
0.741299 0.514336 0.935912
0.850950 0.484413 0.923445
0.922377 0.488487 0.925185
0.119203 0.645487 0.900694
0.186343 0.644282 0.900191
0.253285 0.642741 0.899351
0.320745 0.642496 0.898772
0.471656 0.663828 0.928847
0.639643 0.684520 0.951217
0.770077 0.669856 0.960296
0.890486 0.650278 0.959014
0.964446 0.652094 0.959319
0.138766 0.751568 0.916579
0.204883 0.748577 0.915282
0.271168 0.746029 0.913924
0.374136 0.756786 0.928145
0.532952 0.778073 0.952651
0.671809 0.794064 0.963317
0.797803 0.806256 0.967620
0.909270 0.799878 0.973159
0.983627 0.800595 0.973465
0.144656 0.829969 0.921111
0.212634 0.830427 0.921248
0.293553 0.837995 0.927977
0.444755 0.863706 0.954757
0.586389 0.881743 0.968399
0.713603 0.894850 0.974395
0.822995 0.904219 0.976455
0.916259 0.912154 0.978653
0.987182 0.913237 0.979400
0.144656 0.897719 0.921111
0.212650 0.898222 0.921263
0.294667 0.906188 0.928481
0.445014 0.931517 0.954818
0.587411 0.950210 0.968688
0.715663 0.964324 0.974960
0.824826 0.973907 0.977218
0.917067 0.981659 0.979416
0.987442 0.983032 0.980041
