luts/Nostalgic City.CUBE
# kravix mobile - LUTs Pack
LUT_3D_SIZE 17
0.019104 0.026139 0.032624
0.052979 0.026139 0.032624
0.086854 0.026139 0.032624
0.132265 0.025483 0.032608
0.203616 0.020569 0.032151
0.272648 0.010239 0.031174
0.334722 0.007446 0.030350
0.397757 0.011643 0.030167
0.460121 0.017166 0.030167
0.517876 0.023011 0.030839
0.571572 0.028717 0.031525
0.621942 0.034409 0.034409
0.669596 0.040208 0.040208
0.714321 0.046128 0.046128
0.751659 0.048356 0.048356
0.785534 0.048356 0.048356
0.819409 0.048356 0.048356
0.019104 0.059999 0.032624
0.052979 0.059999 0.032624
0.086854 0.059999 0.032624
0.132342 0.059342 0.032608
0.204196 0.054322 0.032135
0.273442 0.043778 0.031128
0.335912 0.041459 0.030350
0.399710 0.045838 0.030167
0.462394 0.051545 0.030198
0.520363 0.057542 0.030899
0.574136 0.063401 0.031663
0.624613 0.069291 0.035416
0.672084 0.075303 0.041444
0.715877 0.080964 0.047105
0.751675 0.082231 0.048356
0.785550 0.082231 0.048371
0.819440 0.082246 0.048386
0.018998 0.094011 0.032654
0.052857 0.094026 0.032654
0.086854 0.093996 0.032624
0.132174 0.093477 0.032593
0.201373 0.089418 0.032181
0.270741 0.080873 0.031327
0.332616 0.075670 0.030091
0.395941 0.079088 0.029633
0.459312 0.084749 0.029725
0.517739 0.090745 0.030228
0.571893 0.096605 0.030899
0.622736 0.102449 0.034699
0.670512 0.108400 0.040650
0.715190 0.114412 0.046662
0.752026 0.116350 0.048600
0.785946 0.116381 0.048631
0.819821 0.116381 0.048646
0.016129 0.135378 0.033143
0.049927 0.135851 0.033143
0.085939 0.135119 0.033173
0.132311 0.134157 0.034073
0.210742 0.139879 0.030915
0.281102 0.141085 0.030930
0.344045 0.140673 0.031006
0.406928 0.135149 0.030442
0.464866 0.123903 0.027481
0.520714 0.125612 0.026810
0.574487 0.131411 0.029786
0.625071 0.137224 0.035599
0.672236 0.143145 0.041520
0.716426 0.149065 0.047456
0.752087 0.150271 0.048646
0.785962 0.150271 0.048646
0.819837 0.150271 0.048646
0.018280 0.194064 0.034958
0.052201 0.195880 0.035187
0.089219 0.195499 0.035294
0.142489 0.194965 0.036744
0.205234 0.193439 0.040269
0.293660 0.208637 0.031479
0.360967 0.213184 0.029923
0.426780 0.214618 0.031571
0.489632 0.215320 0.034058
0.546197 0.214160 0.039506
0.597910 0.211505 0.044251
0.645502 0.208270 0.048264
0.687709 0.202670 0.051026
0.725597 0.196994 0.053086
0.763729 0.203021 0.055757
0.802686 0.211612 0.058885
0.840421 0.218341 0.061311
0.022446 0.263462 0.041627
0.056916 0.265476 0.042252
0.095354 0.265263 0.042267
0.155230 0.265614 0.043961
0.222507 0.263462 0.049485
0.284169 0.259693 0.056367
0.366690 0.273854 0.044160
0.445212 0.286213 0.036393
0.509758 0.289952 0.045060
0.567163 0.291737 0.052506
0.621012 0.293431 0.059312
0.671901 0.295445 0.065827
0.719707 0.297810 0.072190
0.763684 0.299931 0.077775
0.798245 0.301244 0.078248
0.834195 0.305608 0.079713
0.869520 0.308659 0.080751
0.037110 0.329259 0.054826
0.071992 0.330968 0.055680
0.110002 0.330297 0.055360
0.168093 0.330892 0.056992
0.236042 0.329686 0.062058
0.298344 0.327001 0.070283
0.355673 0.322652 0.080217
0.448173 0.343221 0.063554
0.526528 0.358602 0.056428
0.586618 0.363699 0.065217
0.640742 0.366537 0.072755
0.692012 0.369650 0.080018
0.740414 0.373083 0.087098
0.782559 0.375341 0.091722
0.817075 0.376761 0.092210
0.852537 0.380529 0.093477
0.887510 0.383139 0.094362
0.061326 0.399023 0.072969
0.096819 0.401480 0.074098
0.133394 0.400412 0.073655
0.188006 0.401114 0.074952
0.254154 0.400732 0.078889
0.318242 0.399527 0.085557
0.377325 0.397238 0.094087
0.440543 0.395514 0.103380
0.529549 0.416419 0.094072
0.599039 0.430350 0.082460
0.659724 0.439414 0.087007
0.712428 0.444419 0.095567
0.760174 0.447593 0.102617
0.798535 0.448463 0.105089
0.832731 0.449256 0.105379
0.867704 0.452125 0.106371
0.902358 0.454139 0.107073
0.089647 0.475547 0.092042
0.125292 0.478202 0.093202
0.161715 0.476677 0.092607
0.214359 0.477470 0.093706
0.279255 0.477592 0.096849
0.343740 0.477150 0.102312
0.406058 0.476585 0.109712
0.465751 0.472923 0.119814
0.528572 0.471382 0.130983
0.605722 0.488243 0.125658
0.670390 0.500969 0.118730
0.724010 0.509407 0.107713
0.775448 0.514900 0.115938
0.810971 0.515404 0.116869
0.844816 0.515312 0.116838
0.879423 0.517342 0.117571
0.913863 0.518883 0.118151
0.120043 0.552743 0.111666
0.155825 0.555322 0.112932
0.192340 0.553445 0.112078
0.243748 0.554009 0.112993
0.306935 0.554192 0.115755
0.370443 0.553933 0.120668
0.432807 0.553552 0.127565
0.497185 0.553262 0.137682
0.551247 0.545937 0.149050
0.610849 0.545708 0.161761
0.678981 0.558694 0.156603
0.737819 0.568338 0.152331
0.788983 0.575128 0.145571
0.823346 0.576440 0.133577
0.854490 0.575814 0.127184
0.888853 0.577234 0.127703
0.923262 0.578408 0.128435
0.154345 0.629862 0.135683
0.190234 0.632151 0.137194
0.226734 0.629725 0.135668
0.276783 0.629877 0.136385
0.337240 0.629679 0.138949
0.398520 0.629160 0.143496
0.459815 0.628595 0.150195
0.523766 0.628244 0.160372
0.585061 0.628077 0.172457
0.631861 0.617823 0.184192
0.689052 0.619760 0.196582
0.748852 0.628214 0.191653
0.801419 0.633570 0.186603
0.843351 0.636622 0.180392
0.875303 0.636561 0.172519
0.909850 0.637720 0.174105
0.944411 0.638666 0.175845
0.196048 0.707607 0.169238
0.231250 0.708873 0.170397
0.267262 0.705989 0.167865
0.315190 0.705486 0.168185
0.371435 0.704356 0.169879
0.429343 0.703197 0.173587
0.488396 0.702129 0.179583
0.550546 0.701244 0.188922
0.610513 0.700786 0.200107
0.664485 0.698680 0.211612
0.708278 0.689143 0.223682
0.760555 0.690654 0.233875
0.813626 0.695354 0.229007
0.858259 0.696498 0.222110
0.891768 0.696727 0.216739
0.926024 0.697566 0.217700
0.960281 0.698222 0.218769
0.244953 0.783352 0.213397
0.278676 0.783230 0.213275
0.313542 0.779965 0.209491
0.357916 0.778454 0.208591
0.408759 0.776226 0.208621
0.461982 0.774136 0.210513
0.517601 0.772335 0.214817
0.576654 0.770871 0.222385
0.633799 0.769665 0.231525
0.688273 0.769085 0.241642
0.734829 0.763867 0.251392
0.776944 0.756649 0.263386
0.824277 0.757366 0.271870
0.871519 0.759060 0.266499
0.905638 0.758007 0.259983
0.939696 0.758541 0.260533
0.973785 0.758984 0.261250
0.267506 0.833844 0.234836
0.301823 0.833875 0.234928
0.341833 0.834440 0.236118
0.387778 0.835248 0.238453
0.438315 0.835431 0.241413
0.490135 0.835203 0.245167
0.543694 0.834653 0.250202
0.600061 0.833921 0.257633
0.654505 0.833097 0.265934
0.706798 0.832532 0.275059
0.756191 0.831937 0.284703
0.797192 0.825559 0.293721
0.837507 0.821134 0.306355
0.880964 0.821927 0.314153
0.917784 0.822385 0.310216
0.951766 0.822766 0.310552
0.985702 0.822980 0.310918
0.267506 0.867720 0.234836
0.302602 0.867826 0.235065
0.343130 0.868437 0.236378
0.390051 0.869520 0.239261
0.441764 0.870787 0.243839
0.494835 0.871931 0.249683
0.549554 0.872984 0.257160
0.606561 0.874052 0.267079
0.661250 0.875013 0.277745
0.713512 0.876020 0.288884
0.763088 0.877119 0.300038
0.805676 0.873762 0.310185
0.844312 0.868589 0.321004
0.884825 0.868925 0.335988
0.922332 0.870115 0.334524
0.956191 0.870161 0.334325
0.990066 0.870161 0.334325
0.267506 0.901595 0.234836
0.303166 0.901747 0.235172
0.344045 0.902388 0.236561
0.391333 0.903502 0.239567
0.443030 0.904738 0.244190
0.495995 0.905867 0.250065
0.550698 0.906920 0.257588
0.607492 0.907973 0.267521
0.661936 0.908934 0.278141
0.714000 0.909911 0.289204
0.763439 0.911009 0.300313
0.805753 0.907530 0.310353
0.844404 0.902464 0.321218
0.884871 0.902800 0.336065
0.922332 0.903990 0.334524
0.956191 0.904036 0.334325
0.990066 0.904036 0.334325
0.267506 0.935470 0.234836
0.303456 0.935653 0.235233
0.344442 0.936309 0.236637
0.391867 0.937407 0.239704
0.443488 0.938643 0.244327
0.496406 0.939773 0.250202
0.551003 0.940810 0.257710
0.607721 0.941848 0.267628
0.662074 0.942809 0.278218
0.714092 0.943801 0.289250
0.763455 0.944900 0.300328
0.805753 0.941390 0.310369
0.844388 0.936339 0.321202
0.884855 0.936675 0.336004
0.922332 0.937865 0.334524
0.956191 0.937911 0.334325
0.990066 0.937911 0.334325
0.019104 0.026139 0.066499
0.052979 0.026139 0.066499
0.086854 0.026139 0.066499
0.132219 0.025483 0.066484
0.203616 0.020569 0.066010
0.272648 0.010239 0.065049
0.334768 0.007446 0.064225
0.397864 0.011658 0.064042
0.460258 0.017197 0.064042
0.518044 0.023056 0.064698
0.571786 0.028778 0.065400
0.622126 0.034470 0.068345
0.669795 0.040314 0.074174
0.714458 0.046204 0.080079
0.751659 0.048356 0.082231
0.785534 0.048356 0.082231
0.819409 0.048356 0.082231
0.019104 0.059999 0.066499
0.052979 0.059999 0.066499
0.086854 0.059999 0.066499
0.132403 0.059342 0.066484
0.204318 0.054307 0.065995
0.273610 0.043702 0.064988
0.336095 0.041489 0.064225
0.400031 0.045899 0.064027
0.462715 0.051621 0.064073
0.520729 0.057649 0.064790
0.574472 0.063523 0.065553
0.624949 0.069413 0.069413
0.672358 0.075456 0.075456
0.716045 0.081071 0.081071
0.751675 0.082231 0.082231
0.785565 0.082246 0.082246
0.819455 0.082246 0.082246
0.018998 0.094011 0.066514
0.052842 0.094026 0.066514
0.086870 0.093996 0.066499
0.132357 0.093492 0.066468
0.201846 0.089418 0.066026
0.271244 0.081010 0.065171
0.333074 0.075929 0.063966
0.396445 0.079179 0.063447
0.459815 0.084855 0.063554
0.518212 0.090868 0.064073
0.572274 0.096727 0.064744
0.623072 0.102571 0.068696
0.670710 0.108507 0.074632
0.715328 0.114488 0.080613
0.752026 0.116350 0.082475
0.785946 0.116381 0.082505
0.819821 0.116381 0.082505
0.016113 0.135515 0.067018
0.049897 0.136019 0.067018
0.086076 0.135271 0.067063
0.132387 0.134264 0.068040
0.211627 0.140352 0.064744
0.281910 0.141726 0.064775
0.344839 0.141375 0.064881
0.407813 0.135912 0.064378
0.465370 0.123888 0.061250
0.521172 0.125780 0.060609
0.574868 0.131533 0.063783
0.625345 0.137331 0.069581
0.672404 0.143221 0.075471
0.716365 0.149035 0.081285
0.752087 0.150271 0.082521
0.785962 0.150271 0.082521
0.819837 0.150271 0.082521
0.018296 0.194644 0.068894
0.052216 0.196521 0.069139
0.089601 0.196139 0.069261
0.143221 0.195590 0.070756
0.205768 0.193851 0.074525
0.294545 0.209323 0.065339
0.361837 0.213886 0.063783
0.427710 0.215381 0.065477
0.490410 0.216144 0.068116
0.546990 0.215076 0.073747
0.598718 0.212634 0.078553
0.646128 0.209125 0.082475
0.688258 0.203464 0.085222
0.726696 0.198932 0.087633
0.764309 0.203998 0.089983
0.803113 0.212345 0.093019
0.840162 0.217899 0.095018
0.022644 0.264134 0.075700
0.057114 0.266148 0.076341
0.095994 0.265919 0.076341
0.156054 0.266178 0.078065
0.223316 0.264027 0.083650
0.284855 0.260243 0.090654
0.367453 0.274449 0.078340
0.446174 0.286961 0.070603
0.510628 0.290700 0.079301
0.567880 0.292439 0.086717
0.621668 0.294118 0.093522
0.672419 0.296101 0.099992
0.720119 0.298421 0.106325
0.763882 0.300343 0.111788
0.798367 0.301488 0.112200
0.834241 0.305669 0.113603
0.869352 0.308309 0.114488
0.037461 0.329854 0.088975
0.072343 0.331563 0.089845
0.110780 0.330922 0.089555
0.168963 0.331472 0.091203
0.236896 0.330266 0.096330
0.299062 0.327535 0.104585
0.356634 0.323354 0.114260
0.449012 0.343877 0.097780
0.527214 0.359228 0.090745
0.587320 0.364370 0.099443
0.641337 0.367178 0.106950
0.692454 0.370199 0.114153
0.740749 0.373526 0.121187
0.782681 0.375570 0.125673
0.817136 0.376928 0.126131
0.852506 0.380438 0.127321
0.887373 0.382818 0.128115
0.061860 0.399832 0.107210
0.097414 0.402365 0.108370
0.134264 0.401236 0.107912
0.188983 0.401907 0.109224
0.255116 0.401450 0.113161
0.319158 0.400244 0.119844
0.378210 0.397955 0.128374
0.441474 0.396262 0.137652
0.530327 0.417105 0.128527
0.599680 0.430976 0.116823
0.660227 0.439979 0.121172
0.712825 0.444892 0.129686
0.760327 0.447852 0.136614
0.798627 0.448676 0.139040
0.832715 0.449241 0.139239
0.867628 0.451896 0.140169
0.902220 0.453788 0.140826
0.090257 0.476478 0.126329
0.125856 0.479072 0.127459
0.162524 0.477485 0.126833
0.215228 0.478172 0.127916
0.280201 0.478294 0.131090
0.344625 0.477836 0.136553
0.406882 0.477226 0.143954
0.466575 0.473564 0.154086
0.529107 0.471839 0.165423
0.606332 0.488777 0.159960
0.670863 0.501411 0.153216
0.724376 0.509697 0.142229
0.775326 0.515038 0.149783
0.810987 0.515450 0.150744
0.844770 0.515221 0.150668
0.879332 0.517113 0.151354
0.913725 0.518502 0.151873
0.120668 0.553597 0.145937
0.156405 0.556100 0.147189
0.193011 0.554055 0.146258
0.244480 0.554574 0.147173
0.307713 0.554757 0.149950
0.371115 0.554452 0.154849
0.433494 0.554070 0.161791
0.497856 0.553811 0.171939
0.551736 0.546288 0.183261
0.611383 0.546181 0.195789
0.679286 0.558968 0.190692
0.737957 0.568490 0.186343
0.788876 0.575158 0.179370
0.823362 0.576410 0.167483
0.854459 0.575708 0.161028
0.888655 0.576959 0.161242
0.922927 0.578027 0.161685
0.154940 0.630594 0.170047
0.190494 0.632532 0.171344
0.227131 0.630030 0.169741
0.277241 0.630137 0.170443
0.337575 0.629862 0.172946
0.398856 0.629358 0.177523
0.460090 0.628763 0.184237
0.524056 0.628473 0.194446
0.585290 0.628244 0.206516
0.632136 0.618067 0.218280
0.689189 0.619883 0.230503
0.748821 0.628199 0.225528
0.801282 0.633478 0.220401
0.843244 0.636454 0.214054
0.875105 0.636301 0.205890
0.909560 0.637308 0.207187
0.944060 0.638193 0.208835
0.196094 0.707851 0.203464
0.230991 0.708858 0.204379
0.267033 0.705821 0.201587
0.314961 0.705211 0.201816
0.371206 0.704051 0.203479
0.429084 0.702937 0.207202
0.488182 0.701869 0.213214
0.550347 0.701060 0.222614
0.610285 0.700587 0.233783
0.664240 0.698436 0.245258
0.708156 0.689052 0.257420
0.760327 0.690394 0.267445
0.813321 0.695048 0.262516
0.858122 0.696178 0.255634
0.891554 0.696315 0.250004
0.925765 0.697093 0.250797
0.959945 0.697643 0.251698
0.244053 0.783017 0.247059
0.277470 0.782681 0.246647
0.312245 0.779324 0.242679
0.356695 0.777676 0.241627
0.407691 0.775402 0.241520
0.461067 0.773404 0.243458
0.516777 0.771695 0.247883
0.575830 0.770169 0.255421
0.633158 0.769085 0.264698
0.687755 0.768597 0.274922
0.734340 0.763378 0.284657
0.776455 0.756146 0.296666
0.823804 0.756802 0.305058
0.871077 0.758495 0.299641
0.905379 0.757382 0.292958
0.939361 0.757763 0.293202
0.973419 0.758175 0.293843
0.266804 0.834012 0.269322
0.301091 0.834043 0.269368
0.340917 0.834470 0.270298
0.386557 0.834943 0.272068
0.437247 0.835065 0.274815
0.489128 0.834760 0.278340
0.542687 0.834134 0.283253
0.599115 0.833326 0.290547
0.653635 0.832441 0.298756
0.706050 0.831891 0.307927
0.755566 0.831342 0.317586
0.796597 0.824887 0.326513
0.836896 0.820371 0.339025
0.880415 0.821118 0.346807
0.917540 0.821622 0.342840
0.951461 0.821912 0.342977
0.985412 0.822110 0.343313
0.266346 0.868009 0.269718
0.301396 0.868040 0.269764
0.341741 0.868528 0.270787
0.388861 0.869596 0.273487
0.440787 0.870832 0.277882
0.494041 0.871962 0.283558
0.548775 0.872984 0.290867
0.605859 0.874037 0.300679
0.660685 0.874998 0.311299
0.713008 0.875990 0.322408
0.762661 0.877073 0.333593
0.805539 0.873976 0.343771
0.844114 0.868635 0.354406
0.884596 0.868864 0.369406
0.922332 0.870100 0.368444
0.956191 0.870161 0.368185
0.990066 0.870161 0.368185
0.266011 0.901976 0.270024
0.301579 0.901991 0.270024
0.342306 0.902495 0.271092
0.389838 0.903593 0.273884
0.441810 0.904814 0.278294
0.494987 0.905913 0.283970
0.549722 0.906920 0.291310
0.606683 0.907958 0.301106
0.661295 0.908904 0.311666
0.713436 0.909880 0.322698
0.762966 0.910979 0.333806
0.805600 0.907744 0.343893
0.844160 0.902495 0.354528
0.884627 0.902754 0.369482
0.922332 0.903975 0.368444
0.956191 0.904036 0.368185
0.990066 0.904036 0.368185
0.265843 0.935897 0.270176
0.301671 0.935912 0.270146
0.342550 0.936416 0.271244
0.390234 0.937514 0.274052
0.442145 0.938720 0.278447
0.495277 0.939818 0.284108
0.549981 0.940826 0.291432
0.606851 0.941848 0.301213
0.661372 0.942779 0.311727
0.713497 0.943771 0.322728
0.762966 0.944854 0.333806
0.805600 0.941634 0.343893
0.844129 0.936355 0.354482
0.884611 0.936629 0.369421
0.922332 0.937850 0.368444
0.956191 0.937911 0.368185
0.990066 0.937911 0.368185
0.019028 0.026154 0.100526
0.052903 0.026154 0.100526
0.086778 0.026154 0.100526
0.131579 0.025361 0.100954
0.201877 0.020096 0.100542
0.271611 0.011841 0.099107
0.333959 0.007401 0.098314
0.397391 0.011566 0.098863
0.460121 0.017105 0.099489
0.517983 0.022950 0.100221
0.571893 0.028687 0.101228
0.622217 0.034379 0.103349
0.669612 0.040223 0.107988
0.714321 0.046128 0.113863
0.751720 0.048402 0.116136
0.785657 0.048402 0.116274
0.819684 0.048402 0.116640
0.019028 0.060014 0.100526
0.052903 0.060014 0.100526
0.086763 0.060014 0.100542
0.131823 0.059174 0.101045
0.202670 0.053498 0.100862
0.272709 0.044617 0.099275
0.335470 0.041444 0.098421
0.399802 0.045823 0.099260
0.462928 0.051576 0.100359
0.520989 0.057572 0.101427
0.575021 0.063447 0.102770
0.625162 0.069337 0.104738
0.672389 0.075364 0.109789
0.716167 0.081102 0.115175
0.751812 0.082277 0.116335
0.785870 0.082292 0.116747
0.819821 0.082307 0.116899
0.018860 0.094057 0.100649
0.052705 0.094087 0.100694
0.086763 0.093996 0.100587
0.131441 0.093385 0.100786
0.200534 0.089143 0.100328
0.270619 0.082490 0.099428
0.332738 0.076753 0.098360
0.396307 0.079133 0.098588
0.459998 0.084810 0.099733
0.518532 0.090806 0.100862
0.572885 0.096666 0.102266
0.623377 0.102495 0.104387
0.670649 0.108446 0.108583
0.715251 0.114443 0.114443
0.752071 0.116381 0.116381
0.786221 0.116381 0.117037
0.820356 0.116365 0.117693
0.016205 0.135698 0.101656
0.049882 0.136400 0.102022
0.085649 0.135805 0.101762
0.131838 0.134707 0.102831
0.210513 0.140215 0.099611
0.281422 0.140887 0.099870
0.344366 0.138521 0.100450
0.406470 0.130648 0.099916
0.464546 0.120821 0.097642
0.521691 0.125750 0.098268
0.575143 0.131456 0.099824
0.625208 0.137255 0.103593
0.672267 0.143145 0.109270
0.716213 0.148928 0.115053
0.752087 0.150271 0.116411
0.786007 0.150256 0.116503
0.819883 0.150256 0.116533
0.015396 0.196170 0.104250
0.048112 0.198489 0.104952
0.085771 0.197955 0.105089
0.142428 0.197406 0.106889
0.206485 0.195102 0.110964
0.295125 0.209277 0.101534
0.361593 0.212634 0.100771
0.427283 0.213550 0.102388
0.489723 0.213596 0.104005
0.545510 0.211765 0.107042
0.596521 0.208194 0.111055
0.642267 0.201434 0.113848
0.683146 0.194308 0.115892
0.724315 0.195178 0.120043
0.759365 0.195789 0.120806
0.795773 0.199969 0.122362
0.830823 0.201923 0.123095
0.017990 0.265187 0.111528
0.050904 0.267475 0.112764
0.090166 0.267124 0.112810
0.153658 0.267460 0.114504
0.223239 0.265232 0.120058
0.285374 0.261143 0.126864
0.367834 0.274571 0.114931
0.445624 0.286137 0.105257
0.509560 0.289281 0.112657
0.566796 0.290761 0.119982
0.620478 0.292103 0.126665
0.671061 0.293645 0.132967
0.718608 0.295537 0.139162
0.762203 0.296895 0.144488
0.796368 0.297368 0.144686
0.832120 0.301259 0.145998
0.867262 0.303899 0.146883
0.033005 0.330465 0.125032
0.066758 0.332357 0.126452
0.105501 0.331624 0.126070
0.166323 0.332235 0.127535
0.235981 0.331014 0.132403
0.299046 0.328298 0.140520
0.356909 0.324041 0.149615
0.449134 0.343877 0.134386
0.526604 0.358572 0.124620
0.586297 0.363241 0.132784
0.640299 0.365774 0.140215
0.691447 0.368704 0.147372
0.739651 0.371725 0.154299
0.781872 0.373693 0.158923
0.816190 0.374716 0.159274
0.851545 0.378195 0.160433
0.886397 0.380499 0.161212
0.058717 0.400473 0.143008
0.093370 0.403143 0.144656
0.130526 0.401801 0.144060
0.186252 0.402350 0.145159
0.253742 0.401923 0.148821
0.318517 0.400656 0.155245
0.377997 0.398337 0.163622
0.441230 0.396368 0.172656
0.530236 0.416968 0.164111
0.599649 0.430518 0.152438
0.659541 0.439170 0.154635
0.711833 0.443793 0.162936
0.759411 0.446662 0.169833
0.798169 0.447501 0.172503
0.832197 0.447868 0.172641
0.867063 0.450462 0.173541
0.901656 0.452308 0.174182
0.086885 0.476982 0.161990
0.121721 0.479713 0.163531
0.158450 0.477867 0.162753
0.212055 0.478355 0.163516
0.278248 0.478523 0.166415
0.343328 0.477958 0.171603
0.405966 0.477241 0.178820
0.465965 0.473548 0.188769
0.528359 0.471489 0.200229
0.605814 0.488334 0.194629
0.670695 0.500847 0.188663
0.724041 0.509071 0.176455
0.774548 0.514229 0.183169
0.810666 0.514595 0.184314
0.844419 0.514244 0.184192
0.878965 0.516075 0.184863
0.913359 0.517525 0.185382
0.116396 0.553964 0.181750
0.151522 0.556588 0.183368
0.188312 0.554238 0.182132
0.240482 0.554513 0.182681
0.304997 0.554665 0.185122
0.369162 0.554314 0.189731
0.431983 0.553811 0.196475
0.496513 0.553353 0.206378
0.550866 0.545983 0.217609
0.610468 0.545647 0.229877
0.678447 0.558297 0.224994
0.737346 0.567758 0.220874
0.788647 0.574395 0.214557
0.823468 0.575723 0.202014
0.854337 0.574899 0.194965
0.888365 0.576104 0.194812
0.922683 0.577157 0.195361
0.150164 0.630854 0.206210
0.185321 0.632883 0.207782
0.221881 0.629984 0.205737
0.272602 0.629847 0.205966
0.334142 0.629587 0.208057
0.396262 0.628977 0.212299
0.457984 0.628275 0.218769
0.522225 0.627756 0.228641
0.583719 0.627405 0.240543
0.631113 0.617578 0.252338
0.687800 0.618891 0.264195
0.747677 0.627222 0.259266
0.800427 0.632578 0.254276
0.843091 0.635645 0.248280
0.874891 0.635401 0.239704
0.909285 0.636378 0.240772
0.943801 0.637263 0.242481
0.191440 0.708064 0.239826
0.226108 0.709102 0.240879
0.261524 0.705608 0.237583
0.309819 0.704723 0.237247
0.367193 0.703548 0.238422
0.425910 0.702296 0.241672
0.485451 0.701030 0.247288
0.547982 0.700069 0.256382
0.608301 0.699489 0.267369
0.662547 0.697322 0.278660
0.706477 0.687800 0.290593
0.758709 0.689082 0.300633
0.811994 0.693767 0.295598
0.857633 0.695109 0.288945
0.891173 0.695293 0.283070
0.925307 0.696025 0.283619
0.959533 0.696620 0.284596
0.239384 0.782986 0.282918
0.272709 0.782712 0.282612
0.306905 0.778927 0.277989
0.351492 0.777081 0.276509
0.403281 0.774777 0.276005
0.457465 0.772702 0.277577
0.513588 0.770779 0.281559
0.573159 0.769131 0.288777
0.630838 0.767803 0.297719
0.685664 0.767178 0.307698
0.732662 0.762158 0.317327
0.774701 0.754620 0.329122
0.822187 0.755199 0.337484
0.869917 0.757031 0.332113
0.904753 0.755795 0.324926
0.938659 0.756069 0.324849
0.972747 0.756497 0.325536
0.263310 0.834882 0.306188
0.297612 0.834882 0.306172
0.336934 0.834882 0.306279
0.382452 0.835035 0.307332
0.433707 0.835096 0.309697
0.486061 0.834653 0.312810
0.539849 0.833783 0.317220
0.596551 0.832731 0.323964
0.651392 0.831556 0.331716
0.703960 0.830701 0.340368
0.753765 0.830121 0.349722
0.795026 0.823545 0.358343
0.835340 0.818753 0.370596
0.879026 0.819425 0.378439
0.916960 0.819867 0.374136
0.950866 0.820127 0.374029
0.984817 0.820340 0.374395
0.262394 0.868971 0.306966
0.297520 0.868955 0.306828
0.337530 0.869093 0.307134
0.384848 0.870024 0.309300
0.437537 0.871290 0.313390
0.491341 0.872389 0.318776
0.546426 0.873396 0.325765
0.603937 0.874372 0.335302
0.659144 0.875273 0.345724
0.711711 0.876204 0.356619
0.761547 0.877241 0.367620
0.805264 0.874846 0.377813
0.843671 0.869215 0.388006
0.884031 0.868986 0.402792
0.922377 0.870176 0.402701
0.956222 0.870268 0.402289
0.990097 0.870268 0.402289
0.261570 0.903029 0.307622
0.297307 0.902998 0.307408
0.337697 0.903136 0.307683
0.385504 0.904051 0.309834
0.438376 0.905287 0.313878
0.492180 0.906371 0.319249
0.547295 0.907347 0.326238
0.604685 0.908324 0.335760
0.659693 0.909209 0.346120
0.712093 0.910124 0.356939
0.761776 0.911147 0.367849
0.805325 0.908660 0.377951
0.843717 0.903075 0.388144
0.884047 0.902876 0.402838
0.922377 0.904067 0.402701
0.956222 0.904143 0.402289
0.990097 0.904143 0.402289
0.261128 0.936996 0.307973
0.297230 0.936950 0.307683
0.337728 0.937087 0.307927
0.385733 0.937987 0.310063
0.438621 0.939223 0.314076
0.492424 0.940276 0.319402
0.547478 0.941253 0.326360
0.604822 0.942214 0.335866
0.659739 0.943084 0.346181
0.712123 0.943999 0.356985
0.761791 0.945022 0.367864
0.805310 0.942535 0.377951
0.843702 0.936950 0.388083
0.884031 0.936751 0.402777
0.922393 0.937942 0.402716
0.956222 0.938018 0.402289
0.990097 0.938018 0.402289
0.014023 0.026993 0.144808
0.047898 0.026993 0.144793
0.081666 0.027009 0.145037
0.127062 0.024979 0.148669
0.196826 0.017960 0.153460
0.269215 0.004105 0.154330
0.335363 0.007446 0.150866
0.399496 0.011704 0.145632
0.462318 0.017227 0.144808
0.520317 0.022995 0.146822
0.574853 0.028717 0.149905
0.626123 0.034379 0.153231
0.674220 0.040147 0.157290
0.719478 0.045991 0.162280
0.757748 0.048295 0.166079
0.792615 0.048295 0.168917
0.827268 0.048310 0.171221
0.013992 0.060853 0.144854
0.047822 0.060868 0.144915
0.081498 0.060899 0.145312
