luts/Precision_Slide.CUBE
# kravix mobile - LUTs Pack
LUT_3D_SIZE 17
0.000000 0.000000 0.000000
0.009804 0.000000 0.000000
0.043137 0.000000 0.000000
0.094117 0.000000 0.000000
0.152941 0.000000 0.000000
0.203921 0.000000 0.001961
0.270588 0.000000 0.007843
0.341176 0.001961 0.017647
0.411765 0.003922 0.035294
0.494118 0.009804 0.056863
0.564706 0.019608 0.078431
0.649019 0.033334 0.103921
0.717647 0.047059 0.125490
0.796079 0.066666 0.149019
0.862745 0.078431 0.168627
0.927451 0.094117 0.188235
0.992157 0.105882 0.207843
0.001961 0.013726 0.000000
0.019608 0.015686 0.000000
0.060785 0.015686 0.000000
0.110784 0.023529 0.000000
0.162745 0.021568 0.000000
0.226471 0.028431 0.000000
0.284313 0.027451 0.003922
0.352942 0.029412 0.010784
0.419608 0.027451 0.029412
0.496078 0.025490 0.053922
0.578431 0.031372 0.080393
0.652941 0.036275 0.105882
0.727451 0.050980 0.129412
0.800980 0.066666 0.149019
0.868627 0.078431 0.168627
0.935294 0.094117 0.188235
0.992157 0.105882 0.207843
0.015686 0.062745 0.003922
0.033333 0.058824 0.000000
0.070588 0.062745 0.000000
0.119608 0.070588 0.001961
0.172549 0.074510 0.003922
0.235295 0.076470 0.001961
0.301961 0.082353 0.003922
0.368627 0.094118 0.005882
0.427451 0.094118 0.015686
0.507843 0.088235 0.037255
0.584314 0.078431 0.066667
0.662745 0.072549 0.098039
0.729412 0.054902 0.125490
0.803922 0.066666 0.150980
0.866667 0.078431 0.168627
0.933333 0.094117 0.188235
0.992157 0.105882 0.207843
0.052942 0.117647 0.013725
0.069608 0.117647 0.013725
0.094117 0.119608 0.013725
0.133333 0.120588 0.012745
0.184314 0.125490 0.015686
0.243137 0.134314 0.017647
0.307843 0.137255 0.017647
0.376471 0.143137 0.016667
0.441176 0.145098 0.017647
0.523529 0.147059 0.029412
0.605882 0.145098 0.056862
0.671569 0.133333 0.085294
0.741177 0.121568 0.111765
0.806863 0.105882 0.141176
0.874510 0.092157 0.166666
0.939215 0.095098 0.191176
0.996078 0.105882 0.207843
0.082353 0.172549 0.027451
0.100000 0.176471 0.027451
0.121569 0.176471 0.027451
0.150980 0.182353 0.035294
0.196078 0.180392 0.035294
0.258823 0.192157 0.037255
0.317647 0.192157 0.039216
0.386274 0.200000 0.039216
0.462745 0.200000 0.035294
0.535294 0.205882 0.029412
0.619608 0.200000 0.043137
0.686275 0.198039 0.070588
0.749020 0.180392 0.098039
0.817647 0.170588 0.125490
0.882353 0.145098 0.156863
0.947059 0.113725 0.188236
1.000000 0.105882 0.207843
0.090196 0.250980 0.058824
0.101961 0.249020 0.057843
0.123529 0.247059 0.056863
0.159804 0.253921 0.059804
0.215687 0.262746 0.060784
0.273529 0.262745 0.060784
0.329411 0.264706 0.060785
0.396079 0.267647 0.059804
0.468627 0.272549 0.056863
0.550980 0.276471 0.050980
0.627451 0.278431 0.039216
0.700980 0.275490 0.050980
0.766667 0.260784 0.078432
0.836275 0.242157 0.107843
0.898039 0.219608 0.137255
0.954902 0.185294 0.170588
1.000000 0.147059 0.200000
0.074510 0.313725 0.082353
0.090196 0.321569 0.086275
0.121569 0.317647 0.090196
0.176471 0.323530 0.090196
0.223529 0.325490 0.090196
0.286274 0.327451 0.088235
0.341176 0.341176 0.090196
0.413725 0.335294 0.082353
0.486275 0.352941 0.078431
0.570588 0.345098 0.072549
0.647059 0.360784 0.062745
0.709804 0.352941 0.045098
0.780392 0.352941 0.050980
0.845098 0.327451 0.084314
0.905882 0.298039 0.117647
0.964706 0.264706 0.147059
1.000000 0.223529 0.180392
0.100000 0.392157 0.117647
0.121568 0.403922 0.119608
0.147059 0.400000 0.117647
0.193137 0.401961 0.117647
0.247058 0.409804 0.117647
0.300000 0.409804 0.114706
0.358823 0.417647 0.113725
0.433333 0.425490 0.109804
0.500000 0.421569 0.100000
0.583333 0.433334 0.093137
0.649019 0.435294 0.082353
0.727451 0.440196 0.062745
0.796078 0.431373 0.043137
0.861765 0.425490 0.054902
0.921569 0.411765 0.082353
0.980392 0.368627 0.117647
1.000000 0.329412 0.149019
0.105882 0.478431 0.145098
0.125490 0.482353 0.145098
0.156863 0.482353 0.145098
0.207843 0.486275 0.145098
0.254902 0.490196 0.141176
0.313725 0.501961 0.143137
0.372549 0.498039 0.137255
0.445098 0.507843 0.133333
0.517647 0.509804 0.121569
0.594118 0.515686 0.111765
0.662745 0.521569 0.098039
0.737255 0.523529 0.078432
0.803922 0.533333 0.062745
0.870588 0.523529 0.035294
0.933333 0.505882 0.047059
0.988236 0.478432 0.080392
1.000000 0.443137 0.109804
0.135294 0.572549 0.190196
0.153921 0.567647 0.187255
0.178432 0.570588 0.186275
0.225490 0.567647 0.183333
0.276471 0.576470 0.184314
0.333333 0.576471 0.180392
0.392157 0.580392 0.176471
0.474510 0.592157 0.168628
0.539216 0.594118 0.152941
0.608824 0.607843 0.138235
0.674509 0.615686 0.117647
0.747059 0.619608 0.092157
0.809804 0.617647 0.070588
0.878431 0.627451 0.038235
0.939215 0.619608 0.017647
0.991177 0.593137 0.038235
1.000000 0.558823 0.068628
0.172549 0.639216 0.227451
0.192157 0.654902 0.237255
0.211765 0.643137 0.227451
0.254902 0.645098 0.227451
0.301961 0.647059 0.227451
0.362745 0.660784 0.225490
0.423529 0.670588 0.223529
0.490196 0.668627 0.213726
0.552941 0.686275 0.207843
0.625490 0.684314 0.182353
0.682353 0.690196 0.156863
0.754902 0.700000 0.113725
0.815686 0.705882 0.078431
0.890196 0.711765 0.045098
0.945098 0.725490 0.015686
0.994117 0.711765 0.005882
1.000000 0.682353 0.023529
0.225490 0.715687 0.286274
0.244118 0.719608 0.288235
0.266667 0.723529 0.286274
0.300000 0.721568 0.283333
0.341176 0.723529 0.282353
0.398039 0.729412 0.281373
0.454902 0.737255 0.278431
0.515686 0.741176 0.266666
0.580392 0.752941 0.256862
0.635294 0.756863 0.239216
0.700000 0.764706 0.219608
0.763726 0.778431 0.183333
0.825490 0.788235 0.135294
0.886274 0.794118 0.059804
0.947059 0.807843 0.013725
0.996078 0.805882 0.002942
1.000000 0.788235 0.001961
0.290196 0.784314 0.349020
0.303922 0.784314 0.349020
0.321569 0.784314 0.349020
0.350981 0.788235 0.345098
0.392157 0.792157 0.341176
0.437255 0.798039 0.339216
0.486275 0.800000 0.333333
0.539216 0.807843 0.327451
0.596078 0.815686 0.317647
0.658824 0.827451 0.303921
0.709804 0.831373 0.278431
0.776470 0.843137 0.247059
0.831373 0.850980 0.207843
0.892157 0.862745 0.127451
0.949020 0.882353 0.003922
0.998039 0.892157 0.000000
1.000000 0.890196 0.000000
0.364706 0.850981 0.415686
0.376471 0.854902 0.416666
0.390196 0.852941 0.413725
0.411765 0.852942 0.409804
0.445098 0.856862 0.409804
0.486275 0.861765 0.408824
0.527451 0.866667 0.405883
0.578432 0.876471 0.403922
0.623530 0.882353 0.392157
0.677451 0.888235 0.378432
0.729412 0.898039 0.362745
0.787255 0.907843 0.334314
0.839216 0.917647 0.296079
0.897059 0.928432 0.235294
0.952941 0.941176 0.121568
0.997059 0.960784 0.011765
1.000000 0.972549 0.000000
0.435294 0.909804 0.482353
0.443137 0.909804 0.482353
0.454902 0.909804 0.482353
0.478432 0.911764 0.482353
0.501961 0.913725 0.482353
0.535294 0.919608 0.480392
0.568627 0.921569 0.478431
0.609803 0.927451 0.472549
0.650980 0.933333 0.466667
0.701961 0.941176 0.456863
0.749020 0.945098 0.443137
0.798039 0.956862 0.419608
0.850980 0.968627 0.392157
0.903922 0.980393 0.341176
0.956863 0.996078 0.254902
0.994117 1.000000 0.127451
1.000000 1.000000 0.000000
0.517647 0.954902 0.562745
0.527451 0.956862 0.568627
0.537254 0.956862 0.568627
0.552941 0.959804 0.568627
0.564705 0.958824 0.562745
0.598039 0.966667 0.569608
0.623530 0.968627 0.564706
0.661765 0.974510 0.560784
0.694117 0.978431 0.552941
0.737255 0.984314 0.549019
0.778431 0.990196 0.541176
0.824510 0.994118 0.523529
0.870588 1.000000 0.500000
0.921569 1.000000 0.469608
0.968627 1.000000 0.419608
1.000000 1.000000 0.307843
1.000000 1.000000 0.086275
0.607843 0.992157 0.666667
0.613725 0.992157 0.666667
0.619608 0.992157 0.666667
0.631373 0.994117 0.666667
0.647059 0.996078 0.666667
0.666667 0.998039 0.666667
0.686275 1.000000 0.666667
0.721569 1.000000 0.666667
0.749020 1.000000 0.662745
0.788236 1.000000 0.660784
0.823529 1.000000 0.654902
0.866667 1.000000 0.641177
0.905882 1.000000 0.627451
0.945098 1.000000 0.603921
0.984314 1.000000 0.568627
1.000000 1.000000 0.501961
1.000000 1.000000 0.360784
0.000000 0.000000 0.001961
0.005882 0.000000 0.001961
0.039216 0.000000 0.001961
0.087255 0.000000 0.001961
0.141176 0.000000 0.001961
0.203921 0.000000 0.002942
0.262745 0.000000 0.007843
0.341176 0.001961 0.017647
0.403922 0.003922 0.027451
0.488235 0.009804 0.055882
0.572549 0.021569 0.082353
0.649020 0.033334 0.104902
0.725491 0.049019 0.127451
0.795098 0.066666 0.149019
0.864706 0.078431 0.168627
0.935294 0.094117 0.188235
0.994117 0.105882 0.207843
0.001961 0.013726 0.012745
0.013725 0.013235 0.012255
0.050000 0.013726 0.011765
0.104902 0.016667 0.012255
0.156863 0.019608 0.013725
0.218137 0.022549 0.013726
0.281373 0.030392 0.015686
0.350000 0.034314 0.017157
0.415686 0.036275 0.022549
0.501961 0.035294 0.050490
0.578431 0.036274 0.076470
0.657843 0.039216 0.107353
0.728431 0.049019 0.129412
0.798530 0.066666 0.149510
0.869608 0.078431 0.168627
0.936764 0.094117 0.189706
0.995098 0.105882 0.207843
0.009804 0.056862 0.021568
0.031372 0.055882 0.024510
0.058824 0.054902 0.023529
0.111765 0.060784 0.025490
0.168627 0.068628 0.025490
0.230392 0.072549 0.029412
0.292157 0.080392 0.029412
0.356863 0.087255 0.027451
0.431373 0.092157 0.027451
0.510784 0.094118 0.039216
0.586275 0.092157 0.066667
0.661765 0.081373 0.096079
0.737254 0.068628 0.125490
0.803922 0.066666 0.150980
0.870588 0.078431 0.168627
0.935294 0.094117 0.189215
0.996078 0.105882 0.207843
0.045098 0.115686 0.043137
0.062745 0.113235 0.043137
0.087255 0.116667 0.043137
0.127451 0.118137 0.044608
0.180392 0.122549 0.044117
0.241667 0.129902 0.048529
0.305882 0.138236 0.050980
0.369608 0.141176 0.048529
0.441176 0.146079 0.046078
0.526470 0.150490 0.042157
0.600980 0.150000 0.052941
0.673529 0.140196 0.082843
0.743137 0.132353 0.111765
0.813725 0.113235 0.140196
0.875490 0.096078 0.166666
0.940196 0.095098 0.190686
0.997059 0.105882 0.207843
0.084313 0.176471 0.062745
0.098039 0.174510 0.062745
0.115686 0.176471 0.062745
0.150000 0.179412 0.063726
0.196078 0.186275 0.064706
0.253921 0.188235 0.067647
0.317647 0.196078 0.068628
0.384314 0.196078 0.065686
0.450980 0.198039 0.062745
0.535294 0.205882 0.058824
0.609804 0.207844 0.047059
0.688235 0.200000 0.068627
0.760784 0.192157 0.100000
0.822549 0.173529 0.126470
0.884314 0.156863 0.154902
0.943137 0.119608 0.184314
1.000000 0.105882 0.207843
0.086275 0.247059 0.084314
0.099510 0.247059 0.086275
0.119608 0.249020 0.088235
0.156372 0.251961 0.087745
0.207843 0.255883 0.087255
0.268627 0.261275 0.089216
0.328431 0.264706 0.088235
0.396569 0.267647 0.085294
0.468627 0.274510 0.082353
0.549510 0.275000 0.076961
0.625490 0.280392 0.067647
0.698529 0.278431 0.059804
0.767647 0.267647 0.077451
0.835294 0.246569 0.106863
0.897059 0.226471 0.134313
0.957353 0.198039 0.165196
1.000000 0.150000 0.200980
0.074510 0.313725 0.109804
0.086275 0.313725 0.110784
0.119608 0.315686 0.111765
0.174510 0.320588 0.112745
0.219608 0.325491 0.113725
0.285294 0.326470 0.109804
0.339216 0.329412 0.107843
0.411765 0.337255 0.106863
0.486274 0.341176 0.098039
0.564706 0.344118 0.095098
0.635294 0.345098 0.082353
0.707843 0.350980 0.068628
0.780392 0.349019 0.054902
0.847059 0.327451 0.083334
0.909804 0.307843 0.113726
0.965686 0.268628 0.146078
1.000000 0.227451 0.178431
0.094117 0.391176 0.139216
0.115196 0.396569 0.139706
0.143137 0.402942 0.142156
0.190686 0.403922 0.139706
0.241177 0.405883 0.137255
0.297549 0.411274 0.137255
0.360784 0.414706 0.131373
0.430392 0.419608 0.128431
0.500000 0.423530 0.121569
0.575981 0.427941 0.111274
0.650000 0.432353 0.098039
0.721569 0.435784 0.082843
0.791176 0.436275 0.056863
0.863235 0.431373 0.054412
0.923529 0.404902 0.082353
0.978431 0.377941 0.112255
1.000000 0.328431 0.149019
0.103921 0.488236 0.168627
0.123530 0.484314 0.170588
0.158824 0.482353 0.166666
0.201961 0.488236 0.167647
0.252941 0.486275 0.164706
0.312745 0.492157 0.161765
0.372549 0.496078 0.154902
0.448039 0.503922 0.150980
0.517647 0.513726 0.143137
0.593137 0.516666 0.128432
0.658824 0.517647 0.113726
0.731372 0.521569 0.097059
0.800000 0.525490 0.072549
0.871569 0.526470 0.046078
0.935294 0.517647 0.045098
0.986274 0.485294 0.076471
1.000000 0.458824 0.105882
0.130392 0.565686 0.204902
0.151471 0.568627 0.206372
0.177451 0.566667 0.203922
0.222059 0.570098 0.203921
0.272549 0.576471 0.203922
0.332843 0.577941 0.200490
0.394118 0.582353 0.197059
0.468627 0.591176 0.190686
0.538235 0.598039 0.178431
0.608333 0.603922 0.158333
0.672549 0.609804 0.135294
0.745098 0.617647 0.108333
0.808824 0.617647 0.085294
0.879902 0.628431 0.052451
0.939215 0.628432 0.021569
0.992157 0.600490 0.035294
1.000000 0.565686 0.061764
0.168627 0.639216 0.247059
0.185294 0.640196 0.247059
0.207843 0.641177 0.245098
0.251961 0.650000 0.249020
0.301960 0.647059 0.245098
0.359804 0.656863 0.243137
0.417647 0.666667 0.243138
0.488235 0.668627 0.231373
0.550980 0.674510 0.219608
0.621568 0.683334 0.203922
0.686275 0.690196 0.178431
0.754902 0.700000 0.139216
0.815686 0.701961 0.094117
0.884314 0.708824 0.057843
0.947059 0.713725 0.025490
0.994117 0.707843 0.007843
1.000000 0.684314 0.019608
0.227451 0.721569 0.302941
0.239706 0.718628 0.301961
0.263725 0.719608 0.302941
0.299020 0.720588 0.300000
0.345098 0.726471 0.300000
0.397059 0.728922 0.296078
0.454902 0.735294 0.293137
0.515196 0.740686 0.283333
0.575490 0.747059 0.274510
0.637255 0.756372 0.258824
0.700000 0.766667 0.240196
0.761765 0.772549 0.203431
0.822549 0.780392 0.153921
0.887745 0.791667 0.077451
0.946079 0.797058 0.023529
0.996078 0.804902 0.002942
1.000000 0.796079 0.001961
0.290196 0.782353 0.358823
0.301960 0.783333 0.359804
0.319608 0.784314 0.360784
0.353921 0.790196 0.362745
0.388235 0.790196 0.358823
0.440196 0.794118 0.354902
0.488236 0.803921 0.354902
0.541177 0.806863 0.342157
0.598039 0.813725 0.329411
0.652941 0.821568 0.317647
0.709804 0.829412 0.300000
0.771569 0.841176 0.268628
0.831373 0.849020 0.227451
0.892157 0.861765 0.151961
0.949020 0.874510 0.017647
0.994117 0.888235 0.000000
1.000000 0.892157 0.000000
0.361765 0.848040 0.425490
0.374020 0.850981 0.427941
0.389216 0.851961 0.428432
0.411274 0.852451 0.424019
0.447059 0.857843 0.425490
0.484314 0.860294 0.421569
0.523529 0.862745 0.415686
0.576961 0.872549 0.414706
0.624510 0.880392 0.407843
0.678921 0.889216 0.396079
0.729412 0.894117 0.373529
0.786274 0.904902 0.349019
0.839216 0.912745 0.310785
0.898529 0.927451 0.258333
0.949020 0.936275 0.163725
0.994608 0.958333 0.031863
1.000000 0.968627 0.000000
0.433334 0.905882 0.492157
0.443137 0.907843 0.490197
0.454902 0.909804 0.492157
0.476471 0.910784 0.491177
0.501961 0.913725 0.490197
0.533333 0.917647 0.489216
0.568627 0.921569 0.486274
0.610784 0.927451 0.483333
0.654902 0.933333 0.476471
0.700981 0.939215 0.467647
0.749020 0.945098 0.454902
0.799019 0.954902 0.432353
0.849020 0.964706 0.401960
0.901961 0.977451 0.353921
0.949020 0.992157 0.282353
0.993137 1.000000 0.131373
1.000000 1.000000 0.000000
0.519608 0.953921 0.572549
0.525000 0.955882 0.573039
0.532353 0.955882 0.573530
0.551961 0.957843 0.575000
0.569608 0.960784 0.575490
0.595588 0.963236 0.573039
0.622549 0.967647 0.570588
0.657843 0.971569 0.564706
0.695098 0.978431 0.559804
0.735294 0.984314 0.556373
0.778431 0.989216 0.546078
0.825490 0.993627 0.533824
0.870588 0.999019 0.514706
0.920098 1.000000 0.477941
0.967647 1.000000 0.427451
0.999019 1.000000 0.326470
1.000000 1.000000 0.124510
0.607843 0.990196 0.672549
0.613725 0.991176 0.672549
0.619608 0.992157 0.672549
0.631373 0.992157 0.672549
0.647059 0.996078 0.672549
0.665687 0.998039 0.672549
0.690196 1.000000 0.672549
0.717647 1.000000 0.671569
0.749020 1.000000 0.670589
0.786274 1.000000 0.665686
0.823529 1.000000 0.660784
0.866667 1.000000 0.650980
0.903922 1.000000 0.635294
0.946078 1.000000 0.610784
0.982353 1.000000 0.580392
1.000000 1.000000 0.511765
1.000000 1.000000 0.376470
0.000000 0.000000 0.015686
0.003921 0.000000 0.019608
0.035294 0.000000 0.015686
0.084314 0.000000 0.015686
0.133333 0.000000 0.015686
0.196078 0.000000 0.015686
0.262745 0.000000 0.011765
0.341176 0.001961 0.017647
0.411765 0.003922 0.035294
0.490196 0.009804 0.056863
0.568627 0.019608 0.078431
0.645098 0.033334 0.103921
0.721569 0.047059 0.125490
0.803921 0.066666 0.149019
0.866667 0.078431 0.168627
0.933333 0.094117 0.188235
0.996078 0.105882 0.207843
0.000000 0.011765 0.039216
0.012745 0.011765 0.043137
0.045098 0.013726 0.041177
0.098039 0.015686 0.041176
0.149019 0.015686 0.041177
0.210784 0.020588 0.043137
0.274509 0.027451 0.045098
0.345098 0.033333 0.045098
0.419608 0.037255 0.045098
0.500000 0.039216 0.051961
0.578431 0.039216 0.078432
0.657844 0.040196 0.106863
0.731372 0.050980 0.129412
0.800000 0.066666 0.149019
0.868627 0.078431 0.168627
0.937254 0.094117 0.190196
0.996078 0.105882 0.207843
0.011765 0.054902 0.054902
0.027451 0.052941 0.056862
0.062745 0.062745 0.054902
0.109804 0.058824 0.054902
0.164706 0.070588 0.054902
0.221569 0.070588 0.058824
0.294118 0.074510 0.066667
0.352942 0.084313 0.064706
0.423529 0.094118 0.062745
0.507843 0.098040 0.050980
0.596078 0.098039 0.066667
0.660784 0.090196 0.094118
0.733333 0.070588 0.125490
0.803921 0.068628 0.149019
0.870588 0.078431 0.168627
0.945098 0.094117 0.194117
0.996078 0.105882 0.207843
0.037254 0.113726 0.076470
0.058824 0.110784 0.075490
0.082353 0.113725 0.074510
0.124510 0.119608 0.079412
0.174510 0.121568 0.076470
0.236274 0.121569 0.077451
0.298040 0.135294 0.078432
0.365686 0.137255 0.080393
0.433334 0.141176 0.080393
0.519608 0.148039 0.075490
0.601961 0.154902 0.066666
0.679412 0.146079 0.083333
0.743138 0.135294 0.109804
0.811765 0.118627 0.139215
0.878432 0.100000 0.166666
0.943137 0.096078 0.193137
0.998039 0.105882 0.207843
0.082353 0.176471 0.098039
0.096078 0.176471 0.098039
0.109804 0.172549 0.098039
0.147059 0.180392 0.100000
0.188235 0.176471 0.094118
0.250980 0.184314 0.098039
0.309804 0.188235 0.098039
0.384313 0.196078 0.098039
0.450980 0.203922 0.094118
0.533334 0.203922 0.088235
0.607843 0.207843 0.078431
0.686275 0.201961 0.072549
0.752941 0.196078 0.098039
0.825490 0.180392 0.123529
0.886275 0.156863 0.152941
0.947059 0.125490 0.184314
1.000000 0.105882 0.211765
0.082353 0.243137 0.113726
0.096078 0.247059 0.117647
0.117647 0.243138 0.113726
0.150980 0.250000 0.118627
0.201960 0.256862 0.115686
0.267647 0.257843 0.116666
0.325490 0.266667 0.115686
0.390196 0.268628 0.112745
0.474510 0.274509 0.109804
0.545098 0.269608 0.101961
0.629412 0.280392 0.094117
0.700000 0.277451 0.079411
0.766667 0.272549 0.076471
0.837255 0.250000 0.106863
0.898039 0.229411 0.133333
0.959804 0.199020 0.168627
1.000000 0.156863 0.200000
0.066667 0.317647 0.141176
0.084313 0.311764 0.139215
0.121569 0.321569 0.137255
0.168627 0.323530 0.137255
0.223529 0.321569 0.137255
0.280392 0.327451 0.137255
0.337255 0.337255 0.133333
0.411764 0.335294 0.127451
0.490196 0.337255 0.125490
0.562745 0.343137 0.119608
0.631373 0.345098 0.105882
0.709804 0.350981 0.092157
0.780392 0.349020 0.070588
0.849020 0.341176 0.080392
0.909804 0.305882 0.109804
0.970588 0.276471 0.145098
1.000000 0.235294 0.176471
0.090196 0.392157 0.166667
0.108824 0.392157 0.163726
0.133333 0.396079 0.166667
0.180392 0.397059 0.164706
0.237255 0.405883 0.162745
0.293137 0.403922 0.160784
0.356862 0.413725 0.154902
0.425490 0.419608 0.150980
0.507843 0.419608 0.141176
0.575490 0.427451 0.134314
0.647058 0.433334 0.121568
0.722549 0.438236 0.104902
0.788235 0.435294 0.084313
0.860784 0.435294 0.061765
0.925490 0.419608 0.078432
0.984314 0.380392 0.113725
1.000000 0.337255 0.147059
0.098039 0.478431 0.192157
0.117647 0.478431 0.194117
0.152941 0.478431 0.196078
0.194118 0.482353 0.192157
0.250980 0.486275 0.192157
0.313725 0.494118 0.192157
0.376471 0.494118 0.188235
0.445098 0.503922 0.180392
0.513725 0.505882 0.168627
0.596078 0.511764 0.150981
0.658824 0.525490 0.137255
0.737255 0.525490 0.115686
0.800000 0.521569 0.098039
0.872549 0.521569 0.062745
0.937255 0.513725 0.047059
0.986274 0.494117 0.072549
1.000000 0.447059 0.109804
0.121568 0.564705 0.231372
0.144117 0.567647 0.229411
0.170588 0.560784 0.229411
0.218627 0.568628 0.228432
0.264706 0.568627 0.225491
0.332353 0.581373 0.227451
0.388235 0.576471 0.223529
0.467647 0.586274 0.217647
0.531373 0.596078 0.207843
0.604902 0.603922 0.195098
0.670589 0.607843 0.172549
0.745098 0.618627 0.134314
0.805883 0.619607 0.105882
0.878431 0.621568 0.070588
0.939215 0.619608 0.035294
0.992157 0.612745 0.031372
1.000000 0.580392 0.058824
0.164706 0.635294 0.270588
0.182353 0.639216 0.266667
0.207843 0.647059 0.270588
0.250980 0.643137 0.268628
0.301961 0.647059 0.266667
0.356862 0.656863 0.268628
0.415686 0.658824 0.258824
0.492156 0.666667 0.254902
0.549020 0.674510 0.250980
0.613726 0.680392 0.233333
0.682353 0.694118 0.219608
0.750980 0.696079 0.178431
0.815686 0.709804 0.133333
0.884314 0.707843 0.080393
0.941176 0.709804 0.043137
0.994117 0.707843 0.011765
1.000000 0.701961 0.015686
0.225490 0.719607 0.329412
0.241177 0.719607 0.330392
0.260785 0.719608 0.327451
0.298039 0.722549 0.325490
0.343137 0.719607 0.319608
0.396078 0.727451 0.319607
0.447059 0.729411 0.313725
0.514706 0.741176 0.312745
0.572549 0.749019 0.305883
0.636275 0.753922 0.284314
0.700000 0.760784 0.268628
0.760784 0.768628 0.236275
0.821568 0.778431 0.198039
0.889215 0.790196 0.113726
0.945098 0.798040 0.039216
0.995098 0.802941 0.005882
1.000000 0.803921 0.001961
0.298039 0.788235 0.384314
0.303921 0.784313 0.382353
0.321569 0.788235 0.384314
0.349020 0.784314 0.376471
0.384314 0.788235 0.376471
0.435294 0.792157 0.376471
0.486275 0.803922 0.380392
0.537255 0.803921 0.364706
0.592157 0.811765 0.356863
0.650980 0.817647 0.343137
0.709804 0.835294 0.329412
0.772549 0.835295 0.292156
0.827451 0.847059 0.258824
0.896079 0.862745 0.190196
0.945098 0.870588 0.090196
0.996078 0.884314 0.000000
1.000000 0.894118 0.000000
0.362745 0.849020 0.441176
0.370588 0.847059 0.440196
0.386274 0.847059 0.439215
0.410784 0.851961 0.440196
0.441176 0.852942 0.437255
0.482353 0.856863 0.434314
0.527451 0.864706 0.435294
0.575490 0.870588 0.428432
0.625490 0.878432 0.423529
0.678431 0.886274 0.416667
0.727451 0.890196 0.392157
0.785294 0.903922 0.375490
0.837255 0.913725 0.343137
0.897059 0.925490 0.290196
0.949020 0.937255 0.207844
0.994118 0.952941 0.050000
1.000000 0.970588 0.000000
0.431373 0.905882 0.501961
0.441176 0.905882 0.503922
0.454902 0.905882 0.501961
0.478432 0.911764 0.505883
0.498039 0.913725 0.505882
0.533333 0.915686 0.501961
0.572549 0.921569 0.501961
0.607843 0.925490 0.498039
0.650980 0.933333 0.490196
0.700000 0.939215 0.482353
0.745098 0.941176 0.470588
0.796078 0.952941 0.450981
0.847059 0.960784 0.423529
0.900000 0.974510 0.380392
0.949020 0.988235 0.313725
0.992157 1.000000 0.174509
1.000000 1.000000 0.000000
0.515686 0.952941 0.580392
0.523529 0.953921 0.583333
0.529412 0.954902 0.582353
0.547059 0.954902 0.581373
0.568627 0.958824 0.586275
0.594117 0.961765 0.582353
0.623530 0.966667 0.584313
0.657843 0.968627 0.575490
0.692157 0.974509 0.572549
0.735294 0.981372 0.567647
0.774510 0.988236 0.558824
0.824510 0.993137 0.549019
0.870588 0.998039 0.523529
0.918627 1.000000 0.498039
0.964706 1.000000 0.450980
0.999019 1.000000 0.350000
1.000000 1.000000 0.150980
0.607843 0.988235 0.682353
0.613725 0.988235 0.682353
0.619608 0.988235 0.682353
0.631373 0.992157 0.682353
0.647059 0.992157 0.682353
0.666667 0.996078 0.682353
0.686275 1.000000 0.682353
0.717647 1.000000 0.680392
0.752941 1.000000 0.678431
0.784313 1.000000 0.676470
0.823529 1.000000 0.670588
0.866667 1.000000 0.660784
0.901961 1.000000 0.650980
0.941177 1.000000 0.625490
0.980392 1.000000 0.592157
1.000000 1.000000 0.531373
1.000000 1.000000 0.396078
0.000000 0.000000 0.052942
0.002941 0.000000 0.050980
0.025490 0.000000 0.050980
0.076470 0.000000 0.051961
0.127451 0.000000 0.054902
0.191176 0.000000 0.052941
0.260784 0.000000 0.049019
0.332353 0.000981 0.049020
0.407844 0.003922 0.041176
0.492157 0.009804 0.057843
0.574510 0.021569 0.082353
0.650980 0.034314 0.105882
0.723529 0.047059 0.127451
0.796079 0.066666 0.149019
0.866667 0.078431 0.168627
0.939215 0.094117 0.192157
0.996078 0.105882 0.207843
0.000000 0.008823 0.079412
0.007843 0.009314 0.080392
0.038235 0.011765 0.079412
