luts/Precision_Slide.CUBE
# kravix mobile - LUTs Pack
LUT_3D_SIZE 5
0.000000 0.000000 0.000000
0.152941 0.000000 0.000000
0.411765 0.003922 0.035294
0.717647 0.047059 0.125490
0.992157 0.105882 0.207843
0.082353 0.172549 0.027451
0.196078 0.180392 0.035294
0.462745 0.200000 0.035294
0.749020 0.180392 0.098039
1.000000 0.105882 0.207843
0.105882 0.478431 0.145098
0.254902 0.490196 0.141176
0.517647 0.509804 0.121569
0.803922 0.533333 0.062745
1.000000 0.443137 0.109804
0.290196 0.784314 0.349020
0.392157 0.792157 0.341176
0.596078 0.815686 0.317647
0.831373 0.850980 0.207843
1.000000 0.890196 0.000000
0.607843 0.992157 0.666667
0.647059 0.996078 0.666667
0.749020 1.000000 0.662745
0.905882 1.000000 0.627451
1.000000 1.000000 0.360784
0.000000 0.000000 0.090196
0.125490 0.000000 0.090196
0.400000 0.000000 0.086275
0.733333 0.050980 0.129412
0.996078 0.105882 0.207843
0.066667 0.164706 0.176471
0.176471 0.172549 0.176471
0.443137 0.200000 0.168627
0.752941 0.200000 0.117647
1.000000 0.105882 0.211765
0.090196 0.470588 0.270588
0.243137 0.478431 0.266667
0.505882 0.498039 0.258824
0.796078 0.529412 0.172549
1.000000 0.462745 0.105882
0.274510 0.772549 0.439216
0.380392 0.780392 0.431373
0.592157 0.807843 0.427451
0.823529 0.835294 0.349020
1.000000 0.882353 0.000000
0.607843 0.984314 0.709804
0.643137 0.988235 0.709804
0.749020 1.000000 0.709804
0.898039 1.000000 0.690196
1.000000 1.000000 0.482353
0.000000 0.000000 0.274510
0.090196 0.000000 0.278431
0.372549 0.000000 0.278431
0.721569 0.023529 0.211765
1.000000 0.105882 0.211765
0.027451 0.145098 0.364706
0.141176 0.160784 0.372549
0.411765 0.168627 0.380392
0.733333 0.176471 0.341176
1.000000 0.121569 0.207843
0.054902 0.454902 0.462745
0.184314 0.462745 0.470588
0.482353 0.490196 0.482353
0.776471 0.494118 0.447059
1.000000 0.474510 0.223529
0.235294 0.752941 0.588235
0.349020 0.760784 0.592157
0.568627 0.780392 0.600000
0.803922 0.803922 0.576471
1.000000 0.835294 0.372549
0.607843 0.972549 0.788235
0.643137 0.976471 0.792157
0.741176 0.988235 0.800000
0.886275 1.000000 0.792157
1.000000 1.000000 0.674510
0.000000 0.000000 0.509804
0.019608 0.000000 0.525490
0.321569 0.000000 0.552941
0.678431 0.000000 0.533333
1.000000 0.078431 0.313725
0.000000 0.133333 0.576471
0.078431 0.137255 0.596078
0.364706 0.152941 0.627451
0.694118 0.141176 0.650980
0.984314 0.086275 0.521569
0.000000 0.443137 0.643137
0.101961 0.450980 0.662745
0.431373 0.474510 0.694118
0.733333 0.474510 0.709804
1.000000 0.423529 0.635294
0.141176 0.737255 0.729412
0.301961 0.752941 0.745098
0.533333 0.760784 0.764706
0.780392 0.780392 0.780392
1.000000 0.784314 0.717647
0.592157 0.956863 0.870588
0.631373 0.960784 0.878431
0.733333 0.972549 0.886275
0.874510 0.992157 0.901961
1.000000 1.000000 0.858824
0.000000 0.000000 0.713725
0.000000 0.000000 0.741176
0.254902 0.000000 0.792157
0.623529 0.000000 0.843137
0.937255 0.000000 0.784314
0.000000 0.160784 0.752941
0.011765 0.156863 0.772549
0.294118 0.176471 0.827451
0.650980 0.168627 0.890196
0.937255 0.047059 0.909804
0.000000 0.458824 0.792157
0.000000 0.458824 0.807843
0.341176 0.478431 0.858824
0.686275 0.486275 0.913725
0.968627 0.431373 0.941176
0.000000 0.729412 0.843137
0.074510 0.737255 0.854902
0.454902 0.756863 0.890196
0.737255 0.776471 0.937255
0.980392 0.768627 0.968627
0.537255 0.945098 0.921569
0.580392 0.952941 0.929412
0.694118 0.964706 0.941176
0.854902 0.984314 0.972549
1.000000 1.000000 1.000000
