luts/Precision_Slide.CUBE
# kravix mobile - LUTs Pack
LUT_3D_SIZE 9
0.000000 0.000000 0.000000
0.043137 0.000000 0.000000
0.152941 0.000000 0.000000
0.270588 0.000000 0.007843
0.411765 0.003922 0.035294
0.564706 0.019608 0.078431
0.717647 0.047059 0.125490
0.862745 0.078431 0.168627
0.992157 0.105882 0.207843
0.015686 0.062745 0.003922
0.070588 0.062745 0.000000
0.172549 0.074510 0.003922
0.301961 0.082353 0.003922
0.427451 0.094118 0.015686
0.584314 0.078431 0.066667
0.729412 0.054902 0.125490
0.866667 0.078431 0.168627
0.992157 0.105882 0.207843
0.082353 0.172549 0.027451
0.121569 0.176471 0.027451
0.196078 0.180392 0.035294
0.317647 0.192157 0.039216
0.462745 0.200000 0.035294
0.619608 0.200000 0.043137
0.749020 0.180392 0.098039
0.882353 0.145098 0.156863
1.000000 0.105882 0.207843
0.074510 0.313725 0.082353
0.121569 0.317647 0.090196
0.223529 0.325490 0.090196
0.341176 0.341176 0.090196
0.486275 0.352941 0.078431
0.647059 0.360784 0.062745
0.780392 0.352941 0.050980
0.905882 0.298039 0.117647
1.000000 0.223529 0.180392
0.105882 0.478431 0.145098
0.156863 0.482353 0.145098
0.254902 0.490196 0.141176
0.372549 0.498039 0.137255
0.517647 0.509804 0.121569
0.662745 0.521569 0.098039
0.803922 0.533333 0.062745
0.933333 0.505882 0.047059
1.000000 0.443137 0.109804
0.172549 0.639216 0.227451
0.211765 0.643137 0.227451
0.301961 0.647059 0.227451
0.423529 0.670588 0.223529
0.552941 0.686275 0.207843
0.682353 0.690196 0.156863
0.815686 0.705882 0.078431
0.945098 0.725490 0.015686
1.000000 0.682353 0.023529
0.290196 0.784314 0.349020
0.321569 0.784314 0.349020
0.392157 0.792157 0.341176
0.486275 0.800000 0.333333
0.596078 0.815686 0.317647
0.709804 0.831373 0.278431
0.831373 0.850980 0.207843
0.949020 0.882353 0.003922
1.000000 0.890196 0.000000
0.435294 0.909804 0.482353
0.454902 0.909804 0.482353
0.501961 0.913725 0.482353
0.568627 0.921569 0.478431
0.650980 0.933333 0.466667
0.749020 0.945098 0.443137
0.850980 0.968627 0.392157
0.956863 0.996078 0.254902
1.000000 1.000000 0.000000
0.607843 0.992157 0.666667
0.619608 0.992157 0.666667
0.647059 0.996078 0.666667
0.686275 1.000000 0.666667
0.749020 1.000000 0.662745
0.823529 1.000000 0.654902
0.905882 1.000000 0.627451
0.984314 1.000000 0.568627
1.000000 1.000000 0.360784
0.000000 0.000000 0.015686
0.035294 0.000000 0.015686
0.133333 0.000000 0.015686
0.262745 0.000000 0.011765
0.411765 0.003922 0.035294
0.568627 0.019608 0.078431
0.721569 0.047059 0.125490
0.866667 0.078431 0.168627
0.996078 0.105882 0.207843
0.011765 0.054902 0.054902
0.062745 0.062745 0.054902
0.164706 0.070588 0.054902
0.294118 0.074510 0.066667
0.423529 0.094118 0.062745
0.596078 0.098039 0.066667
0.733333 0.070588 0.125490
0.870588 0.078431 0.168627
0.996078 0.105882 0.207843
0.082353 0.176471 0.098039
0.109804 0.172549 0.098039
0.188235 0.176471 0.094118
0.309804 0.188235 0.098039
0.450980 0.203922 0.094118
0.607843 0.207843 0.078431
0.752941 0.196078 0.098039
0.886275 0.156863 0.152941
1.000000 0.105882 0.211765
0.066667 0.317647 0.141176
0.121569 0.321569 0.137255
0.223529 0.321569 0.137255
0.337255 0.337255 0.133333
0.490196 0.337255 0.125490
0.631373 0.345098 0.105882
0.780392 0.349020 0.070588
0.909804 0.305882 0.109804
1.000000 0.235294 0.176471
0.098039 0.478431 0.192157
0.152941 0.478431 0.196078
0.250980 0.486275 0.192157
0.376471 0.494118 0.188235
0.513725 0.505882 0.168627
0.658824 0.525490 0.137255
0.800000 0.521569 0.098039
0.937255 0.513725 0.047059
1.000000 0.447059 0.109804
0.164706 0.635294 0.270588
0.207843 0.647059 0.270588
0.301961 0.647059 0.266667
0.415686 0.658824 0.258824
0.549020 0.674510 0.250980
0.682353 0.694118 0.219608
0.815686 0.709804 0.133333
0.941176 0.709804 0.043137
1.000000 0.701961 0.015686
0.298039 0.788235 0.384314
0.321569 0.788235 0.384314
0.384314 0.788235 0.376471
0.486275 0.803922 0.380392
0.592157 0.811765 0.356863
0.709804 0.835294 0.329412
0.827451 0.847059 0.258824
0.945098 0.870588 0.090196
1.000000 0.894118 0.000000
0.431373 0.905882 0.501961
0.454902 0.905882 0.501961
0.498039 0.913725 0.505882
0.572549 0.921569 0.501961
0.650980 0.933333 0.490196
0.745098 0.941176 0.470588
0.847059 0.960784 0.423529
0.949020 0.988235 0.313725
1.000000 1.000000 0.000000
0.607843 0.988235 0.682353
0.619608 0.988235 0.682353
0.647059 0.992157 0.682353
0.686275 1.000000 0.682353
0.752941 1.000000 0.678431
0.823529 1.000000 0.670588
0.901961 1.000000 0.650980
0.980392 1.000000 0.592157
1.000000 1.000000 0.396078
0.000000 0.000000 0.090196
0.015686 0.000000 0.094118
0.125490 0.000000 0.090196
0.250980 0.000000 0.094118
0.400000 0.000000 0.086275
0.572549 0.023529 0.078431
0.733333 0.050980 0.129412
0.870588 0.078431 0.168627
0.996078 0.105882 0.207843
0.003922 0.039216 0.133333
0.043137 0.043137 0.137255
0.152941 0.054902 0.133333
0.274510 0.066667 0.133333
0.415686 0.086275 0.133333
0.584314 0.094118 0.121569
0.737255 0.090196 0.121569
0.874510 0.078431 0.172549
1.000000 0.105882 0.207843
0.066667 0.164706 0.176471
0.101961 0.164706 0.176471
0.176471 0.172549 0.176471
0.301961 0.180392 0.172549
0.443137 0.200000 0.168627
0.603922 0.200000 0.156863
0.752941 0.200000 0.117647
0.890196 0.168627 0.152941
1.000000 0.105882 0.211765
0.070588 0.305882 0.215686
0.098039 0.313725 0.219608
0.211765 0.321569 0.219608
0.329412 0.329412 0.219608
0.482353 0.341176 0.207843
0.635294 0.341176 0.176471
0.772549 0.341176 0.141176
0.913725 0.321569 0.105882
1.000000 0.243137 0.176471
0.090196 0.470588 0.270588
0.129412 0.474510 0.266667
0.243137 0.478431 0.266667
0.360784 0.498039 0.270588
0.505882 0.498039 0.258824
0.650980 0.509804 0.227451
0.796078 0.529412 0.172549
0.933333 0.513725 0.098039
1.000000 0.462745 0.105882
0.145098 0.631373 0.337255
0.196078 0.631373 0.345098
0.282353 0.639216 0.345098
0.407843 0.647059 0.341176
0.545098 0.666667 0.325490
0.682353 0.678431 0.298039
0.807843 0.694118 0.250980
0.937255 0.701961 0.105882
1.000000 0.698039 0.015686
0.274510 0.772549 0.439216
0.309804 0.776471 0.431373
0.380392 0.780392 0.431373
0.478431 0.788235 0.439216
0.592157 0.807843 0.427451
0.705882 0.815686 0.400000
0.823529 0.835294 0.349020
0.941176 0.858824 0.235294
1.000000 0.882353 0.000000
0.427451 0.898039 0.549020
0.450980 0.901961 0.549020
0.494118 0.905882 0.549020
0.568627 0.913725 0.545098
0.647059 0.925490 0.545098
0.745098 0.937255 0.525490
0.843137 0.952941 0.498039
0.945098 0.976471 0.403922
1.000000 1.000000 0.109804
0.607843 0.984314 0.709804
0.619608 0.984314 0.709804
0.643137 0.988235 0.709804
0.686275 0.996078 0.709804
0.749020 1.000000 0.709804
0.819608 1.000000 0.705882
0.898039 1.000000 0.690196
0.976471 1.000000 0.639216
1.000000 1.000000 0.482353
0.000000 0.000000 0.176471
0.007843 0.000000 0.172549
0.109804 0.000000 0.172549
0.239216 0.000000 0.180392
0.388235 0.000000 0.168627
0.564706 0.007843 0.152941
0.729412 0.050980 0.129412
0.874510 0.078431 0.168627
1.000000 0.105882 0.207843
0.000000 0.027451 0.227451
0.027451 0.039216 0.235294
0.129412 0.043137 0.235294
0.262745 0.054902 0.227451
0.407843 0.074510 0.223529
0.576471 0.078431 0.211765
0.741176 0.094118 0.176471
0.878431 0.078431 0.172549
1.000000 0.105882 0.211765
0.047059 0.156863 0.262745
0.082353 0.160784 0.262745
0.160784 0.168627 0.274510
0.294118 0.176471 0.278431
0.427451 0.180392 0.266667
0.592157 0.188235 0.254902
0.745098 0.192157 0.211765
0.901961 0.180392 0.152941
1.000000 0.109804 0.211765
0.066667 0.298039 0.305882
0.090196 0.298039 0.305882
0.184314 0.305882 0.309804
0.321569 0.321569 0.321569
0.462745 0.329412 0.313725
0.615686 0.337255 0.301961
0.764706 0.333333 0.250980
0.909804 0.321569 0.176471
1.000000 0.258824 0.172549
0.074510 0.462745 0.364706
0.109804 0.466667 0.360784
0.215686 0.478431 0.372549
0.345098 0.490196 0.372549
0.494118 0.490196 0.360784
0.643137 0.501961 0.341176
0.784314 0.505882 0.305882
0.925490 0.517647 0.219608
1.000000 0.478431 0.098039
0.113725 0.619608 0.423529
0.168627 0.623529 0.431373
0.266667 0.627451 0.439216
0.403922 0.639216 0.431373
0.533333 0.647059 0.431373
0.666667 0.666667 0.415686
0.800000 0.678431 0.372549
0.933333 0.690196 0.286275
1.000000 0.701961 0.074510
0.262745 0.764706 0.509804
0.294118 0.764706 0.513725
0.372549 0.772549 0.509804
0.470588 0.780392 0.513725
0.580392 0.792157 0.509804
0.694118 0.803922 0.498039
0.815686 0.819608 0.466667
0.937255 0.839216 0.392157
1.000000 0.862745 0.137255
0.419608 0.890196 0.603922
0.439216 0.894118 0.607843
0.490196 0.898039 0.611765
0.556863 0.905882 0.607843
0.643137 0.913725 0.611765
0.737255 0.925490 0.603922
0.839216 0.941176 0.580392
0.937255 0.960784 0.517647
1.000000 0.996078 0.313725
0.607843 0.976471 0.749020
0.619608 0.980392 0.745098
0.643137 0.980392 0.749020
0.690196 0.988235 0.749020
0.741176 0.996078 0.749020
0.815686 1.000000 0.749020
0.898039 1.000000 0.737255
0.964706 1.000000 0.709804
1.000000 1.000000 0.572549
0.000000 0.000000 0.274510
0.003922 0.000000 0.274510
0.090196 0.000000 0.278431
0.215686 0.000000 0.286275
0.372549 0.000000 0.278431
0.552941 0.000000 0.254902
0.721569 0.023529 0.211765
0.874510 0.078431 0.172549
1.000000 0.105882 0.211765
0.000000 0.019608 0.321569
0.019608 0.027451 0.329412
0.109804 0.027451 0.329412
0.247059 0.043137 0.337255
0.392157 0.050980 0.337255
0.572549 0.070588 0.333333
0.721569 0.078431 0.290196
0.874510 0.070588 0.227451
1.000000 0.105882 0.211765
0.027451 0.145098 0.364706
0.070588 0.156863 0.368627
0.141176 0.160784 0.372549
0.266667 0.168627 0.380392
0.411765 0.168627 0.380392
0.580392 0.172549 0.376471
0.733333 0.176471 0.341176
0.882353 0.168627 0.270588
1.000000 0.121569 0.207843
0.062745 0.286275 0.407843
0.074510 0.298039 0.411765
0.168627 0.301961 0.419608
0.294118 0.301961 0.423529
0.443137 0.309804 0.431373
0.600000 0.317647 0.427451
0.749020 0.317647 0.400000
0.898039 0.309804 0.321569
1.000000 0.286275 0.192157
0.054902 0.454902 0.462745
0.090196 0.454902 0.462745
0.184314 0.462745 0.470588
0.321569 0.470588 0.474510
0.482353 0.490196 0.482353
0.627451 0.498039 0.482353
0.776471 0.494118 0.447059
0.909804 0.490196 0.384314
1.000000 0.474510 0.223529
0.054902 0.611765 0.517647
0.125490 0.611765 0.521569
0.243137 0.615686 0.525490
0.384314 0.627451 0.537255
0.517647 0.639216 0.533333
0.650980 0.647059 0.529412
0.792157 0.662745 0.505882
0.917647 0.670588 0.447059
1.000000 0.674510 0.286275
0.235294 0.752941 0.588235
0.282353 0.764706 0.592157
0.349020 0.760784 0.592157
0.454902 0.768627 0.596078
0.568627 0.780392 0.600000
0.686275 0.792157 0.596078
0.803922 0.803922 0.576471
0.925490 0.819608 0.529412
1.000000 0.835294 0.372549
0.407843 0.882353 0.670588
0.427451 0.882353 0.674510
0.478431 0.886275 0.674510
0.549020 0.894118 0.678431
0.639216 0.905882 0.682353
0.729412 0.917647 0.678431
0.831373 0.929412 0.670588
0.933333 0.941176 0.623529
1.000000 0.968627 0.490196
0.607843 0.972549 0.788235
0.615686 0.972549 0.792157
0.643137 0.976471 0.792157
0.686275 0.980392 0.796078
0.741176 0.988235 0.800000
0.807843 1.000000 0.800000
0.886275 1.000000 0.792157
0.960784 1.000000 0.768627
1.000000 1.000000 0.674510
0.000000 0.000000 0.388235
0.000000 0.000000 0.392157
0.050980 0.000000 0.396078
0.200000 0.000000 0.407843
0.352941 0.000000 0.411765
0.533333 0.000000 0.400000
0.701961 0.003922 0.368627
0.866667 0.047059 0.274510
1.000000 0.105882 0.211765
0.000000 0.015686 0.443137
0.003922 0.011765 0.443137
0.078431 0.015686 0.450980
0.219608 0.023529 0.470588
0.368627 0.035294 0.470588
0.545098 0.043137 0.470588
0.713725 0.047059 0.447059
0.866667 0.039216 0.376471
1.000000 0.101961 0.235294
0.011765 0.137255 0.478431
0.043137 0.145098 0.482353
0.117647 0.141176 0.498039
0.239216 0.152941 0.501961
0.392157 0.164706 0.521569
0.568627 0.160784 0.513725
0.713725 0.156863 0.498039
0.874510 0.141176 0.439216
1.000000 0.125490 0.313725
0.043137 0.274510 0.513725
0.066667 0.278431 0.517647
0.129412 0.286275 0.529412
0.270588 0.294118 0.541176
0.427451 0.301961 0.556863
0.584314 0.305882 0.556863
0.733333 0.305882 0.541176
0.878431 0.290196 0.498039
1.000000 0.254902 0.372549
0.019608 0.447059 0.556863
0.054902 0.450980 0.560784
0.141176 0.454902 0.564706
0.305882 0.462745 0.576471
0.466667 0.470588 0.596078
0.611765 0.486275 0.596078
0.752941 0.478431 0.588235
0.890196 0.470588 0.556863
1.000000 0.447059 0.447059
0.019608 0.607843 0.607843
0.074510 0.611765 0.607843
0.200000 0.607843 0.615686
0.352941 0.615686 0.627451
0.509804 0.627451 0.631373
0.643137 0.639216 0.635294
0.780392 0.647059 0.631373
0.901961 0.647059 0.607843
1.000000 0.647059 0.494118
0.200000 0.745098 0.662745
0.239216 0.745098 0.666667
0.325490 0.752941 0.670588
0.435294 0.760784 0.678431
0.564706 0.776471 0.690196
0.674510 0.780392 0.690196
0.792157 0.792157 0.686275
0.913725 0.800000 0.658824
1.000000 0.815686 0.564706
0.392157 0.870588 0.729412
0.423529 0.878431 0.737255
0.462745 0.878431 0.737255
0.537255 0.882353 0.745098
0.631373 0.894118 0.749020
0.721569 0.905882 0.752941
0.823529 0.917647 0.749020
0.925490 0.929412 0.725490
1.000000 0.941176 0.639216
0.600000 0.964706 0.831373
0.611765 0.964706 0.831373
0.639216 0.968627 0.835294
0.682353 0.972549 0.839216
0.741176 0.980392 0.847059
0.803922 0.988235 0.854902
0.878431 1.000000 0.850980
0.949020 1.000000 0.839216
1.000000 1.000000 0.772549
0.000000 0.000000 0.509804
0.000000 0.000000 0.517647
0.019608 0.000000 0.525490
0.164706 0.000000 0.541176
0.321569 0.000000 0.552941
0.505882 0.000000 0.556863
0.678431 0.000000 0.533333
0.843137 0.003922 0.470588
1.000000 0.078431 0.313725
0.000000 0.011765 0.545098
0.000000 0.011765 0.552941
0.039216 0.011765 0.564706
0.180392 0.015686 0.584314
0.341176 0.023529 0.600000
0.521569 0.023529 0.611765
0.682353 0.027451 0.615686
0.835294 0.015686 0.564706
0.984314 0.039216 0.439216
0.000000 0.133333 0.576471
0.011765 0.133333 0.588235
0.078431 0.137255 0.596078
0.203922 0.145098 0.611765
0.364706 0.152941 0.627451
0.537255 0.160784 0.647059
0.694118 0.141176 0.650980
0.843137 0.121569 0.619608
0.984314 0.086275 0.521569
0.019608 0.274510 0.611765
0.043137 0.278431 0.615686
0.094118 0.286275 0.623529
0.227451 0.290196 0.643137
0.396078 0.305882 0.666667
0.572549 0.309804 0.682353
0.713725 0.305882 0.686275
0.858824 0.274510 0.666667
0.992157 0.223529 0.584314
0.000000 0.443137 0.643137
0.007843 0.447059 0.647059
0.101961 0.450980 0.662745
0.266667 0.466667 0.678431
0.431373 0.474510 0.694118
0.588235 0.474510 0.701961
0.733333 0.474510 0.709804
0.874510 0.462745 0.701961
1.000000 0.423529 0.635294
0.003922 0.603922 0.694118
0.019608 0.596078 0.690196
0.137255 0.603922 0.698039
0.317647 0.611765 0.705882
0.486275 0.619608 0.725490
0.619608 0.639216 0.737255
0.756863 0.643137 0.745098
0.890196 0.635294 0.733333
1.000000 0.619608 0.678431
0.141176 0.737255 0.729412
0.184314 0.737255 0.733333
0.301961 0.752941 0.745098
0.407843 0.752941 0.752941
0.533333 0.760784 0.764706
0.658824 0.772549 0.776471
0.780392 0.780392 0.780392
0.901961 0.788235 0.772549
1.000000 0.784314 0.717647
0.368627 0.862745 0.788235
0.388235 0.866667 0.792157
0.439216 0.870588 0.796078
0.521569 0.874510 0.807843
0.607843 0.886275 0.815686
0.709804 0.894118 0.823529
0.815686 0.905882 0.827451
0.917647 0.921569 0.823529
1.000000 0.925490 0.768627
0.592157 0.956863 0.870588
0.603922 0.960784 0.870588
0.631373 0.960784 0.878431
0.674510 0.968627 0.878431
0.733333 0.972549 0.886275
0.800000 0.984314 0.894118
0.874510 0.992157 0.901961
0.941176 1.000000 0.901961
1.000000 1.000000 0.858824
0.000000 0.000000 0.615686
0.000000 0.000000 0.631373
0.003922 0.000000 0.639216
0.117647 0.000000 0.666667
0.290196 0.000000 0.682353
0.490196 0.000000 0.701961
0.647059 0.000000 0.701961
0.811765 0.000000 0.670588
0.972549 0.011765 0.549020
0.000000 0.011765 0.643137
0.000000 0.011765 0.658824
0.007843 0.015686 0.670588
0.156863 0.019608 0.694118
0.313725 0.023529 0.713725
0.505882 0.023529 0.737255
0.658824 0.019608 0.749020
0.811765 0.003922 0.737255
0.952941 0.000000 0.674510
0.000000 0.137255 0.674510
0.000000 0.137255 0.678431
0.047059 0.141176 0.694118
0.160784 0.152941 0.709804
0.333333 0.164706 0.737255
0.513725 0.156863 0.760784
0.674510 0.141176 0.776471
0.823529 0.109804 0.776471
0.960784 0.062745 0.733333
0.003922 0.278431 0.698039
0.011765 0.286275 0.701961
0.047059 0.298039 0.713725
0.192157 0.305882 0.737255
0.372549 0.301961 0.760784
0.537255 0.305882 0.784314
0.701961 0.298039 0.800000
0.839216 0.274510 0.803922
0.972549 0.215686 0.776471
0.000000 0.450980 0.725490
0.000000 0.454902 0.729412
0.043137 0.450980 0.741176
0.200000 0.458824 0.756863
0.396078 0.478431 0.780392
0.560784 0.474510 0.803922
0.713725 0.474510 0.819608
0.854902 0.462745 0.827451
0.984314 0.415686 0.803922
0.000000 0.592157 0.760784
0.000000 0.603922 0.760784
0.035294 0.607843 0.772549
0.266667 0.607843 0.784314
0.447059 0.627451 0.807843
0.592157 0.627451 0.827451
0.737255 0.631373 0.843137
0.878431 0.639216 0.850980
0.992157 0.607843 0.831373
0.019608 0.729412 0.796078
0.101961 0.733333 0.800000
0.235294 0.745098 0.807843
0.368627 0.745098 0.819608
0.505882 0.756863 0.835294
0.635294 0.764706 0.854902
0.764706 0.772549 0.866667
0.886275 0.784314 0.878431
0.996078 0.772549 0.858824
0.317647 0.854902 0.839216
0.341176 0.858824 0.843137
0.403922 0.862745 0.847059
0.490196 0.870588 0.858824
0.588235 0.878431 0.870588
0.694118 0.886275 0.886275
0.800000 0.898039 0.898039
0.913725 0.905882 0.905882
0.996078 0.909804 0.886275
0.576471 0.952941 0.901961
0.592157 0.952941 0.901961
0.615686 0.956863 0.905882
0.666667 0.964706 0.913725
0.721569 0.968627 0.921569
0.792157 0.976471 0.933333
0.870588 0.988235 0.941176
0.933333 0.996078 0.945098
1.000000 1.000000 0.937255
0.000000 0.000000 0.713725
0.000000 0.000000 0.721569
0.000000 0.000000 0.741176
0.074510 0.000000 0.760784
0.254902 0.000000 0.792157
0.450980 0.000000 0.819608
0.623529 0.000000 0.843137
0.784314 0.000000 0.843137
0.937255 0.000000 0.784314
0.000000 0.027451 0.729412
0.000000 0.023529 0.741176
0.000000 0.027451 0.756863
0.094118 0.035294 0.780392
0.274510 0.039216 0.811765
0.466667 0.043137 0.847059
0.635294 0.023529 0.874510
0.788235 0.003922 0.886275
0.933333 0.000000 0.870588
0.000000 0.160784 0.752941
0.000000 0.160784 0.760784
0.011765 0.156863 0.772549
0.121569 0.168627 0.796078
0.294118 0.176471 0.827451
0.482353 0.172549 0.862745
0.650980 0.168627 0.890196
0.800000 0.125490 0.909804
0.937255 0.047059 0.909804
0.000000 0.298039 0.772549
0.000000 0.298039 0.776471
0.003922 0.301961 0.792157
0.098039 0.317647 0.815686
0.309804 0.317647 0.843137
0.501961 0.321569 0.874510
0.666667 0.325490 0.905882
0.819608 0.294118 0.929412
0.952941 0.231373 0.933333
0.000000 0.458824 0.792157
0.000000 0.454902 0.796078
0.000000 0.458824 0.807843
0.101961 0.466667 0.827451
0.341176 0.478431 0.858824
0.525490 0.486275 0.886275
0.686275 0.486275 0.913725
0.835294 0.474510 0.937255
0.968627 0.431373 0.941176
0.000000 0.603922 0.815686
0.000000 0.596078 0.819608
0.000000 0.603922 0.831373
0.156863 0.611765 0.850980
0.396078 0.623529 0.874510
0.564706 0.635294 0.901961
0.709804 0.639216 0.925490
0.850980 0.647059 0.945098
0.976471 0.611765 0.956863
0.000000 0.729412 0.843137
0.000000 0.733333 0.847059
0.074510 0.737255 0.854902
0.290196 0.749020 0.870588
0.454902 0.756863 0.890196
0.600000 0.768627 0.913725
0.737255 0.776471 0.937255
0.866667 0.780392 0.956863
0.980392 0.768627 0.968627
0.203922 0.850980 0.874510
0.247059 0.854902 0.878431
0.325490 0.858824 0.886275
0.427451 0.866667 0.898039
0.549020 0.882353 0.913725
0.658824 0.886275 0.933333
0.780392 0.901961 0.949020
0.890196 0.905882 0.968627
0.984314 0.901961 0.980392
0.537255 0.945098 0.921569
0.549020 0.949020 0.921569
0.580392 0.952941 0.929412
0.635294 0.956863 0.937255
0.694118 0.964706 0.941176
0.772549 0.972549 0.956863
0.854902 0.984314 0.972549
0.929412 0.992157 0.988235
1.000000 1.000000 1.000000
