luts/Pure Minimalist.CUBE
# kravix mobile - LUTs Pack
LUT_3D_SIZE 17
0.006302 0.028840 0.032639
0.049653 0.028504 0.031205
0.093584 0.028214 0.029801
0.142855 0.027039 0.029831
0.212619 0.022721 0.026749
0.309438 0.015244 0.019943
0.402380 0.009476 0.014435
0.480262 0.006607 0.011627
0.550378 0.005783 0.010956
0.619913 0.006821 0.012238
0.690044 0.009400 0.015274
0.764309 0.015168 0.021607
0.835340 0.024826 0.031983
0.892561 0.033234 0.041291
0.929000 0.040681 0.049454
0.964492 0.047776 0.057130
1.000000 0.054627 0.064271
0.006653 0.069169 0.035447
0.050004 0.069123 0.034577
0.095872 0.068727 0.033585
0.145602 0.068483 0.032487
0.220111 0.065949 0.029877
0.322148 0.060273 0.024170
0.417380 0.056245 0.020142
0.499489 0.055528 0.019562
0.583093 0.060487 0.024476
0.658091 0.065431 0.029053
0.729351 0.069825 0.033341
0.794598 0.074937 0.038559
0.854032 0.081269 0.045197
0.893492 0.088533 0.052766
0.929000 0.094972 0.059480
0.964492 0.101335 0.065843
1.000000 0.107591 0.072099
0.004440 0.112123 0.038544
0.048356 0.113207 0.038788
0.095811 0.114046 0.038941
0.150942 0.114702 0.037644
0.233753 0.114809 0.034089
0.355764 0.113420 0.029313
0.448966 0.113497 0.028504
0.526314 0.115297 0.029969
0.598260 0.118364 0.032868
0.668299 0.121447 0.035981
0.737102 0.124636 0.039307
0.801297 0.128862 0.043854
0.858000 0.134401 0.049744
0.893492 0.141222 0.056703
0.929000 0.147707 0.063249
0.964492 0.154116 0.069688
1.000000 0.160372 0.075883
0.000000 0.162982 0.042191
0.043473 0.169207 0.044831
0.091661 0.174685 0.046632
0.154147 0.174807 0.043275
0.237339 0.176272 0.040375
0.339467 0.177066 0.033524
0.434165 0.178103 0.031037
0.514488 0.180270 0.031907
0.585153 0.183276 0.033860
0.654521 0.187182 0.036805
0.723247 0.191073 0.039689
0.790494 0.195041 0.042969
0.853193 0.200183 0.047578
0.893492 0.206592 0.053559
0.929000 0.213977 0.060121
0.964492 0.220859 0.066224
1.000000 0.227634 0.072038
0.000000 0.249653 0.050370
0.035493 0.255421 0.052003
0.079347 0.257908 0.051987
0.146380 0.254139 0.045914
0.241886 0.254398 0.040620
0.341375 0.256489 0.038850
0.433356 0.259358 0.035279
0.514366 0.262516 0.035340
0.584741 0.265980 0.036881
0.653468 0.269978 0.039200
0.721889 0.273991 0.041642
0.790204 0.277714 0.044312
0.854795 0.281941 0.048127
0.893492 0.287434 0.053407
0.929000 0.294301 0.059754
0.964492 0.300542 0.065660
1.000000 0.306538 0.071351
0.000000 0.341009 0.055894
0.035493 0.344961 0.056641
0.070985 0.346273 0.055344
0.135134 0.341176 0.046967
0.236011 0.341299 0.035462
0.345403 0.343069 0.037003
0.437446 0.344961 0.037827
0.518196 0.347127 0.039277
0.587762 0.349691 0.040726
0.655360 0.352865 0.042481
0.722545 0.355901 0.044022
0.790249 0.358541 0.045701
0.855238 0.361547 0.048417
0.893492 0.365484 0.052857
0.929000 0.370993 0.058457
0.964492 0.376028 0.063981
1.000000 0.380713 0.069154
0.000000 0.425711 0.064271
0.035493 0.428672 0.064469
0.070985 0.429160 0.061921
0.129259 0.424384 0.050706
0.227848 0.424918 0.033600
0.345617 0.427924 0.033799
0.440436 0.428519 0.037232
0.521553 0.428931 0.040009
0.591485 0.430045 0.042512
0.658640 0.431891 0.044785
0.725139 0.433692 0.046448
0.791730 0.435050 0.047700
0.856153 0.436698 0.049607
0.893492 0.439048 0.052888
0.929000 0.442893 0.057618
0.964492 0.446571 0.062211
1.000000 0.449882 0.066850
0.000000 0.504356 0.075380
0.035493 0.506523 0.075013
0.070985 0.506508 0.071595
0.131167 0.501793 0.058671
0.226581 0.502205 0.038712
0.343297 0.505226 0.033784
0.442039 0.506386 0.038025
0.524102 0.505486 0.040436
0.594232 0.505409 0.042817
0.661479 0.506065 0.045472
0.727489 0.506401 0.047456
0.793545 0.506218 0.048798
0.857389 0.506172 0.050523
0.893492 0.507256 0.053574
0.929000 0.509941 0.057847
0.964492 0.512779 0.062394
1.000000 0.515358 0.066911
0.000000 0.577356 0.087373
0.035493 0.578943 0.086397
0.073152 0.578485 0.082155
0.137118 0.573693 0.067903
0.230289 0.573510 0.046601
0.342702 0.575357 0.037110
0.442893 0.576669 0.039765
0.526604 0.575647 0.042222
0.596704 0.574685 0.043885
0.663569 0.574182 0.046021
0.729519 0.573617 0.048234
0.795590 0.572549 0.050065
0.858000 0.571710 0.052338
0.893492 0.571908 0.055741
0.929000 0.573922 0.060258
0.964492 0.576410 0.065080
1.000000 0.578759 0.070069
0.000000 0.645884 0.097139
0.035493 0.646922 0.095583
0.077455 0.646052 0.090639
0.141588 0.641199 0.075608
0.232761 0.640024 0.052613
0.340291 0.640192 0.039246
0.441016 0.641398 0.039750
0.526345 0.640665 0.042176
0.597314 0.639628 0.044190
0.664469 0.638743 0.046143
0.730510 0.637736 0.048325
0.796948 0.636362 0.050889
0.858000 0.635355 0.054139
0.893492 0.635386 0.058473
0.929000 0.637232 0.063584
0.964492 0.639796 0.068971
1.000000 0.642100 0.074601
0.000000 0.710140 0.104036
0.035493 0.710948 0.101946
0.077974 0.709895 0.096239
0.141711 0.705180 0.080064
0.230854 0.703548 0.055665
0.334783 0.702708 0.039216
0.434882 0.703670 0.037171
0.522179 0.703685 0.039628
0.594797 0.703212 0.042420
0.663233 0.702647 0.045228
0.730114 0.701778 0.047868
0.797040 0.700496 0.050996
0.858000 0.699641 0.055375
0.893492 0.699870 0.060868
0.929000 0.701900 0.066911
0.964492 0.704692 0.073060
1.000000 0.707134 0.079286
0.000000 0.770871 0.111391
0.035493 0.771618 0.108797
0.079576 0.770794 0.102220
0.141283 0.766812 0.084352
0.228321 0.765545 0.058290
0.328496 0.764538 0.039384
0.427466 0.765286 0.034684
0.516121 0.766186 0.036835
0.590494 0.766613 0.040314
0.660700 0.766873 0.044266
0.729061 0.766629 0.048203
0.797162 0.765805 0.052277
0.858000 0.765072 0.057466
0.893492 0.765438 0.063798
0.929000 0.767468 0.070329
0.964492 0.770138 0.076722
1.000000 0.772381 0.083223
0.000000 0.829480 0.121035
0.041016 0.830274 0.118090
0.085573 0.829587 0.110857
0.145251 0.826398 0.091264
0.229633 0.826078 0.063844
0.326665 0.825574 0.043427
0.423804 0.826581 0.036515
0.512947 0.828351 0.038025
0.588434 0.829770 0.041978
0.660182 0.830823 0.046723
0.729839 0.831205 0.051667
0.799023 0.830701 0.056733
0.858000 0.830060 0.062211
0.893492 0.830060 0.068467
0.929000 0.831708 0.074845
0.964492 0.834028 0.081132
1.000000 0.835615 0.087236
0.012680 0.886671 0.134173
0.054093 0.887434 0.130983
0.098115 0.887205 0.123293
0.156054 0.884642 0.101976
0.238773 0.885344 0.074235
0.332265 0.885695 0.053223
0.427878 0.887098 0.044801
0.516258 0.889418 0.045411
0.591852 0.891371 0.049165
0.664179 0.892851 0.054047
0.734356 0.893477 0.059251
0.804059 0.893034 0.064622
0.858000 0.892134 0.070100
0.893492 0.891661 0.075670
0.929000 0.892805 0.081529
0.964492 0.893492 0.087098
1.000000 0.893492 0.092439
0.024598 0.929000 0.147097
0.066194 0.929000 0.143816
0.110658 0.929000 0.135958
0.170520 0.929000 0.114702
0.252552 0.929000 0.087343
0.343954 0.929000 0.066484
0.438682 0.929000 0.057343
0.525933 0.929000 0.057435
0.600855 0.929000 0.060685
0.673060 0.929000 0.065339
0.743358 0.929000 0.070344
0.812848 0.929000 0.075364
0.858000 0.929000 0.080369
0.893492 0.929000 0.085191
0.929000 0.929000 0.089799
0.964492 0.929000 0.094087
1.000000 0.929000 0.098192
0.036744 0.964492 0.160204
0.078386 0.964492 0.156573
0.122820 0.964492 0.148760
0.183032 0.964492 0.127184
0.263935 0.964492 0.099886
0.352575 0.964492 0.078477
0.445502 0.964492 0.067964
0.530571 0.964492 0.066606
0.604929 0.964492 0.069108
0.676738 0.964492 0.073045
0.746624 0.964492 0.077256
0.815457 0.964492 0.081422
0.858000 0.964492 0.085206
0.893492 0.964492 0.088807
0.929000 0.964492 0.091753
0.964492 0.964492 0.094408
1.000000 0.964492 0.097536
0.047608 1.000000 0.172259
0.089387 1.000000 0.168414
0.133867 1.000000 0.160479
0.194354 1.000000 0.138689
0.274189 1.000000 0.111360
0.360449 1.000000 0.089494
0.450553 1.000000 0.077394
0.533211 1.000000 0.074449
0.605966 1.000000 0.075395
0.676722 1.000000 0.077852
0.745693 1.000000 0.080705
0.813474 1.000000 0.083223
0.858000 1.000000 0.085756
0.893492 1.000000 0.089265
0.929000 1.000000 0.093233
0.964492 1.000000 0.097170
1.000000 1.000000 0.101106
0.003632 0.029816 0.072023
0.046143 0.029648 0.071061
0.091905 0.028962 0.069001
0.143343 0.027146 0.069459
0.212955 0.022797 0.067765
0.310155 0.015396 0.062196
0.403555 0.009720 0.057252
0.481682 0.006897 0.054581
0.552224 0.006363 0.054414
0.622202 0.007477 0.056260
0.693767 0.010391 0.060380
0.773007 0.018051 0.070314
0.839170 0.025803 0.079393
0.893492 0.033936 0.088655
0.929000 0.041291 0.096803
0.964492 0.048325 0.104311
1.000000 0.054963 0.111192
0.005097 0.069947 0.074785
0.047578 0.070130 0.074388
0.095567 0.069413 0.071778
0.146624 0.068864 0.072145
0.221729 0.066270 0.071305
0.324224 0.060594 0.066850
0.420096 0.056748 0.063569
0.503594 0.056580 0.064256
0.587228 0.061952 0.071122
0.661036 0.066392 0.076143
0.732113 0.070390 0.080644
0.797421 0.075425 0.085893
0.856550 0.081529 0.092271
0.893492 0.088701 0.099840
0.929000 0.095247 0.106554
0.964492 0.101503 0.113085
1.000000 0.107713 0.119478
0.004273 0.112825 0.078416
0.048264 0.114153 0.078798
0.096742 0.114900 0.078447
0.152728 0.115694 0.077806
0.243473 0.116258 0.076432
0.359701 0.114260 0.073793
0.451575 0.114199 0.073884
0.528450 0.116121 0.076143
0.599893 0.118975 0.079362
0.670130 0.121996 0.082841
0.739162 0.125032 0.086335
0.803479 0.128985 0.090578
0.858000 0.134463 0.096452
0.893492 0.141360 0.103441
0.929000 0.147814 0.109972
0.964492 0.154208 0.116243
1.000000 0.160418 0.122469
0.000000 0.164309 0.083528
0.045258 0.171939 0.087068
0.093217 0.176150 0.088411
0.155993 0.175860 0.085191
0.238743 0.177417 0.082277
0.341039 0.177981 0.076310
0.435691 0.179065 0.074525
0.515984 0.181109 0.075700
0.586603 0.184176 0.078050
0.655756 0.187839 0.081193
0.724620 0.191608 0.084260
0.792203 0.195499 0.087785
0.855177 0.200473 0.092363
0.893492 0.206744 0.098390
0.929000 0.213901 0.104997
0.964492 0.220676 0.111162
1.000000 0.227481 0.117281
0.000000 0.251255 0.093873
0.035493 0.256535 0.095476
0.081529 0.258900 0.095415
0.148013 0.255100 0.089525
0.242603 0.255222 0.083391
0.341466 0.257160 0.081682
0.433677 0.260166 0.078142
0.515175 0.263188 0.078218
0.585595 0.266667 0.080110
0.654444 0.270665 0.082856
0.722927 0.274556 0.085466
0.791272 0.277989 0.088182
0.856199 0.282170 0.091951
0.893492 0.287480 0.097383
0.929000 0.294240 0.103746
0.964492 0.300389 0.109773
1.000000 0.306294 0.115633
0.000000 0.341711 0.100359
0.035493 0.345586 0.101152
0.070985 0.346731 0.099702
0.136858 0.341772 0.091508
0.235660 0.341711 0.079072
0.345098 0.343297 0.080263
0.437339 0.345357 0.080812
0.518441 0.347631 0.082093
0.588144 0.350286 0.083619
0.655680 0.353323 0.085512
0.723003 0.356344 0.087236
0.790829 0.358877 0.088945
0.856138 0.361685 0.091707
0.893492 0.365499 0.095979
0.929000 0.370840 0.101686
0.964492 0.375799 0.107149
1.000000 0.380346 0.112520
0.000000 0.426001 0.109453
0.035493 0.428916 0.109560
0.070985 0.429374 0.106844
0.130617 0.424735 0.095384
0.226902 0.425147 0.077623
0.344579 0.427939 0.076539
0.440085 0.428809 0.079988
0.521721 0.429389 0.082933
0.591745 0.430533 0.085496
0.658793 0.432273 0.087785
0.725246 0.433982 0.089479
0.791867 0.435248 0.090578
0.856519 0.436744 0.092424
0.893492 0.438956 0.095476
0.929000 0.442679 0.100175
0.964492 0.446235 0.104829
1.000000 0.449485 0.109514
0.000000 0.504280 0.121111
0.035493 0.506432 0.120638
0.070985 0.506462 0.116930
0.132082 0.501793 0.103334
0.225177 0.502159 0.082780
0.341497 0.505211 0.076310
0.441337 0.506737 0.080690
0.523964 0.505959 0.083299
0.594202 0.505791 0.085695
0.661387 0.506310 0.088380
0.727367 0.506554 0.090364
0.793423 0.506264 0.091524
0.857404 0.506142 0.093049
0.893492 0.507042 0.095811
0.929000 0.509575 0.099901
0.964492 0.512459 0.104555
1.000000 0.514977 0.109117
0.000000 0.576898 0.133516
0.035493 0.578607 0.132479
0.074830 0.578119 0.127794
0.137942 0.573587 0.113008
0.228763 0.573358 0.090959
0.340566 0.575204 0.079759
0.441566 0.576944 0.082261
0.525994 0.575998 0.084901
0.596277 0.574914 0.086564
0.663127 0.574334 0.088701
0.729091 0.573663 0.090837
0.795285 0.572549 0.092637
0.858000 0.571649 0.094728
0.893492 0.571756 0.097856
0.929000 0.573663 0.102205
0.964492 0.576135 0.106981
1.000000 0.578317 0.111955
0.000000 0.645243 0.143572
0.035493 0.646387 0.141878
0.078935 0.645563 0.136690
0.142123 0.640772 0.120821
0.231174 0.639735 0.097459
0.337484 0.639735 0.082246
0.439017 0.641291 0.082231
0.525277 0.640818 0.084825
0.596658 0.639796 0.086915
0.663920 0.638865 0.088869
0.730037 0.637812 0.090990
0.796521 0.636408 0.093355
0.858000 0.635248 0.096330
0.893492 0.635203 0.100435
0.929000 0.636957 0.105425
0.964492 0.639506 0.110857
1.000000 0.641779 0.116457
0.000000 0.709499 0.150668
0.035493 0.710262 0.148425
0.079026 0.709346 0.142489
0.142000 0.704723 0.125750
0.229343 0.703105 0.100816
0.331899 0.702235 0.082765
0.432609 0.703365 0.079851
0.520775 0.703685 0.082353
0.593881 0.703258 0.085100
0.662531 0.702739 0.087907
0.729534 0.701854 0.090486
0.796704 0.700496 0.093462
0.858000 0.699550 0.097520
0.893492 0.699702 0.102693
0.929000 0.701671 0.108659
0.964492 0.704402 0.114870
1.000000 0.706706 0.121050
0.000000 0.770184 0.158038
0.035493 0.771008 0.155352
0.080247 0.770245 0.148592
0.141253 0.766293 0.130175
0.226474 0.765103 0.103807
0.325597 0.764035 0.083406
0.424567 0.764858 0.077592
0.514229 0.766033 0.079484
0.589090 0.766552 0.082795
0.659648 0.766979 0.086763
0.728237 0.766751 0.090593
0.796597 0.765881 0.094423
0.858000 0.765087 0.099229
0.893492 0.765377 0.105409
0.929000 0.767254 0.111940
0.964492 0.769894 0.118425
1.000000 0.772045 0.124971
0.000488 0.828870 0.167697
0.041642 0.829709 0.164706
0.085908 0.829053 0.157305
0.144610 0.825910 0.137102
0.227497 0.825681 0.109499
0.323323 0.825177 0.087694
0.420478 0.826139 0.079438
0.510491 0.828122 0.080522
0.586694 0.829618 0.084230
0.658824 0.830900 0.088960
0.728786 0.831327 0.093690
0.798230 0.830808 0.098466
0.858000 0.830106 0.103716
0.893492 0.830014 0.109850
0.929000 0.831525 0.116274
0.964492 0.833768 0.122545
1.000000 0.835355 0.128893
0.013428 0.886046 0.180957
0.054505 0.886885 0.177752
0.098161 0.886656 0.169802
0.155169 0.884245 0.148013
0.236103 0.885084 0.119875
0.328588 0.885344 0.097520
0.424002 0.886687 0.087663
0.513252 0.889128 0.087602
0.589487 0.891295 0.091127
0.662226 0.892912 0.095811
0.732830 0.893492 0.100832
0.802777 0.893187 0.105959
0.858000 0.892241 0.111269
0.893492 0.891691 0.116777
0.929000 0.892622 0.122637
0.964492 0.893492 0.128405
1.000000 0.893492 0.133898
0.025361 0.929000 0.193988
0.066728 0.929000 0.190646
0.110887 0.929000 0.182773
0.169528 0.929000 0.161120
0.249683 0.929000 0.133242
0.339818 0.929000 0.110948
0.434318 0.929000 0.100252
0.522423 0.929000 0.099550
0.598077 0.929000 0.102556
0.670863 0.929000 0.106981
0.741451 0.929000 0.111833
0.811276 0.929000 0.116625
0.858000 0.929000 0.121462
0.893492 0.929000 0.126314
0.929000 0.929000 0.130907
0.964492 0.929000 0.135348
1.000000 0.929000 0.139651
0.037415 0.964492 0.206989
0.078874 0.964492 0.203494
0.123018 0.964492 0.195529
0.181964 0.964492 0.173739
0.260975 0.964492 0.145708
0.348272 0.964492 0.122957
0.440726 0.964492 0.110857
0.526574 0.964492 0.108598
0.601633 0.964492 0.110704
0.674006 0.964492 0.114427
0.744289 0.964492 0.118517
0.813504 0.964492 0.122499
0.858000 0.964492 0.126314
0.893492 0.964492 0.129946
0.929000 0.964492 0.132952
0.964492 0.964492 0.135714
1.000000 0.964492 0.139055
0.048341 1.000000 0.219211
0.089754 1.000000 0.215244
0.133944 1.000000 0.207309
0.193118 1.000000 0.185428
0.271000 1.000000 0.157412
0.355810 1.000000 0.134203
0.445472 1.000000 0.120333
0.528847 1.000000 0.116289
0.602289 1.000000 0.116854
0.673487 1.000000 0.119097
0.742947 1.000000 0.121874
0.811170 1.000000 0.124346
0.858000 1.000000 0.126879
0.893492 1.000000 0.130495
0.929000 1.000000 0.134554
0.964492 1.000000 0.138628
1.000000 1.000000 0.142733
0.000000 0.031266 0.115526
0.039795 0.031174 0.115297
0.086427 0.030182 0.113878
0.142611 0.027069 0.114015
0.211582 0.022736 0.113756
0.308827 0.015381 0.110445
0.403067 0.009461 0.106371
0.482017 0.006790 0.104326
0.552834 0.006348 0.104692
0.623774 0.007752 0.107362
0.697444 0.011048 0.112306
0.777737 0.018860 0.122957
0.842451 0.026017 0.130968
0.893492 0.034028 0.140154
0.929000 0.041092 0.148501
0.964492 0.048035 0.156695
1.000000 0.054719 0.164492
0.000000 0.071443 0.117433
0.041947 0.071702 0.117510
0.089342 0.071107 0.116243
0.146670 0.069093 0.116533
0.221637 0.066438 0.118135
0.324453 0.060609 0.116091
0.421790 0.056809 0.114290
0.509361 0.057877 0.117403
0.589563 0.062592 0.123781
0.662852 0.066606 0.128527
0.734112 0.070466 0.132616
0.799664 0.075120 0.137270
0.858000 0.081224 0.143801
0.893492 0.088319 0.151720
0.929000 0.094804 0.158923
0.964492 0.101030 0.166003
1.000000 0.107088 0.172854
0.001709 0.114183 0.121096
0.045472 0.115648 0.121920
0.093141 0.116701 0.121981
0.154284 0.116625 0.121538
0.249836 0.117128 0.125963
0.360998 0.114534 0.125338
0.452689 0.114336 0.125902
0.529244 0.116167 0.128237
0.600656 0.119081 0.131579
0.670832 0.121843 0.134752
0.740307 0.124712 0.137850
0.805325 0.128573 0.141817
0.858000 0.133898 0.147250
0.893492 0.140703 0.154284
0.929000 0.147082 0.160891
0.964492 0.153445 0.167529
1.000000 0.159625 0.173983
0.000885 0.165774 0.128222
0.047089 0.173358 0.133257
0.094942 0.176791 0.134524
0.158770 0.176165 0.130907
0.238148 0.178241 0.129152
0.340169 0.178332 0.125551
0.435355 0.178943 0.124681
0.516258 0.181125 0.126253
0.586908 0.184115 0.128847
0.656046 0.187655 0.131899
0.725170 0.191241 0.135012
0.793179 0.194949 0.138140
0.856703 0.199557 0.142321
0.893492 0.205615 0.147951
0.929000 0.212833 0.154528
0.964492 0.219486 0.160693
1.000000 0.226154 0.166629
0.000000 0.251148 0.143297
0.037003 0.256168 0.145174
0.085359 0.258396 0.145037
0.150500 0.254704 0.138750
0.241840 0.254902 0.131716
0.339101 0.256718 0.130159
0.431601 0.259678 0.126986
0.514458 0.262745 0.127504
0.585397 0.266346 0.129900
0.654231 0.270253 0.132815
0.722774 0.273869 0.135393
0.791608 0.277241 0.138048
0.857114 0.281178 0.141482
0.893492 0.286290 0.146395
0.929000 0.292927 0.152529
0.964492 0.298985 0.158495
1.000000 0.304845 0.164202
0.000000 0.340749 0.151858
0.035493 0.344488 0.152743
0.073197 0.345571 0.151385
0.139651 0.340734 0.143099
0.233265 0.340536 0.129015
0.342519 0.341894 0.129366
0.434607 0.344152 0.129809
0.516625 0.346761 0.130617
0.586954 0.349813 0.132601
0.654566 0.352911 0.134615
0.722133 0.355749 0.136477
0.790295 0.358144 0.138018
0.856214 0.360739 0.140444
0.893492 0.364340 0.144289
0.929000 0.369497 0.149660
0.964492 0.374380 0.154971
1.000000 0.378866 0.160204
0.000000 0.424582 0.161257
0.035493 0.427527 0.161532
0.070985 0.428000 0.159060
0.132570 0.423560 0.147601
0.224353 0.423758 0.129244
0.340871 0.426169 0.125246
0.437263 0.427512 0.128466
0.519875 0.428550 0.131518
0.590539 0.430045 0.134569
0.657496 0.431647 0.136965
0.723827 0.433341 0.138476
0.790661 0.434501 0.139223
0.855802 0.435874 0.140490
0.893492 0.437858 0.143099
0.929000 0.441444 0.147326
0.964492 0.444892 0.151720
1.000000 0.448081 0.156252
0.000000 0.502632 0.173220
0.035493 0.504829 0.172824
0.071626 0.504768 0.169131
0.133669 0.500404 0.155825
0.222065 0.500786 0.134722
0.336400 0.503441 0.124559
0.438193 0.505776 0.128817
0.522164 0.505501 0.131930
0.592706 0.505348 0.134630
0.659815 0.505730 0.137407
0.725811 0.505867 0.139269
0.791882 0.505501 0.140124
0.856168 0.505272 0.140887
0.893492 0.506035 0.142901
0.929000 0.508370 0.146578
0.964492 0.511254 0.150774
1.000000 0.513680 0.155138
0.000000 0.575204 0.185672
0.035493 0.576867 0.184649
0.077485 0.576425 0.180255
0.139086 0.572106 0.165728
0.225757 0.571878 0.143282
0.334752 0.573541 0.128557
0.437873 0.576165 0.130663
0.523842 0.575555 0.133654
0.594476 0.574411 0.135439
0.661387 0.573754 0.137575
0.727367 0.572992 0.139528
0.793591 0.571801 0.140948
0.858000 0.570840 0.142367
0.893492 0.570733 0.144732
0.929000 0.572519 0.148547
0.964492 0.574975 0.152895
1.000000 0.577111 0.157534
0.000000 0.643412 0.195682
0.035493 0.644556 0.194125
0.081147 0.643687 0.188968
0.142962 0.639139 0.173648
0.228229 0.638132 0.150134
0.331823 0.637964 0.131777
0.434363 0.640085 0.130694
0.522484 0.640116 0.133501
0.594553 0.639231 0.135683
0.662089 0.638254 0.137545
0.728191 0.637171 0.139574
0.794903 0.635691 0.141573
0.858000 0.634424 0.143786
0.893492 0.634272 0.147051
0.929000 0.635843 0.151476
0.964492 0.638331 0.156542
1.000000 0.640543 0.161883
0.000000 0.707729 0.202655
0.035493 0.708492 0.200397
0.080827 0.707576 0.194736
0.142611 0.703044 0.178515
0.226474 0.701442 0.153765
0.326329 0.700465 0.133120
0.427375 0.701808 0.128420
0.517479 0.702739 0.130922
0.591424 0.702525 0.133715
0.660533 0.702083 0.136477
0.727565 0.701228 0.138827
0.794980 0.699825 0.141344
0.858000 0.698756 0.144686
0.893492 0.698756 0.149065
0.929000 0.700542 0.154513
0.964492 0.703288 0.160311
1.000000 0.705516 0.166308
0.000000 0.768597 0.209461
0.036469 0.769406 0.206928
0.081285 0.768643 0.200366
0.141054 0.764736 0.182452
0.223529 0.763516 0.156481
0.320043 0.762341 0.134127
0.418891 0.763134 0.126207
0.510094 0.764889 0.127596
0.586084 0.765698 0.130907
0.657298 0.766262 0.134844
0.726085 0.766140 0.138338
0.794720 0.765255 0.141634
0.858000 0.764370 0.145769
0.893492 0.764508 0.151171
0.929000 0.766232 0.157229
0.964492 0.768856 0.163500
1.000000 0.770916 0.170001
0.001511 0.827359 0.218830
0.042451 0.828229 0.215946
0.086290 0.827588 0.208606
0.143893 0.824552 0.188968
0.224125 0.824262 0.161685
0.317601 0.823651 0.138247
0.414176 0.824460 0.127840
0.505455 0.826810 0.127993
0.582864 0.828702 0.131411
0.655772 0.830198 0.135973
0.726085 0.830793 0.140459
0.795926 0.830304 0.144732
0.858000 0.829526 0.149279
0.893492 0.829313 0.154833
0.929000 0.830625 0.160952
0.964492 0.832883 0.167224
1.000000 0.834363 0.173556
0.014328 0.884535 0.231922
0.054978 0.885481 0.228717
0.098176 0.885313 0.220966
0.153704 0.883070 0.199527
0.232029 0.883848 0.171572
0.322240 0.884047 0.147616
0.416831 0.885176 0.135561
0.507256 0.887816 0.134295
0.584802 0.890349 0.137392
0.658244 0.892241 0.141833
0.729366 0.893156 0.146548
0.799863 0.892836 0.151217
0.858000 0.891844 0.155932
0.893492 0.891157 0.161059
0.929000 0.891920 0.166827
0.964492 0.893492 0.172580
1.000000 0.893492 0.178134
0.026230 0.929000 0.244800
0.067338 0.929000 0.241688
0.111040 0.929000 0.233936
0.167987 0.929000 0.212634
0.245441 0.929000 0.184588
0.333364 0.929000 0.160845
0.426993 0.929000 0.147875
0.516258 0.929000 0.145815
0.593027 0.929000 0.148318
0.666499 0.929000 0.152468
0.737819 0.929000 0.157015
0.808240 0.929000 0.161456
0.858000 0.929000 0.165896
0.893492 0.929000 0.170474
0.929000 0.929000 0.175021
0.964492 0.929000 0.179507
1.000000 0.929000 0.183856
0.038239 0.964492 0.257969
0.079408 0.964492 0.254536
0.123201 0.964492 0.246723
0.180270 0.964492 0.225177
0.256367 0.964492 0.197009
0.341451 0.964492 0.172564
0.432944 0.964492 0.158190
0.519860 0.964492 0.154360
0.595865 0.964492 0.155871
0.669154 0.964492 0.159289
0.740200 0.964492 0.163134
0.810117 0.964492 0.166873
0.858000 0.964492 0.170413
0.893492 0.964492 0.173953
0.929000 0.964492 0.176959
0.964492 0.964492 0.179782
1.000000 0.964492 0.183230
0.049149 1.000000 0.270207
0.090257 1.000000 0.266407
0.134066 1.000000 0.258473
0.191394 1.000000 0.236942
0.266468 1.000000 0.208499
0.348943 1.000000 0.183658
0.437629 1.000000 0.167437
0.521538 1.000000 0.161654
0.596048 1.000000 0.161501
0.668238 1.000000 0.163470
0.738415 1.000000 0.166018
0.807401 1.000000 0.168338
0.858000 1.000000 0.170794
0.893492 1.000000 0.174380
0.929000 1.000000 0.178500
0.964492 1.000000 0.182666
1.000000 1.000000 0.186892
0.000000 0.033600 0.171511
0.035493 0.033463 0.172244
0.073808 0.032288 0.171847
0.132708 0.028412 0.170352
0.208164 0.021881 0.171252
0.303319 0.014740 0.171542
0.398856 0.008453 0.169909
0.479377 0.005554 0.168963
0.551263 0.005310 0.171038
0.623255 0.006851 0.176364
0.701488 0.010910 0.188693
0.781262 0.017288 0.206363
0.846784 0.023468 0.219211
0.893492 0.030991 0.232029
0.929000 0.037964 0.242771
0.964492 0.044694 0.252583
1.000000 0.051347 0.261769
0.000000 0.074098 0.172259
0.035493 0.074388 0.173632
0.076173 0.073884 0.174243
