luts/Pure Minimalist.CUBE
# kravix mobile - LUTs Pack
LUT_3D_SIZE 9
0.006302 0.028840 0.032639
0.093584 0.028214 0.029801
0.212619 0.022721 0.026749
0.402380 0.009476 0.014435
0.550378 0.005783 0.010956
0.690044 0.009400 0.015274
0.835340 0.024826 0.031983
0.929000 0.040681 0.049454
1.000000 0.054627 0.064271
0.004440 0.112123 0.038544
0.095811 0.114046 0.038941
0.233753 0.114809 0.034089
0.448966 0.113497 0.028504
0.598260 0.118364 0.032868
0.737102 0.124636 0.039307
0.858000 0.134401 0.049744
0.929000 0.147707 0.063249
1.000000 0.160372 0.075883
0.000000 0.249653 0.050370
0.079347 0.257908 0.051987
0.241886 0.254398 0.040620
0.433356 0.259358 0.035279
0.584741 0.265980 0.036881
0.721889 0.273991 0.041642
0.854795 0.281941 0.048127
0.929000 0.294301 0.059754
1.000000 0.306538 0.071351
0.000000 0.425711 0.064271
0.070985 0.429160 0.061921
0.227848 0.424918 0.033600
0.440436 0.428519 0.037232
0.591485 0.430045 0.042512
0.725139 0.433692 0.046448
0.856153 0.436698 0.049607
0.929000 0.442893 0.057618
1.000000 0.449882 0.066850
0.000000 0.577356 0.087373
0.073152 0.578485 0.082155
0.230289 0.573510 0.046601
0.442893 0.576669 0.039765
0.596704 0.574685 0.043885
0.729519 0.573617 0.048234
0.858000 0.571710 0.052338
0.929000 0.573922 0.060258
1.000000 0.578759 0.070069
0.000000 0.710140 0.104036
0.077974 0.709895 0.096239
0.230854 0.703548 0.055665
0.434882 0.703670 0.037171
0.594797 0.703212 0.042420
0.730114 0.701778 0.047868
0.858000 0.699641 0.055375
0.929000 0.701900 0.066911
1.000000 0.707134 0.079286
0.000000 0.829480 0.121035
0.085573 0.829587 0.110857
0.229633 0.826078 0.063844
0.423804 0.826581 0.036515
0.588434 0.829770 0.041978
0.729839 0.831205 0.051667
0.858000 0.830060 0.062211
0.929000 0.831708 0.074845
1.000000 0.835615 0.087236
0.024598 0.929000 0.147097
0.110658 0.929000 0.135958
0.252552 0.929000 0.087343
0.438682 0.929000 0.057343
0.600855 0.929000 0.060685
0.743358 0.929000 0.070344
0.858000 0.929000 0.080369
0.929000 0.929000 0.089799
1.000000 0.929000 0.098192
0.047608 1.000000 0.172259
0.133867 1.000000 0.160479
0.274189 1.000000 0.111360
0.450553 1.000000 0.077394
0.605966 1.000000 0.075395
0.745693 1.000000 0.080705
0.858000 1.000000 0.085756
0.929000 1.000000 0.093233
1.000000 1.000000 0.101106
0.000000 0.031266 0.115526
0.086427 0.030182 0.113878
0.211582 0.022736 0.113756
0.403067 0.009461 0.106371
0.552834 0.006348 0.104692
0.697444 0.011048 0.112306
0.842451 0.026017 0.130968
0.929000 0.041092 0.148501
1.000000 0.054719 0.164492
0.001709 0.114183 0.121096
0.093141 0.116701 0.121981
0.249836 0.117128 0.125963
0.452689 0.114336 0.125902
0.600656 0.119081 0.131579
0.740307 0.124712 0.137850
0.858000 0.133898 0.147250
0.929000 0.147082 0.160891
1.000000 0.159625 0.173983
0.000000 0.251148 0.143297
0.085359 0.258396 0.145037
0.241840 0.254902 0.131716
0.431601 0.259678 0.126986
0.585397 0.266346 0.129900
0.722774 0.273869 0.135393
0.857114 0.281178 0.141482
0.929000 0.292927 0.152529
1.000000 0.304845 0.164202
0.000000 0.424582 0.161257
0.070985 0.428000 0.159060
0.224353 0.423758 0.129244
0.437263 0.427512 0.128466
0.590539 0.430045 0.134569
0.723827 0.433341 0.138476
0.855802 0.435874 0.140490
0.929000 0.441444 0.147326
1.000000 0.448081 0.156252
0.000000 0.575204 0.185672
0.077485 0.576425 0.180255
0.225757 0.571878 0.143282
0.437873 0.576165 0.130663
0.594476 0.574411 0.135439
0.727367 0.572992 0.139528
0.858000 0.570840 0.142367
0.929000 0.572519 0.148547
1.000000 0.577111 0.157534
0.000000 0.707729 0.202655
0.080827 0.707576 0.194736
0.226474 0.701442 0.153765
0.427375 0.701808 0.128420
0.591424 0.702525 0.133715
0.727565 0.701228 0.138827
0.858000 0.698756 0.144686
0.929000 0.700542 0.154513
1.000000 0.705516 0.166308
0.001511 0.827359 0.218830
0.086290 0.827588 0.208606
0.224125 0.824262 0.161685
0.414176 0.824460 0.127840
0.582864 0.828702 0.131411
0.726085 0.830793 0.140459
0.858000 0.829526 0.149279
0.929000 0.830625 0.160952
1.000000 0.834363 0.173556
0.026230 0.929000 0.244800
0.111040 0.929000 0.233936
0.245441 0.929000 0.184588
0.426993 0.929000 0.147875
0.593027 0.929000 0.148318
0.737819 0.929000 0.157015
0.858000 0.929000 0.165896
0.929000 0.929000 0.175021
1.000000 0.929000 0.183856
0.049149 1.000000 0.270207
0.134066 1.000000 0.258473
0.266468 1.000000 0.208499
0.437629 1.000000 0.167437
0.596048 1.000000 0.161501
0.738415 1.000000 0.166018
0.858000 1.000000 0.170794
0.929000 1.000000 0.178500
1.000000 1.000000 0.186892
0.000000 0.036728 0.242847
0.070985 0.035157 0.243748
0.201358 0.021622 0.245716
0.395834 0.006332 0.247852
0.549752 0.003296 0.255253
0.707515 0.010636 0.287465
0.849317 0.021241 0.311604
0.929000 0.035493 0.332891
1.000000 0.048936 0.350149
0.000000 0.122072 0.241703
0.070985 0.125429 0.252781
0.248371 0.116091 0.285451
0.446571 0.109392 0.297932
0.595911 0.114305 0.308873
0.738613 0.119722 0.318914
0.858000 0.127275 0.328725
0.929000 0.139483 0.342565
1.000000 0.152026 0.355032
0.000000 0.253437 0.272251
0.086122 0.259342 0.276493
0.233753 0.254276 0.263416
0.417762 0.254093 0.273671
0.579385 0.260121 0.282124
0.719570 0.268269 0.290791
0.856931 0.274464 0.297261
0.929000 0.284688 0.307637
1.000000 0.295583 0.318441
0.000000 0.416678 0.318288
0.089235 0.419532 0.317021
0.231098 0.413962 0.292988
0.417212 0.415351 0.274113
0.573205 0.421744 0.277592
0.713710 0.429007 0.283284
0.849332 0.431266 0.286366
0.929000 0.435492 0.292134
1.000000 0.441062 0.299565
0.009064 0.565026 0.351446
0.096925 0.566171 0.345037
0.228260 0.562570 0.310094
0.411948 0.562951 0.273228
0.579919 0.567361 0.278035
0.716640 0.569116 0.283772
0.848020 0.566888 0.284321
0.929000 0.567849 0.287022
1.000000 0.571771 0.293202
0.011872 0.696529 0.372259
0.097993 0.696437 0.362875
0.228382 0.691569 0.322866
0.398947 0.690196 0.275624
0.576852 0.697505 0.276738
0.717449 0.698421 0.282963
0.852491 0.695583 0.286534
0.929000 0.696193 0.291676
1.000000 0.700648 0.299672
0.015671 0.817411 0.388327
0.098253 0.818006 0.376287
0.223545 0.815152 0.331029
0.387137 0.814176 0.281697
0.561654 0.821485 0.272312
0.713130 0.827802 0.281453
0.854109 0.827039 0.287129
0.929000 0.827298 0.294102
1.000000 0.830457 0.303105
0.039567 0.929000 0.416281
0.120958 0.929000 0.402579
0.241108 0.929000 0.353323
0.398978 0.929000 0.303395
0.565499 0.929000 0.286946
0.719173 0.929000 0.293248
0.858000 0.929000 0.298848
0.929000 0.929000 0.302937
1.000000 0.929000 0.308614
0.061936 1.000000 0.442573
0.143053 1.000000 0.427710
0.258640 1.000000 0.375402
0.407660 1.000000 0.321813
0.563775 1.000000 0.297459
0.714092 1.000000 0.296605
0.857923 1.000000 0.298451
0.929000 1.000000 0.302785
1.000000 1.000000 0.308888
0.000000 0.041749 0.387503
0.070985 0.040406 0.391577
0.165270 0.028824 0.404501
0.390875 0.003662 0.417151
0.547204 0.000534 0.428061
0.709895 0.009445 0.465019
0.848615 0.019501 0.480903
0.929000 0.033616 0.496178
1.000000 0.047105 0.507698
0.000000 0.130007 0.389807
0.070985 0.134615 0.407568
0.217136 0.126238 0.455360
0.441764 0.109514 0.471687
0.591073 0.111955 0.481056
0.734707 0.116304 0.489387
0.858000 0.123659 0.495888
0.929000 0.135668 0.506050
1.000000 0.148165 0.514260
0.000000 0.267384 0.403357
0.070985 0.273106 0.410697
0.204303 0.265934 0.418006
0.414420 0.251575 0.443015
0.571450 0.252674 0.450950
0.712963 0.260639 0.458930
0.852903 0.268116 0.465370
0.929000 0.278279 0.474403
1.000000 0.288487 0.482856
0.000000 0.422080 0.452033
0.089448 0.424186 0.452354
0.232776 0.417258 0.437064
0.403052 0.413657 0.425513
0.552422 0.413886 0.436103
0.697902 0.420218 0.445777
0.843534 0.425193 0.452308
0.929000 0.429603 0.457206
1.000000 0.434562 0.462562
0.021897 0.563821 0.497444
0.111131 0.564034 0.494224
0.246937 0.556756 0.474189
0.410574 0.550256 0.450690
0.552636 0.550317 0.437629
0.686503 0.555245 0.439490
0.832471 0.560601 0.442023
0.929000 0.564538 0.447257
1.000000 0.568246 0.452888
0.029618 0.691142 0.523751
0.116457 0.690379 0.518166
0.247868 0.682826 0.491981
0.400320 0.677607 0.459922
0.547951 0.677165 0.436133
0.692271 0.683207 0.441016
0.835523 0.688762 0.445167
0.929000 0.693706 0.450172
1.000000 0.698482 0.456413
0.035218 0.811093 0.541756
0.117723 0.810880 0.533898
0.242222 0.806088 0.502419
0.388983 0.804425 0.465751
0.532662 0.805646 0.435401
0.691112 0.817273 0.438315
0.841337 0.823316 0.447272
0.929000 0.825864 0.454398
1.000000 0.828305 0.460151
0.059174 0.928038 0.569497
0.140108 0.928008 0.560128
0.258167 0.925597 0.524651
0.401266 0.924926 0.486122
0.538582 0.926314 0.453223
0.692302 0.929000 0.447044
0.849546 0.929000 0.457053
0.929000 0.929000 0.459815
1.000000 0.929000 0.462608
0.080003 1.000000 0.593957
0.160403 1.000000 0.583200
0.272328 1.000000 0.544152
0.408728 1.000000 0.501350
0.539544 1.000000 0.465263
0.682094 1.000000 0.448096
0.840177 1.000000 0.452766
0.929000 1.000000 0.457282
1.000000 1.000000 0.460746
0.000000 0.045655 0.514504
0.070985 0.045213 0.520714
0.142229 0.035523 0.538582
0.375036 0.008225 0.570489
0.547906 0.003876 0.581079
0.710048 0.013520 0.608057
0.845975 0.022828 0.618631
0.929000 0.035965 0.631510
1.000000 0.048371 0.641581
0.000000 0.136782 0.520775
0.070985 0.144640 0.544137
0.200443 0.135698 0.586145
0.430091 0.115877 0.616434
0.588144 0.115450 0.622293
0.731395 0.118807 0.628672
0.858000 0.125261 0.633310
0.929000 0.136568 0.641260
1.000000 0.148180 0.647532
0.000000 0.278523 0.529061
0.070985 0.283406 0.537835
0.187671 0.275822 0.555200
0.392157 0.261204 0.595819
0.567758 0.254963 0.602090
0.708476 0.259236 0.607080
0.848463 0.264317 0.610971
0.929000 0.273976 0.617517
1.000000 0.283955 0.623499
0.000000 0.432761 0.562005
0.075135 0.434974 0.563546
0.213718 0.429328 0.557122
0.384344 0.423194 0.565286
0.549645 0.413336 0.584726
0.690547 0.413016 0.590875
0.834333 0.415610 0.596689
0.929000 0.422004 0.601633
1.000000 0.427893 0.606027
0.019150 0.569863 0.607904
0.107652 0.570077 0.606516
0.243458 0.563012 0.592371
0.406500 0.555444 0.574060
0.540719 0.551339 0.568139
0.672389 0.548699 0.576944
0.816510 0.551019 0.584085
0.929000 0.556588 0.591760
1.000000 0.562661 0.598184
0.035920 0.692622 0.638529
0.122240 0.691737 0.635981
0.255940 0.683391 0.620417
0.414115 0.674983 0.601923
0.552300 0.669093 0.587686
0.671763 0.671382 0.581613
0.808301 0.676280 0.582208
0.929000 0.685252 0.590341
1.000000 0.694118 0.599512
0.047211 0.810468 0.660349
0.130358 0.810056 0.656504
0.256535 0.803845 0.638361
0.407218 0.799420 0.617411
0.542443 0.796643 0.599207
0.668193 0.799054 0.584573
0.814206 0.805402 0.587427
0.929000 0.813321 0.593057
1.000000 0.821546 0.599329
0.072831 0.927199 0.689708
0.154543 0.926619 0.684153
0.274083 0.922560 0.662730
0.418204 0.919264 0.638086
0.546609 0.918227 0.615747
0.670893 0.918898 0.596841
0.822721 0.926741 0.594537
0.929000 0.929000 0.598291
1.000000 0.929000 0.601541
0.093400 1.000000 0.714519
0.174624 1.000000 0.707393
0.287480 1.000000 0.682094
0.423514 1.000000 0.651804
0.544976 1.000000 0.624109
0.662165 1.000000 0.597910
0.812589 1.000000 0.587915
0.929000 1.000000 0.596628
1.000000 1.000000 0.601907
0.000000 0.049043 0.624002
0.070985 0.049607 0.632837
0.142000 0.041016 0.655970
0.355306 0.016220 0.701091
0.549599 0.012818 0.728496
0.705455 0.019440 0.742031
0.839612 0.028397 0.749660
0.929000 0.040589 0.760723
1.000000 0.051927 0.769390
0.000000 0.142779 0.635355
0.070985 0.151980 0.661753
0.188174 0.144121 0.708949
0.408560 0.125475 0.750317
0.577478 0.121248 0.759457
0.725017 0.123369 0.761959
0.855802 0.129519 0.764477
0.929000 0.140139 0.771618
1.000000 0.150469 0.776989
0.000000 0.287495 0.645594
0.070985 0.291951 0.656077
0.176364 0.284230 0.678477
0.370214 0.272526 0.721401
0.553750 0.261799 0.740642
0.704005 0.262608 0.744350
0.844205 0.265553 0.747295
0.929000 0.273274 0.753109
1.000000 0.281682 0.757794
0.000000 0.441733 0.669673
0.070985 0.443900 0.673289
0.199863 0.437675 0.674754
0.368734 0.431846 0.696086
0.529580 0.421469 0.723598
0.687480 0.413794 0.730968
0.827863 0.411551 0.731243
0.929000 0.414862 0.733913
1.000000 0.420340 0.737545
0.011826 0.576928 0.709285
0.098055 0.577417 0.708797
0.229267 0.571084 0.697429
0.386114 0.565377 0.691356
0.524742 0.558129 0.696437
0.667185 0.549004 0.712352
0.808972 0.543557 0.714275
0.929000 0.546288 0.720714
1.000000 0.553231 0.728084
0.035309 0.696269 0.740490
0.120119 0.695827 0.738964
0.249454 0.688685 0.725689
0.404593 0.682429 0.710460
0.541772 0.676249 0.696620
0.662318 0.675120 0.697948
0.800534 0.670924 0.707835
0.929000 0.676677 0.717281
1.000000 0.685023 0.728069
0.053101 0.812390 0.767208
0.136416 0.811826 0.764599
0.260594 0.806180 0.751629
0.414816 0.801389 0.737667
0.553658 0.796292 0.725185
0.678065 0.795026 0.717662
0.798123 0.797116 0.710933
0.923613 0.802457 0.713497
1.000000 0.810697 0.722042
0.081102 0.928313 0.786999
0.163729 0.927489 0.786999
0.282704 0.923308 0.780728
0.430289 0.918868 0.764202
0.561624 0.914855 0.749233
0.682612 0.912505 0.736889
0.803555 0.911543 0.720394
0.929000 0.914214 0.718685
1.000000 0.917571 0.720439
0.102617 1.000000 0.786999
0.184802 1.000000 0.786999
0.297948 1.000000 0.786999
0.436149 1.000000 0.780438
0.558694 1.000000 0.759609
0.672541 1.000000 0.740475
0.794781 1.000000 0.720394
0.929000 1.000000 0.718471
1.000000 1.000000 0.723308
0.000000 0.052598 0.726070
0.070985 0.053727 0.735836
0.142000 0.046479 0.764797
0.338155 0.026093 0.818723
0.542306 0.022766 0.847440
0.701549 0.026902 0.853239
0.837308 0.034897 0.858000
0.929000 0.046479 0.858000
1.000000 0.056947 0.858000
0.000000 0.149203 0.740841
0.070985 0.158495 0.762585
0.183551 0.151736 0.813367
0.394110 0.135378 0.858000
0.566583 0.129274 0.858000
0.718959 0.129931 0.858000
0.852079 0.135454 0.858000
0.929000 0.145571 0.858000
1.000000 0.155093 0.858000
0.000000 0.295277 0.751156
0.070985 0.299367 0.762890
0.168582 0.292134 0.793347
0.354757 0.282307 0.837842
0.533867 0.271794 0.858000
0.694194 0.268452 0.858000
0.839948 0.269276 0.858000
0.929000 0.276158 0.858000
1.000000 0.283589 0.858000
0.000000 0.448997 0.771359
0.070985 0.451041 0.777417
0.189639 0.445106 0.789487
0.356649 0.438804 0.815183
0.510979 0.430426 0.844022
0.671382 0.419883 0.858000
0.822538 0.413245 0.858000
0.929000 0.414282 0.858000
1.000000 0.417838 0.858000
0.007675 0.582849 0.804349
0.092210 0.583444 0.805859
0.216739 0.578119 0.803815
0.371618 0.572061 0.807889
0.509789 0.565087 0.821683
0.647608 0.556191 0.841123
0.806271 0.543618 0.847349
0.929000 0.542535 0.849485
1.000000 0.546410 0.854139
0.033143 0.700938 0.832731
0.116808 0.700526 0.832563
0.238605 0.695216 0.825345
0.389288 0.690242 0.816342
0.523247 0.685664 0.814893
0.648600 0.681956 0.822568
0.796155 0.672053 0.838834
0.926116 0.670741 0.843687
1.000000 0.675044 0.851743
0.054780 0.816327 0.858000
0.137972 0.815579 0.858000
0.257481 0.811246 0.852369
0.408453 0.807797 0.841260
0.543328 0.805127 0.831907
0.667094 0.803113 0.824353
0.789288 0.800855 0.824643
0.916228 0.797711 0.834974
1.000000 0.801801 0.842374
0.084810 0.929000 0.858000
0.167834 0.929000 0.858000
0.284504 0.926604 0.858000
0.431067 0.922698 0.858000
0.563439 0.919005 0.858000
0.686168 0.914260 0.851850
0.807950 0.908583 0.840162
0.912795 0.907637 0.834379
1.000000 0.907622 0.835401
0.106966 1.000000 0.858000
0.189746 1.000000 0.858000
0.303243 1.000000 0.858000
0.440940 1.000000 0.858000
0.566323 1.000000 0.858000
0.683543 1.000000 0.858000
0.804868 1.000000 0.851667
0.917006 1.000000 0.841245
1.000000 1.000000 0.841825
0.000000 0.056153 0.817685
0.070985 0.057755 0.827909
0.142000 0.051530 0.859083
0.336355 0.035050 0.917723
0.534936 0.032685 0.929000
0.696132 0.034791 0.929000
0.833906 0.041550 0.929000
0.929000 0.052338 0.929000
1.000000 0.062196 0.929000
0.000000 0.158236 0.839323
0.070985 0.164630 0.857679
0.183154 0.158755 0.908476
0.382925 0.144854 0.929000
0.554116 0.138491 0.929000
0.710613 0.137331 0.929000
0.846891 0.141726 0.929000
0.929000 0.151156 0.929000
1.000000 0.159915 0.929000
0.000000 0.302800 0.845716
0.070985 0.306554 0.857527
0.168643 0.299367 0.890242
0.348867 0.290623 0.929000
0.521752 0.281163 0.929000
0.685100 0.276081 0.929000
0.835691 0.274846 0.929000
0.929000 0.280797 0.929000
1.000000 0.287480 0.929000
0.000000 0.455421 0.864530
0.070985 0.457099 0.871015
0.187716 0.451301 0.888334
0.351568 0.445060 0.917296
0.502220 0.437461 0.929000
0.657450 0.427359 0.929000
0.816251 0.417227 0.929000
0.929000 0.416693 0.929000
1.000000 0.419547 0.929000
0.006561 0.588174 0.894347
0.091203 0.588495 0.896223
0.212467 0.583307 0.899168
0.364797 0.576806 0.908537
0.502586 0.570291 0.925017
0.637140 0.562570 0.929000
0.797864 0.548074 0.929000
0.929000 0.544686 0.929000
1.000000 0.547433 0.929000
0.031510 0.705623 0.920348
0.115496 0.705074 0.920073
0.234028 0.700389 0.916304
0.381872 0.695583 0.913191
0.515282 0.691737 0.918486
0.641032 0.688258 0.929000
0.785290 0.678370 0.929000
0.927047 0.672450 0.929000
1.000000 0.674723 0.929000
0.054856 0.820890 0.929000
0.138628 0.820127 0.929000
0.255985 0.816403 0.929000
0.402533 0.814008 0.929000
0.535073 0.812497 0.927779
0.657237 0.810742 0.925994
0.782742 0.806226 0.929000
0.915404 0.799344 0.929000
1.000000 0.799268 0.929000
0.086229 0.929000 0.929000
0.169635 0.929000 0.929000
0.285115 0.929000 0.929000
0.427787 0.927810 0.929000
0.558160 0.924926 0.929000
0.677592 0.921202 0.929000
0.797269 0.914611 0.929000
0.907362 0.909148 0.929000
1.000000 0.905516 0.929000
0.108766 1.000000 0.929000
0.192096 1.000000 0.929000
0.305409 1.000000 0.929000
0.439902 1.000000 0.929000
0.565179 1.000000 0.929000
0.682948 1.000000 0.929000
0.805936 1.000000 0.929000
0.920470 1.000000 0.929000
1.000000 1.000000 0.929000
0.000000 0.060105 0.912825
0.070985 0.062074 0.921767
0.142000 0.056672 0.954482
0.343328 0.046128 1.000000
0.526192 0.042847 1.000000
0.689708 0.042939 1.000000
0.829679 0.048570 1.000000
0.929000 0.058320 1.000000
1.000000 0.066026 1.000000
0.000000 0.165484 0.939757
0.070985 0.170871 0.954650
0.182605 0.165606 1.000000
0.373724 0.154025 1.000000
0.541360 0.147951 1.000000
0.701289 0.145388 1.000000
0.840848 0.148486 1.000000
0.929000 0.157061 1.000000
1.000000 0.165011 1.000000
0.000000 0.310445 0.941695
0.070985 0.313634 0.953002
0.169177 0.306554 0.986053
0.343481 0.299031 1.000000
0.509010 0.291035 1.000000
0.671916 0.284886 1.000000
0.827161 0.281468 1.000000
0.929000 0.286198 1.000000
1.000000 0.291997 1.000000
0.000000 0.461845 0.959182
0.070985 0.463111 0.965850
0.187030 0.457115 0.986191
0.345861 0.451072 1.000000
0.493156 0.444068 1.000000
0.642771 0.434943 1.000000
0.805371 0.422538 1.000000
0.929000 0.419959 1.000000
1.000000 0.421988 1.000000
0.004578 0.593271 0.985687
0.089647 0.593286 0.987915
0.209415 0.587930 0.995010
0.357671 0.581521 1.000000
0.494316 0.574990 1.000000
0.626886 0.568460 1.000000
0.783597 0.554528 1.000000
0.925200 0.548226 1.000000
1.000000 0.549859 1.000000
0.028794 0.710338 1.000000
0.113252 0.709697 1.000000
0.230259 0.704967 1.000000
0.373846 0.700740 1.000000
0.507149 0.696925 1.000000
0.633051 0.694301 1.000000
0.773526 0.685374 1.000000
0.920836 0.676402 1.000000
1.000000 0.676677 1.000000
0.053697 0.825971 1.000000
0.137713 0.825116 1.000000
0.253773 0.821485 1.000000
0.394858 0.820203 1.000000
0.526009 0.818738 1.000000
0.647334 0.817807 1.000000
0.774350 0.812375 1.000000
0.904784 0.804501 1.000000
1.000000 0.799969 1.000000
0.084733 0.929000 1.000000
0.169451 0.929000 1.000000
0.284398 0.929000 1.000000
0.421012 0.929000 1.000000
0.549020 0.929000 1.000000
0.665797 0.928161 1.000000
0.785672 0.920501 1.000000
0.898558 0.912215 1.000000
1.000000 0.906722 1.000000
0.104829 1.000000 1.000000
0.191959 1.000000 1.000000
0.305348 1.000000 1.000000
0.434592 1.000000 1.000000
0.558358 1.000000 1.000000
0.674952 1.000000 1.000000
0.795697 1.000000 1.000000
0.909194 1.000000 1.000000
1.000000 1.000000 1.000000
