luts/Pure Minimalist.CUBE
# kravix mobile - LUTs Pack
LUT_3D_SIZE 5
0.006302 0.028840 0.032639
0.212619 0.022721 0.026749
0.550378 0.005783 0.010956
0.835340 0.024826 0.031983
1.000000 0.054627 0.064271
0.000000 0.249653 0.050370
0.241886 0.254398 0.040620
0.584741 0.265980 0.036881
0.854795 0.281941 0.048127
1.000000 0.306538 0.071351
0.000000 0.577356 0.087373
0.230289 0.573510 0.046601
0.596704 0.574685 0.043885
0.858000 0.571710 0.052338
1.000000 0.578759 0.070069
0.000000 0.829480 0.121035
0.229633 0.826078 0.063844
0.588434 0.829770 0.041978
0.858000 0.830060 0.062211
1.000000 0.835615 0.087236
0.047608 1.000000 0.172259
0.274189 1.000000 0.111360
0.605966 1.000000 0.075395
0.858000 1.000000 0.085756
1.000000 1.000000 0.101106
0.000000 0.036728 0.242847
0.201358 0.021622 0.245716
0.549752 0.003296 0.255253
0.849317 0.021241 0.311604
1.000000 0.048936 0.350149
0.000000 0.253437 0.272251
0.233753 0.254276 0.263416
0.579385 0.260121 0.282124
0.856931 0.274464 0.297261
1.000000 0.295583 0.318441
0.009064 0.565026 0.351446
0.228260 0.562570 0.310094
0.579919 0.567361 0.278035
0.848020 0.566888 0.284321
1.000000 0.571771 0.293202
0.015671 0.817411 0.388327
0.223545 0.815152 0.331029
0.561654 0.821485 0.272312
0.854109 0.827039 0.287129
1.000000 0.830457 0.303105
0.061936 1.000000 0.442573
0.258640 1.000000 0.375402
0.563775 1.000000 0.297459
0.857923 1.000000 0.298451
1.000000 1.000000 0.308888
0.000000 0.045655 0.514504
0.142229 0.035523 0.538582
0.547906 0.003876 0.581079
0.845975 0.022828 0.618631
1.000000 0.048371 0.641581
0.000000 0.278523 0.529061
0.187671 0.275822 0.555200
0.567758 0.254963 0.602090
0.848463 0.264317 0.610971
1.000000 0.283955 0.623499
0.019150 0.569863 0.607904
0.243458 0.563012 0.592371
0.540719 0.551339 0.568139
0.816510 0.551019 0.584085
1.000000 0.562661 0.598184
0.047211 0.810468 0.660349
0.256535 0.803845 0.638361
0.542443 0.796643 0.599207
0.814206 0.805402 0.587427
1.000000 0.821546 0.599329
0.093400 1.000000 0.714519
0.287480 1.000000 0.682094
0.544976 1.000000 0.624109
0.812589 1.000000 0.587915
1.000000 1.000000 0.601907
0.000000 0.052598 0.726070
0.142000 0.046479 0.764797
0.542306 0.022766 0.847440
0.837308 0.034897 0.858000
1.000000 0.056947 0.858000
0.000000 0.295277 0.751156
0.168582 0.292134 0.793347
0.533867 0.271794 0.858000
0.839948 0.269276 0.858000
1.000000 0.283589 0.858000
0.007675 0.582849 0.804349
0.216739 0.578119 0.803815
0.509789 0.565087 0.821683
0.806271 0.543618 0.847349
1.000000 0.546410 0.854139
0.054780 0.816327 0.858000
0.257481 0.811246 0.852369
0.543328 0.805127 0.831907
0.789288 0.800855 0.824643
1.000000 0.801801 0.842374
0.106966 1.000000 0.858000
0.303243 1.000000 0.858000
0.566323 1.000000 0.858000
0.804868 1.000000 0.851667
1.000000 1.000000 0.841825
0.000000 0.060105 0.912825
0.142000 0.056672 0.954482
0.526192 0.042847 1.000000
0.829679 0.048570 1.000000
1.000000 0.066026 1.000000
0.000000 0.310445 0.941695
0.169177 0.306554 0.986053
0.509010 0.291035 1.000000
0.827161 0.281468 1.000000
1.000000 0.291997 1.000000
0.004578 0.593271 0.985687
0.209415 0.587930 0.995010
0.494316 0.574990 1.000000
0.783597 0.554528 1.000000
1.000000 0.549859 1.000000
0.053697 0.825971 1.000000
0.253773 0.821485 1.000000
0.526009 0.818738 1.000000
0.774350 0.812375 1.000000
1.000000 0.799969 1.000000
0.104829 1.000000 1.000000
0.305348 1.000000 1.000000
0.558358 1.000000 1.000000
0.795697 1.000000 1.000000
1.000000 1.000000 1.000000
