luts/Rich_Lowlight_800.CUBE
# kravix mobile - LUTs Pack
LUT_3D_SIZE 9
0.000000 0.000000 0.000000
0.090196 0.003922 0.000000
0.243137 0.003922 0.000000
0.431373 0.000000 0.000000
0.627451 0.000000 0.000000
0.807843 0.000000 0.000000
0.941176 0.000000 0.000000
1.000000 0.000000 0.000000
1.000000 0.117647 0.000000
0.000000 0.078431 0.011765
0.074510 0.094118 0.000000
0.235294 0.113725 0.000000
0.427451 0.094118 0.000000
0.631373 0.011765 0.000000
0.800000 0.000000 0.000000
0.941176 0.035294 0.000000
1.000000 0.109804 0.000000
1.000000 0.207843 0.000000
0.000000 0.192157 0.023529
0.000000 0.196078 0.019608
0.196078 0.231373 0.000000
0.415686 0.254902 0.000000
0.611765 0.247059 0.000000
0.788235 0.250980 0.000000
0.925490 0.262745 0.000000
1.000000 0.286275 0.000000
1.000000 0.337255 0.000000
0.000000 0.329412 0.043137
0.000000 0.345098 0.047059
0.090196 0.349020 0.007843
0.337255 0.388235 0.000000
0.584314 0.427451 0.000000
0.756863 0.427451 0.000000
0.894118 0.431373 0.000000
1.000000 0.443137 0.000000
1.000000 0.466667 0.000000
0.000000 0.454902 0.078431
0.000000 0.466667 0.082353
0.000000 0.454902 0.070588
0.247059 0.486275 0.000000
0.478431 0.525490 0.000000
0.713725 0.576471 0.000000
0.854902 0.576471 0.000000
0.980392 0.592157 0.000000
1.000000 0.592157 0.000000
0.000000 0.564706 0.113725
0.000000 0.572549 0.117647
0.000000 0.564706 0.113725
0.184314 0.576471 0.086275
0.400000 0.607843 0.000000
0.611765 0.650980 0.000000
0.823529 0.709804 0.000000
0.956863 0.713725 0.000000
1.000000 0.717647 0.000000
0.000000 0.705882 0.168627
0.000000 0.690196 0.160784
0.000000 0.690196 0.156863
0.156863 0.682353 0.149020
0.372549 0.709804 0.105882
0.560784 0.741176 0.000000
0.737255 0.772549 0.000000
0.933333 0.819608 0.000000
1.000000 0.827451 0.000000
0.000000 0.827451 0.250980
0.000000 0.827451 0.247059
0.027451 0.823529 0.243137
0.247059 0.823529 0.239216
0.407843 0.827451 0.215686
0.560784 0.850980 0.180392
0.717647 0.870588 0.090196
0.870588 0.890196 0.000000
1.000000 0.921569 0.000000
0.325490 0.964706 0.447059
0.349020 0.964706 0.447059
0.396078 0.964706 0.447059
0.462745 0.964706 0.450980
0.541176 0.964706 0.454902
0.643137 0.972549 0.431373
0.752941 0.984314 0.396078
0.866667 0.992157 0.329412
0.980392 0.996078 0.176471
0.011765 0.003922 0.094118
0.098039 0.000000 0.098039
0.243137 0.000000 0.101961
0.427451 0.000000 0.078431
0.631373 0.000000 0.078431
0.796078 0.000000 0.066667
0.929412 0.000000 0.011765
1.000000 0.000000 0.000000
1.000000 0.101961 0.000000
0.000000 0.090196 0.090196
0.094118 0.094118 0.101961
0.239216 0.101961 0.098039
0.427451 0.066667 0.082353
0.619608 0.000000 0.070588
0.796078 0.000000 0.058824
0.933333 0.000000 0.000000
1.000000 0.117647 0.000000
1.000000 0.192157 0.000000
0.000000 0.211765 0.125490
0.047059 0.219608 0.109804
0.196078 0.239216 0.094118
0.423529 0.250980 0.082353
0.615686 0.243137 0.050980
0.792157 0.247059 0.015686
0.925490 0.262745 0.000000
1.000000 0.286275 0.000000
1.000000 0.325490 0.000000
0.000000 0.349020 0.121569
0.000000 0.349020 0.129412
0.133333 0.352941 0.121569
0.349020 0.400000 0.058824
0.588235 0.423529 0.000000
0.752941 0.423529 0.000000
0.894118 0.431373 0.000000
1.000000 0.454902 0.000000
1.000000 0.466667 0.000000
0.000000 0.474510 0.145098
0.000000 0.466667 0.149020
0.035294 0.466667 0.141176
0.278431 0.490196 0.105882
0.490196 0.529412 0.003922
0.713725 0.572549 0.000000
0.854902 0.576471 0.000000
0.980392 0.588235 0.000000
1.000000 0.596078 0.000000
0.000000 0.572549 0.168627
0.000000 0.576471 0.168627
0.000000 0.572549 0.168627
0.211765 0.576471 0.152941
0.411765 0.611765 0.101961
0.611765 0.658824 0.000000
0.831373 0.705882 0.000000
0.956863 0.713725 0.000000
1.000000 0.717647 0.000000
0.000000 0.694118 0.203922
0.000000 0.698039 0.203922
0.000000 0.694118 0.196078
0.184314 0.686275 0.192157
0.392157 0.717647 0.164706
0.560784 0.737255 0.090196
0.737255 0.776471 0.000000
0.929412 0.819608 0.000000
1.000000 0.827451 0.000000
0.000000 0.827451 0.278431
0.000000 0.831373 0.274510
0.086275 0.827451 0.274510
0.258824 0.823529 0.270588
0.411765 0.827451 0.250980
0.560784 0.847059 0.219608
0.717647 0.870588 0.156863
0.866667 0.890196 0.000000
1.000000 0.921569 0.000000
0.333333 0.968627 0.462745
0.352941 0.964706 0.462745
0.403922 0.964706 0.466667
0.462745 0.964706 0.466667
0.545098 0.964706 0.470588
0.643137 0.972549 0.450980
0.752941 0.984314 0.419608
0.870588 0.992157 0.352941
0.976471 0.996078 0.223529
0.000000 0.003922 0.243137
0.101961 0.000000 0.247059
0.254902 0.000000 0.250980
0.435294 0.000000 0.243137
0.639216 0.000000 0.223529
0.800000 0.000000 0.215686
0.929412 0.000000 0.227451
1.000000 0.000000 0.211765
1.000000 0.137255 0.203922
0.000000 0.101961 0.243137
0.086275 0.098039 0.250980
0.262745 0.086275 0.250980
0.447059 0.015686 0.247059
0.631373 0.000000 0.227451
0.796078 0.000000 0.223529
0.933333 0.058824 0.223529
1.000000 0.137255 0.207843
1.000000 0.211765 0.188235
0.000000 0.227451 0.227451
0.090196 0.231373 0.231373
0.243137 0.250980 0.247059
0.431373 0.247059 0.250980
0.615686 0.247059 0.247059
0.780392 0.247059 0.235294
0.921569 0.270588 0.215686
1.000000 0.294118 0.200000
1.000000 0.349020 0.184314
0.035294 0.368627 0.254902
0.141176 0.384314 0.266667
0.215686 0.380392 0.247059
0.380392 0.396078 0.231373
0.592157 0.419608 0.223529
0.760784 0.419608 0.215686
0.890196 0.431373 0.211765
1.000000 0.447059 0.180392
1.000000 0.470588 0.160784
0.000000 0.486275 0.278431
0.000000 0.494118 0.262745
0.172549 0.482353 0.254902
0.313725 0.490196 0.250980
0.505882 0.529412 0.219608
0.713725 0.568627 0.192157
0.854902 0.572549 0.180392
0.984314 0.584314 0.180392
1.000000 0.592157 0.160784
0.000000 0.592157 0.266667
0.000000 0.596078 0.274510
0.121569 0.588235 0.262745
0.270588 0.580392 0.254902
0.443137 0.615686 0.231373
0.627451 0.654902 0.192157
0.827451 0.705882 0.121569
0.956863 0.709804 0.145098
1.000000 0.717647 0.160784
0.000000 0.709804 0.290196
0.000000 0.709804 0.286275
0.023529 0.701961 0.282353
0.250980 0.698039 0.274510
0.396078 0.705882 0.254902
0.568627 0.737255 0.235294
0.745098 0.772549 0.176471
0.933333 0.819608 0.000000
1.000000 0.835294 0.007843
0.000000 0.835294 0.341176
0.000000 0.835294 0.341176
0.152941 0.835294 0.337255
0.286275 0.827451 0.329412
0.411765 0.827451 0.317647
0.572549 0.850980 0.298039
0.725490 0.870588 0.254902
0.870588 0.890196 0.192157
1.000000 0.921569 0.000000
0.349020 0.968627 0.501961
0.368627 0.964706 0.501961
0.407843 0.964706 0.501961
0.478431 0.964706 0.505882
0.552941 0.964706 0.505882
0.643137 0.968627 0.490196
0.752941 0.980392 0.462745
0.862745 0.988235 0.411765
0.976471 0.996078 0.313725
0.000000 0.003922 0.415686
0.066667 0.000000 0.419608
0.258824 0.000000 0.427451
0.450980 0.000000 0.427451
0.627451 0.000000 0.411765
0.796078 0.000000 0.411765
0.929412 0.000000 0.392157
1.000000 0.000000 0.360784
1.000000 0.000000 0.356863
0.000000 0.101961 0.400000
0.062745 0.101961 0.407843
0.262745 0.094118 0.415686
0.450980 0.058824 0.423529
0.627451 0.000000 0.415686
0.796078 0.000000 0.400000
0.925490 0.000000 0.392157
1.000000 0.000000 0.368627
1.000000 0.215686 0.384314
0.000000 0.227451 0.392157
0.015686 0.243137 0.392157
0.258824 0.247059 0.415686
0.450980 0.247059 0.419608
0.631373 0.219608 0.419608
0.788235 0.203922 0.400000
0.917647 0.207843 0.388235
1.000000 0.298039 0.388235
1.000000 0.337255 0.388235
0.000000 0.384314 0.380392
0.137255 0.396078 0.392157
0.274510 0.400000 0.396078
0.431373 0.407843 0.411765
0.596078 0.419608 0.407843
0.760784 0.419608 0.392157
0.890196 0.431373 0.400000
1.000000 0.450980 0.380392
1.000000 0.482353 0.384314
0.176471 0.525490 0.407843
0.223529 0.521569 0.407843
0.317647 0.517647 0.407843
0.392157 0.517647 0.396078
0.545098 0.541176 0.380392
0.717647 0.564706 0.376471
0.858824 0.572549 0.380392
0.984314 0.596078 0.384314
1.000000 0.596078 0.356863
0.219608 0.619608 0.419608
0.262745 0.627451 0.431373
0.266667 0.619608 0.400000
0.345098 0.615686 0.384314
0.474510 0.619608 0.376471
0.643137 0.658824 0.356863
0.831373 0.701961 0.356863
0.964706 0.709804 0.356863
1.000000 0.713725 0.364706
0.082353 0.729412 0.411765
0.094118 0.729412 0.400000
0.203922 0.725490 0.396078
0.317647 0.713725 0.384314
0.427451 0.709804 0.368627
0.580392 0.741176 0.368627
0.752941 0.776471 0.341176
0.937255 0.819608 0.309804
1.000000 0.823529 0.317647
0.007843 0.843137 0.431373
0.121569 0.843137 0.439216
0.223529 0.843137 0.435294
0.325490 0.839216 0.423529
0.431373 0.831373 0.407843
0.564706 0.843137 0.396078
0.725490 0.866667 0.380392
0.874510 0.890196 0.345098
1.000000 0.925490 0.274510
0.372549 0.968627 0.560784
0.392157 0.972549 0.560784
0.427451 0.968627 0.560784
0.490196 0.968627 0.560784
0.556863 0.964706 0.556863
0.650980 0.972549 0.556863
0.752941 0.980392 0.533333
0.866667 0.992157 0.501961
0.976471 0.996078 0.431373
0.000000 0.000000 0.568627
0.011765 0.000000 0.576471
0.278431 0.000000 0.580392
0.466667 0.000000 0.588235
0.662745 0.000000 0.603922
0.784314 0.000000 0.588235
0.921569 0.000000 0.564706
1.000000 0.000000 0.549020
1.000000 0.000000 0.541176
0.000000 0.109804 0.560784
0.066667 0.105882 0.576471
0.274510 0.094118 0.572549
0.474510 0.074510 0.588235
0.650980 0.000000 0.596078
0.784314 0.000000 0.580392
0.921569 0.000000 0.564706
1.000000 0.000000 0.545098
1.000000 0.031373 0.529412
0.000000 0.235294 0.549020
0.094118 0.258824 0.560784
0.294118 0.254902 0.568627
0.466667 0.250980 0.580392
0.635294 0.243137 0.588235
0.780392 0.211765 0.580392
0.909804 0.203922 0.560784
1.000000 0.223529 0.545098
1.000000 0.258824 0.525490
0.000000 0.384314 0.541176
0.039216 0.396078 0.541176
0.243137 0.400000 0.541176
0.435294 0.403922 0.564706
0.611765 0.411765 0.580392
0.756863 0.400000 0.560784
0.894118 0.411765 0.560784
1.000000 0.411765 0.537255
1.000000 0.466667 0.545098
0.117647 0.521569 0.517647
0.200000 0.533333 0.529412
0.305882 0.537255 0.537255
0.447059 0.549020 0.537255
0.576471 0.552941 0.541176
0.725490 0.560784 0.545098
0.862745 0.572549 0.545098
0.984314 0.584314 0.545098
1.000000 0.607843 0.545098
0.270588 0.647059 0.541176
0.309804 0.654902 0.549020
0.372549 0.650980 0.545098
0.458824 0.650980 0.545098
0.521569 0.635294 0.517647
0.662745 0.666667 0.517647
0.831373 0.698039 0.525490
0.956863 0.705882 0.533333
1.000000 0.721569 0.533333
0.317647 0.749020 0.560784
0.341176 0.749020 0.560784
0.396078 0.749020 0.568627
0.427451 0.741176 0.537255
0.482353 0.733333 0.505882
0.592157 0.745098 0.494118
0.772549 0.780392 0.494118
0.937255 0.815686 0.494118
1.000000 0.819608 0.509804
0.360784 0.850980 0.588235
0.368627 0.854902 0.588235
0.376471 0.854902 0.576471
0.392157 0.850980 0.537255
0.470588 0.843137 0.521569
0.576471 0.839216 0.501961
0.721569 0.866667 0.501961
0.874510 0.890196 0.494118
1.000000 0.925490 0.474510
0.423529 0.972549 0.643137
0.427451 0.972549 0.639216
0.454902 0.968627 0.635294
0.505882 0.972549 0.631373
0.572549 0.972549 0.635294
0.650980 0.968627 0.627451
0.752941 0.976471 0.619608
0.866667 0.992157 0.596078
0.976471 0.996078 0.552941
0.000000 0.000000 0.709804
0.109804 0.000000 0.713725
0.301961 0.000000 0.717647
0.482353 0.000000 0.725490
0.658824 0.000000 0.737255
0.800000 0.000000 0.741176
0.905882 0.000000 0.717647
1.000000 0.000000 0.709804
1.000000 0.000000 0.698039
0.000000 0.109804 0.705882
0.156863 0.117647 0.713725
0.325490 0.098039 0.717647
0.486275 0.066667 0.729412
0.658824 0.054902 0.741176
0.800000 0.000000 0.741176
0.905882 0.000000 0.721569
1.000000 0.000000 0.709804
1.000000 0.007843 0.698039
0.015686 0.247059 0.701961
0.164706 0.254902 0.705882
0.317647 0.254902 0.709804
0.494118 0.266667 0.717647
0.647059 0.258824 0.733333
0.792157 0.258824 0.729412
0.898039 0.231373 0.713725
1.000000 0.243137 0.705882
1.000000 0.282353 0.694118
0.000000 0.384314 0.674510
0.070588 0.392157 0.686275
0.278431 0.396078 0.690196
0.462745 0.411765 0.694118
0.619608 0.415686 0.709804
0.768627 0.435294 0.721569
0.882353 0.415686 0.705882
1.000000 0.411765 0.701961
1.000000 0.435294 0.690196
0.000000 0.525490 0.658824
0.109804 0.533333 0.666667
0.270588 0.533333 0.666667
0.400000 0.529412 0.666667
0.576471 0.545098 0.682353
0.737255 0.568627 0.709804
0.862745 0.564706 0.698039
0.984314 0.572549 0.690196
1.000000 0.576471 0.682353
0.219608 0.654902 0.650980
0.274510 0.662745 0.654902
0.356863 0.662745 0.658824
0.470588 0.674510 0.662745
0.576471 0.670588 0.666667
0.694118 0.682353 0.674510
0.843137 0.694118 0.682353
0.960784 0.709804 0.690196
1.000000 0.721569 0.701961
0.380392 0.772549 0.678431
0.403922 0.772549 0.682353
0.447059 0.772549 0.682353
0.509804 0.768627 0.678431
0.588235 0.764706 0.674510
0.650980 0.760784 0.658824
0.776471 0.784314 0.650980
0.933333 0.811765 0.666667
1.000000 0.819608 0.682353
0.431373 0.866667 0.705882
0.447059 0.866667 0.705882
0.478431 0.866667 0.701961
0.533333 0.866667 0.705882
0.572549 0.862745 0.678431
0.615686 0.850980 0.643137
0.725490 0.862745 0.635294
0.882353 0.894118 0.647059
1.000000 0.921569 0.658824
0.552941 0.972549 0.772549
0.556863 0.972549 0.764706
0.580392 0.972549 0.764706
0.592157 0.972549 0.749020
0.600000 0.972549 0.721569
0.670588 0.972549 0.713725
0.756863 0.976471 0.709804
0.866667 0.988235 0.698039
0.976471 0.996078 0.674510
0.176471 0.000000 0.839216
0.247059 0.000000 0.839216
0.372549 0.000000 0.843137
0.517647 0.000000 0.843137
0.666667 0.000000 0.850980
0.819608 0.000000 0.858824
0.925490 0.000000 0.858824
1.000000 0.000000 0.839216
1.000000 0.000000 0.835294
0.188235 0.117647 0.831373
0.258824 0.121569 0.835294
0.384314 0.105882 0.839216
0.517647 0.086275 0.843137
0.666667 0.090196 0.847059
0.815686 0.117647 0.854902
0.929412 0.086275 0.858824
1.000000 0.050980 0.839216
1.000000 0.098039 0.835294
0.203922 0.254902 0.831373
0.262745 0.258824 0.831373
0.384314 0.266667 0.831373
0.525490 0.270588 0.839216
0.658824 0.278431 0.850980
0.796078 0.282353 0.850980
0.917647 0.298039 0.854902
1.000000 0.270588 0.835294
1.000000 0.270588 0.827451
0.101961 0.388235 0.811765
0.227451 0.400000 0.815686
0.349020 0.403922 0.819608
0.498039 0.415686 0.823529
0.635294 0.427451 0.831373
0.776471 0.439216 0.843137
0.898039 0.454902 0.847059
0.988235 0.439216 0.831373
1.000000 0.443137 0.831373
0.000000 0.517647 0.784314
0.011765 0.525490 0.792157
0.250980 0.525490 0.796078
0.427451 0.533333 0.800000
0.596078 0.549020 0.819608
0.749020 0.572549 0.827451
0.878431 0.580392 0.835294
0.976471 0.572549 0.827451
1.000000 0.580392 0.823529
0.113725 0.666667 0.780392
0.176471 0.658824 0.780392
0.286275 0.658824 0.780392
0.407843 0.658824 0.784314
0.533333 0.658824 0.788235
0.709804 0.682353 0.807843
0.847059 0.705882 0.827451
0.956863 0.705882 0.819608
1.000000 0.713725 0.819608
0.309804 0.772549 0.776471
0.345098 0.776471 0.780392
0.403922 0.780392 0.780392
0.490196 0.780392 0.780392
0.588235 0.780392 0.784314
0.701961 0.792157 0.792157
0.811765 0.800000 0.803922
0.933333 0.815686 0.811765
1.000000 0.827451 0.819608
0.501961 0.886275 0.811765
0.517647 0.886275 0.815686
0.545098 0.886275 0.815686
0.596078 0.886275 0.815686
0.658824 0.886275 0.819608
0.725490 0.882353 0.811765
0.760784 0.866667 0.772549
0.894118 0.898039 0.788235
1.000000 0.913725 0.803922
0.596078 0.976471 0.847059
0.607843 0.976471 0.850980
0.627451 0.976471 0.850980
0.658824 0.976471 0.850980
0.701961 0.976471 0.843137
0.752941 0.980392 0.843137
0.780392 0.976471 0.807843
0.870588 0.988235 0.803922
0.980392 1.000000 0.803922
0.341176 0.035294 0.945098
0.376471 0.023529 0.941176
0.462745 0.011765 0.945098
0.568627 0.000000 0.945098
0.690196 0.000000 0.945098
0.811765 0.023529 0.945098
0.929412 0.125490 0.952941
1.000000 0.129412 0.952941
1.000000 0.109804 0.949020
0.341176 0.149020 0.937255
0.384314 0.145098 0.941176
0.462745 0.137255 0.941176
0.576471 0.133333 0.941176
0.690196 0.137255 0.941176
0.811765 0.168627 0.945098
0.925490 0.215686 0.949020
1.000000 0.215686 0.952941
1.000000 0.207843 0.945098
0.341176 0.274510 0.933333
0.384314 0.278431 0.937255
0.458824 0.278431 0.937255
0.572549 0.278431 0.937255
0.686275 0.298039 0.941176
0.803922 0.313725 0.945098
0.917647 0.337255 0.945098
1.000000 0.341176 0.949020
1.000000 0.345098 0.941176
0.301961 0.407843 0.925490
0.352941 0.415686 0.929412
0.435294 0.411765 0.929412
0.545098 0.419608 0.933333
0.662745 0.427451 0.933333
0.788235 0.447059 0.937255
0.909804 0.486275 0.945098
1.000000 0.490196 0.945098
1.000000 0.474510 0.933333
0.145098 0.525490 0.913725
0.219608 0.529412 0.917647
0.337255 0.529412 0.917647
0.501961 0.545098 0.921569
0.627451 0.552941 0.925490
0.760784 0.572549 0.929412
0.878431 0.596078 0.933333
0.984314 0.607843 0.937255
1.000000 0.596078 0.925490
0.000000 0.666667 0.898039
0.113725 0.658824 0.901961
0.254902 0.662745 0.898039
0.396078 0.654902 0.905882
0.556863 0.658824 0.909804
0.721569 0.682353 0.917647
0.854902 0.705882 0.925490
0.964706 0.725490 0.933333
1.000000 0.721569 0.925490
0.239216 0.784314 0.890196
0.278431 0.784314 0.898039
0.352941 0.784314 0.894118
0.439216 0.780392 0.894118
0.552941 0.788235 0.898039
0.666667 0.776471 0.898039
0.823529 0.800000 0.909804
0.945098 0.827451 0.925490
1.000000 0.827451 0.921569
0.431373 0.890196 0.894118
0.450980 0.890196 0.894118
0.490196 0.890196 0.894118
0.556863 0.890196 0.898039
0.639216 0.890196 0.894118
0.729412 0.894118 0.898039
0.823529 0.898039 0.901961
0.917647 0.909804 0.913725
1.000000 0.921569 0.921569
0.647059 0.980392 0.921569
0.654902 0.980392 0.921569
0.682353 0.980392 0.921569
0.717647 0.980392 0.925490
0.760784 0.984314 0.925490
0.803922 0.984314 0.925490
0.854902 0.984314 0.925490
0.890196 0.984314 0.901961
0.988235 1.000000 0.909804
0.478431 0.172549 1.000000
0.501961 0.172549 1.000000
0.556863 0.168627 1.000000
0.631373 0.172549 1.000000
0.729412 0.184314 1.000000
0.827451 0.207843 1.000000
0.925490 0.243137 1.000000
1.000000 0.301961 1.000000
1.000000 0.298039 1.000000
0.478431 0.227451 1.000000
0.501961 0.227451 1.000000
0.556863 0.231373 1.000000
0.631373 0.231373 1.000000
0.725490 0.247059 1.000000
0.831373 0.266667 1.000000
0.921569 0.290196 1.000000
1.000000 0.341176 1.000000
1.000000 0.345098 1.000000
0.478431 0.341176 1.000000
0.498039 0.333333 1.000000
0.549020 0.333333 1.000000
0.631373 0.345098 1.000000
0.717647 0.345098 1.000000
0.815686 0.360784 1.000000
0.913725 0.384314 1.000000
1.000000 0.439216 1.000000
1.000000 0.423529 1.000000
0.454902 0.450980 1.000000
0.482353 0.454902 1.000000
0.533333 0.458824 1.000000
0.615686 0.466667 1.000000
0.705882 0.470588 1.000000
0.807843 0.490196 1.000000
0.901961 0.501961 1.000000
0.996078 0.537255 1.000000
1.000000 0.537255 1.000000
0.400000 0.568627 1.000000
0.435294 0.572549 1.000000
0.490196 0.572549 1.000000
0.584314 0.576471 1.000000
0.678431 0.588235 1.000000
0.788235 0.596078 1.000000
0.886275 0.611765 1.000000
0.980392 0.639216 1.000000
1.000000 0.650980 1.000000
0.282353 0.674510 1.000000
0.325490 0.674510 1.000000
0.400000 0.674510 1.000000
0.505882 0.670588 1.000000
0.647059 0.690196 1.000000
0.752941 0.705882 1.000000
0.866667 0.717647 1.000000
0.960784 0.741176 1.000000
1.000000 0.749020 1.000000
0.333333 0.803922 0.996078
0.345098 0.796078 1.000000
0.392157 0.796078 0.996078
0.466667 0.788235 0.996078
0.564706 0.784314 1.000000
0.701961 0.796078 1.000000
0.839216 0.807843 1.000000
0.949020 0.835294 1.000000
1.000000 0.847059 1.000000
0.478431 0.905882 0.992157
0.494118 0.905882 0.996078
0.525490 0.905882 0.996078
0.576471 0.905882 0.996078
0.639216 0.898039 0.992157
0.725490 0.898039 0.996078
0.803922 0.894118 0.996078
0.925490 0.917647 0.996078
1.000000 0.933333 1.000000
0.631373 0.988235 0.992157
0.639216 0.984314 0.992157
0.658824 0.988235 0.992157
0.698039 0.988235 0.992157
0.745098 0.988235 0.992157
0.807843 0.988235 0.992157
0.866667 0.988235 0.992157
0.933333 0.996078 0.996078
1.000000 1.000000 1.000000
