luts/Rich_Lowlight_800.CUBE
# kravix mobile - LUTs Pack
LUT_3D_SIZE 17
0.000000 0.000000 0.000000
0.043138 0.000000 0.000000
0.090196 0.003922 0.000000
0.166666 0.007843 0.000000
0.243137 0.003922 0.000000
0.339216 0.000000 0.000000
0.431373 0.000000 0.000000
0.535294 0.000000 0.000000
0.627451 0.000000 0.000000
0.717647 0.000000 0.000000
0.807843 0.000000 0.000000
0.878432 0.000000 0.000000
0.941176 0.000000 0.000000
0.990196 0.000000 0.000000
1.000000 0.000000 0.000000
1.000000 0.023529 0.000000
1.000000 0.117647 0.000000
0.000000 0.035294 0.005882
0.033333 0.039216 0.002941
0.088235 0.050980 0.000000
0.158824 0.053922 0.000000
0.237255 0.052941 0.000000
0.337255 0.035294 0.000000
0.431373 0.011765 0.000000
0.534313 0.000000 0.000000
0.623529 0.000000 0.000000
0.723530 0.000000 0.000000
0.809804 0.000000 0.000000
0.876470 0.000000 0.000000
0.939215 0.000000 0.000000
0.990196 0.000000 0.000000
1.000000 0.021569 0.000000
1.000000 0.085294 0.000000
1.000000 0.158824 0.000000
0.000000 0.078431 0.011765
0.025490 0.082353 0.009804
0.074510 0.094118 0.000000
0.150980 0.103921 0.000000
0.235294 0.113725 0.000000
0.341176 0.103921 0.000000
0.427451 0.094118 0.000000
0.537254 0.066667 0.000000
0.631373 0.011765 0.000000
0.727451 0.000000 0.000000
0.800000 0.000000 0.000000
0.880393 0.000000 0.000000
0.941176 0.035294 0.000000
0.988236 0.062745 0.000000
1.000000 0.109804 0.000000
1.000000 0.154901 0.000000
1.000000 0.207843 0.000000
0.000000 0.139215 0.021569
0.003921 0.140196 0.018627
0.037254 0.149019 0.011764
0.130392 0.162745 0.000981
0.233333 0.186275 0.000000
0.329412 0.180392 0.000000
0.427451 0.170588 0.000000
0.525490 0.164706 0.000000
0.619608 0.156863 0.000000
0.718627 0.150000 0.000000
0.794118 0.149019 0.000000
0.870588 0.155882 0.000000
0.927451 0.174510 0.000000
0.984314 0.183333 0.000000
1.000000 0.215686 0.000000
1.000000 0.241176 0.000000
1.000000 0.272549 0.000000
0.000000 0.192157 0.023529
0.000000 0.200000 0.023529
0.000000 0.196078 0.019608
0.094117 0.217647 0.005882
0.196078 0.231373 0.000000
0.317647 0.252941 0.000000
0.415686 0.254902 0.000000
0.515686 0.260784 0.000000
0.611765 0.247059 0.000000
0.715687 0.254902 0.000000
0.788235 0.250980 0.000000
0.858824 0.258823 0.000000
0.925490 0.262745 0.000000
0.976471 0.272549 0.000000
1.000000 0.286275 0.000000
1.000000 0.305882 0.000000
1.000000 0.337255 0.000000
0.000000 0.266667 0.033334
0.000000 0.264706 0.034314
0.000000 0.266667 0.033334
0.035294 0.274510 0.019608
0.145098 0.300000 0.000000
0.272549 0.316667 0.000000
0.398039 0.341176 0.000000
0.510784 0.353921 0.000000
0.601961 0.350981 0.000000
0.693137 0.339216 0.000000
0.768628 0.345098 0.000000
0.844118 0.349020 0.000000
0.907843 0.354902 0.000000
0.970588 0.366667 0.000000
1.000000 0.374510 0.000000
1.000000 0.385294 0.000000
1.000000 0.407844 0.000000
0.000000 0.329412 0.043137
0.000000 0.341176 0.047059
0.000000 0.345098 0.047059
0.000000 0.339216 0.037255
0.090196 0.349020 0.007843
0.215687 0.368627 0.000000
0.337255 0.388235 0.000000
0.480392 0.415687 0.000000
0.584314 0.427451 0.000000
0.682353 0.431373 0.000000
0.756863 0.427451 0.000000
0.829412 0.425490 0.000000
0.894118 0.431373 0.000000
0.958824 0.441176 0.000000
1.000000 0.443137 0.000000
1.000000 0.458824 0.000000
1.000000 0.466667 0.000000
0.000000 0.400000 0.060784
0.000000 0.400980 0.060785
0.000000 0.398039 0.060785
0.000000 0.400980 0.058824
0.011765 0.403921 0.039216
0.179412 0.423530 0.006863
0.290196 0.445098 0.000000
0.418627 0.464706 0.000000
0.541176 0.492157 0.000000
0.651961 0.505882 0.000000
0.735294 0.513726 0.000000
0.808824 0.506862 0.000000
0.876471 0.513726 0.000000
0.939216 0.516667 0.000000
0.996078 0.515687 0.000000
1.000000 0.528431 0.000000
1.000000 0.539215 0.000000
0.000000 0.454902 0.078431
0.000000 0.460785 0.080392
0.000000 0.466667 0.082353
0.000000 0.454902 0.076470
0.000000 0.454902 0.070588
0.133333 0.470588 0.039216
0.247059 0.486275 0.000000
0.364706 0.507843 0.000000
0.478431 0.525490 0.000000
0.615687 0.556863 0.000000
0.713725 0.576471 0.000000
0.790196 0.576471 0.000000
0.854902 0.576471 0.000000
0.927451 0.586275 0.000000
0.980392 0.592157 0.000000
1.000000 0.586275 0.000000
1.000000 0.592157 0.000000
0.000000 0.509804 0.098039
0.000000 0.514706 0.099019
0.000000 0.519608 0.100000
0.000000 0.513725 0.098039
0.000000 0.503922 0.094118
0.072549 0.515686 0.078432
0.207843 0.531373 0.047059
0.335294 0.551961 0.005882
0.437255 0.572549 0.000000
0.555882 0.593137 0.000000
0.664706 0.621569 0.000000
0.768628 0.641177 0.000000
0.839216 0.643137 0.000000
0.909804 0.650980 0.000000
0.968627 0.649019 0.000000
1.000000 0.654902 0.000000
1.000000 0.660784 0.000000
0.000000 0.564706 0.113725
0.000000 0.576470 0.121569
0.000000 0.572549 0.117647
0.000000 0.570588 0.117647
0.000000 0.564706 0.113725
0.052941 0.566666 0.109803
0.184314 0.576471 0.086275
0.305882 0.596078 0.031372
0.400000 0.607843 0.000000
0.513726 0.631373 0.000000
0.611765 0.650980 0.000000
0.723529 0.676471 0.000000
0.823529 0.709804 0.000000
0.894118 0.713725 0.000000
0.956863 0.713725 0.000000
0.998039 0.715686 0.000000
1.000000 0.717647 0.000000
0.000000 0.635294 0.141176
0.000000 0.638235 0.141177
0.000000 0.631373 0.139215
0.000000 0.632353 0.137255
0.000000 0.629412 0.133333
0.031372 0.624510 0.131373
0.164706 0.629412 0.119608
0.285294 0.646079 0.090196
0.386274 0.658824 0.031372
0.484314 0.674510 0.002941
0.578431 0.696078 0.000000
0.682353 0.716667 0.000000
0.770588 0.735294 0.000000
0.877451 0.760784 0.000000
0.943137 0.768628 0.000000
0.993137 0.775490 0.000000
1.000000 0.776471 0.000000
0.000000 0.705882 0.168627
0.000000 0.694118 0.164706
0.000000 0.690196 0.160784
0.000000 0.690196 0.160784
0.000000 0.690196 0.156863
0.039216 0.686275 0.154902
0.156863 0.682353 0.149020
0.278431 0.694117 0.127451
0.372549 0.709804 0.105882
0.466666 0.723529 0.049020
0.560784 0.741176 0.000000
0.652941 0.760784 0.000000
0.737255 0.772549 0.000000
0.833333 0.788235 0.000000
0.933333 0.819608 0.000000
0.988236 0.825490 0.000000
1.000000 0.827451 0.000000
0.000000 0.768628 0.203922
0.000000 0.760784 0.199020
0.000000 0.758823 0.198040
0.000000 0.759804 0.197059
0.000000 0.758823 0.194118
0.067647 0.750981 0.189216
0.196078 0.752941 0.190196
0.290196 0.753921 0.173529
0.378432 0.768628 0.160784
0.473529 0.785294 0.135294
0.554902 0.798040 0.094117
0.638235 0.807843 0.032353
0.721569 0.823530 0.000000
0.803921 0.832353 0.000000
0.884314 0.845098 0.000000
0.973530 0.869608 0.000000
1.000000 0.882353 0.000000
0.000000 0.827451 0.250980
0.000000 0.827451 0.249020
0.000000 0.827451 0.247059
0.000000 0.827451 0.247059
0.027451 0.823529 0.243137
0.158824 0.823529 0.243137
0.247059 0.823529 0.239216
0.325491 0.821568 0.233333
0.407843 0.827451 0.215686
0.480392 0.837255 0.203922
0.560784 0.850980 0.180392
0.643138 0.858823 0.141176
0.717647 0.870588 0.090196
0.794118 0.880392 0.001961
0.870588 0.890196 0.000000
0.941176 0.901960 0.000000
1.000000 0.921569 0.000000
0.080392 0.896079 0.327451
0.098039 0.899020 0.331373
0.101961 0.898039 0.327451
0.157843 0.900000 0.331373
0.247059 0.903922 0.339216
0.286275 0.896079 0.326471
0.333334 0.892157 0.321569
0.397059 0.895098 0.323530
0.460785 0.898039 0.321568
0.531373 0.908824 0.312745
0.594118 0.919608 0.303922
0.661765 0.920588 0.268628
0.727451 0.925490 0.233334
0.797059 0.938235 0.201960
0.860785 0.937255 0.096078
0.932353 0.947059 0.029412
0.992156 0.949019 0.000000
0.325490 0.964706 0.447059
0.337255 0.966666 0.449020
0.349020 0.964706 0.447059
0.366667 0.964706 0.447059
0.396078 0.964706 0.447059
0.423530 0.964706 0.450980
0.462745 0.964706 0.450980
0.501961 0.964706 0.450980
0.541176 0.964706 0.454902
0.594117 0.970588 0.443137
0.643137 0.972549 0.431373
0.701961 0.978432 0.413725
0.752941 0.984314 0.396078
0.809804 0.984314 0.362745
0.866667 0.992157 0.329412
0.921569 0.994117 0.270589
0.980392 0.996078 0.176471
0.001961 0.001961 0.037255
0.046079 0.000981 0.041176
0.094117 0.000000 0.041176
0.164706 0.000000 0.040196
0.247059 0.000000 0.035294
0.332353 0.000000 0.029412
0.437255 0.000000 0.025490
0.529412 0.000000 0.022549
0.621568 0.000000 0.015686
0.719608 0.000000 0.006863
0.800000 0.000000 0.000000
0.875490 0.000000 0.000000
0.933333 0.000000 0.000000
0.987255 0.000000 0.000000
1.000000 0.000000 0.000000
1.000000 0.014706 0.000000
1.000000 0.101961 0.000000
0.001961 0.039216 0.043137
0.038725 0.042157 0.042157
0.089216 0.045098 0.040196
0.163235 0.044608 0.040196
0.244118 0.042157 0.034314
0.336274 0.026961 0.033823
0.426471 0.009804 0.024510
0.532353 0.000000 0.018627
0.620588 0.000000 0.012745
0.718137 0.000000 0.002451
0.799019 0.000000 0.000000
0.871569 0.000000 0.000000
0.935294 0.000000 0.000000
0.986274 0.000000 0.000000
1.000000 0.014706 0.000000
1.000000 0.069118 0.000000
1.000000 0.144118 0.000000
0.001961 0.084314 0.049019
0.028431 0.090196 0.050000
0.076470 0.096078 0.039216
0.155882 0.100980 0.035294
0.235294 0.101961 0.035294
0.335294 0.097059 0.023529
0.431373 0.074510 0.015686
0.533333 0.047059 0.016667
0.623530 0.013725 0.007843
0.720588 0.000000 0.001961
0.800000 0.000000 0.000000
0.872549 0.000000 0.000000
0.931372 0.005882 0.000000
0.987255 0.055883 0.000000
1.000000 0.111765 0.000000
1.000000 0.151960 0.000000
1.000000 0.192157 0.000000
0.001961 0.142157 0.058824
0.009804 0.147059 0.056372
0.054902 0.149019 0.052941
0.138235 0.162745 0.035784
0.233333 0.177451 0.023530
0.331372 0.171569 0.021079
0.421569 0.168627 0.017647
0.525000 0.163235 0.009804
0.628432 0.151961 0.001961
0.711274 0.144608 0.000000
0.796078 0.146078 0.000000
0.864706 0.153921 0.000000
0.926471 0.169608 0.000000
0.983823 0.185294 0.000000
1.000000 0.201961 0.000000
1.000000 0.232353 0.000000
1.000000 0.262745 0.000000
0.000000 0.201961 0.064705
0.000000 0.205882 0.066666
0.015686 0.207843 0.066666
0.100000 0.215686 0.050000
0.198039 0.235295 0.023530
0.321569 0.257843 0.005882
0.417647 0.256862 0.005882
0.524510 0.252941 0.001961
0.617647 0.245098 0.000000
0.706862 0.249020 0.000000
0.784314 0.247059 0.000000
0.854902 0.251960 0.000000
0.919608 0.258824 0.000000
0.978432 0.276471 0.000000
1.000000 0.290196 0.000000
1.000000 0.305882 0.000000
1.000000 0.321569 0.000000
0.000000 0.269608 0.073529
0.000000 0.277451 0.073039
0.000000 0.274509 0.072549
0.048039 0.280882 0.065196
0.151961 0.296078 0.039216
0.274510 0.320098 0.012255
0.400980 0.339216 0.000000
0.514706 0.346569 0.000000
0.602941 0.338235 0.000000
0.692157 0.340686 0.000000
0.770588 0.343137 0.000000
0.843137 0.351471 0.000000
0.905882 0.350000 0.000000
0.968627 0.359314 0.000000
1.000000 0.373530 0.000000
1.000000 0.384314 0.000000
1.000000 0.402941 0.000000
0.000000 0.341176 0.082353
0.000000 0.345098 0.083333
0.000000 0.343137 0.082353
0.013725 0.339215 0.077451
0.119608 0.356863 0.060784
0.227451 0.371569 0.027451
0.347058 0.394118 0.000000
0.487255 0.416667 0.000000
0.590196 0.425490 0.000000
0.677451 0.429412 0.000000
0.754902 0.427451 0.000000
0.829412 0.425490 0.000000
0.890196 0.427451 0.000000
0.955882 0.439216 0.000000
1.000000 0.445098 0.000000
1.000000 0.453922 0.000000
1.000000 0.464706 0.000000
0.000000 0.402941 0.093137
0.000000 0.409804 0.096569
0.000000 0.409804 0.095098
0.000000 0.402451 0.092157
0.050980 0.407843 0.081373
0.186275 0.424510 0.051471
0.305882 0.443138 0.008823
0.420098 0.462745 0.000000
0.547059 0.491177 0.000000
0.652941 0.506372 0.000000
0.737255 0.504902 0.000000
0.805882 0.507353 0.000000
0.874510 0.511764 0.000000
0.938235 0.510294 0.000000
0.997059 0.516667 0.000000
1.000000 0.523039 0.000000
1.000000 0.536274 0.000000
0.000000 0.456863 0.107843
0.000000 0.465687 0.110784
0.000000 0.460785 0.109804
0.000000 0.459804 0.105882
0.000000 0.452941 0.101961
0.144118 0.469608 0.083333
0.260784 0.486275 0.043138
0.372549 0.505882 0.002941
0.482353 0.525490 0.000000
0.615686 0.558823 0.000000
0.711765 0.578431 0.000000
0.795098 0.578432 0.000000
0.856863 0.576471 0.000000
0.924510 0.578431 0.000000
0.980392 0.580392 0.000000
1.000000 0.587255 0.000000
1.000000 0.594118 0.000000
0.000000 0.512745 0.121568
0.000000 0.520588 0.125490
0.000000 0.518628 0.125490
0.000000 0.515686 0.122549
0.000000 0.512745 0.120588
0.096078 0.516177 0.108824
0.226470 0.535294 0.084314
0.334314 0.554412 0.041176
0.436275 0.572549 0.001961
0.554412 0.594608 0.000000
0.670588 0.620588 0.000000
0.765196 0.642157 0.000000
0.839216 0.647059 0.000000
0.909314 0.651961 0.000000
0.967647 0.650980 0.000000
1.000000 0.655392 0.000000
1.000000 0.658824 0.000000
0.000000 0.570588 0.139216
0.000000 0.576471 0.141177
0.000000 0.574510 0.139216
0.000000 0.572549 0.138236
0.000000 0.572549 0.137255
0.057843 0.564706 0.128431
0.194117 0.576471 0.111765
0.308823 0.595098 0.078432
0.407843 0.611765 0.021569
0.508823 0.630392 0.000000
0.611765 0.654902 0.000000
0.731373 0.679412 0.000000
0.827451 0.705882 0.000000
0.893137 0.712745 0.000000
0.954902 0.715686 0.000000
0.996078 0.714705 0.000000
1.000000 0.717647 0.000000
0.000000 0.638235 0.157843
0.000000 0.637745 0.160294
0.000000 0.638235 0.159804
0.000000 0.632353 0.157353
0.000000 0.628431 0.151961
0.048530 0.626471 0.150000
0.185294 0.631373 0.139215
0.294118 0.646569 0.116177
0.386274 0.660784 0.083333
0.488726 0.678432 0.025000
0.579411 0.695098 0.000000
0.683333 0.714216 0.000000
0.776471 0.738235 0.000000
0.874510 0.763235 0.000000
0.941176 0.772549 0.000000
0.992157 0.772549 0.000000
1.000000 0.772549 0.000000
0.000000 0.700000 0.182353
0.000000 0.698039 0.182353
0.000000 0.694118 0.178432
0.000000 0.692157 0.178432
0.000000 0.696079 0.178432
0.039216 0.687255 0.172549
0.170588 0.686275 0.168627
0.284314 0.697059 0.150981
0.374510 0.707843 0.127451
0.471569 0.724510 0.084314
0.562745 0.739216 0.021569
0.658824 0.756863 0.000000
0.741176 0.772549 0.000000
0.837255 0.791176 0.000000
0.929412 0.819608 0.000000
0.987255 0.823529 0.000000
1.000000 0.827451 0.000000
0.000000 0.763726 0.215686
0.000000 0.764216 0.215686
0.000000 0.764706 0.216667
0.000000 0.760784 0.211765
0.000000 0.757843 0.208823
0.089706 0.758333 0.208333
0.203922 0.757843 0.204902
0.297059 0.754902 0.190686
0.386274 0.769608 0.178432
0.472549 0.780882 0.151471
0.554902 0.791176 0.114706
0.643627 0.808333 0.056863
0.723529 0.821569 0.013725
0.807353 0.835784 0.000000
0.888235 0.850000 0.000000
0.972059 0.870588 0.000000
1.000000 0.881373 0.000000
0.000000 0.827451 0.258823
0.000000 0.829412 0.261765
0.000000 0.829412 0.260784
0.000000 0.830392 0.261765
0.035294 0.827451 0.258823
0.174510 0.823529 0.252941
0.252941 0.823529 0.250980
0.330392 0.822549 0.245098
0.401961 0.827451 0.237255
0.490196 0.839216 0.215686
0.558823 0.847059 0.196078
0.639216 0.858823 0.163726
0.713725 0.868627 0.117647
0.795098 0.881373 0.028431
0.868627 0.890196 0.000000
0.944118 0.899020 0.000000
1.000000 0.921569 0.000000
0.091176 0.899020 0.338235
0.096569 0.900981 0.341666
0.105883 0.897059 0.335294
0.165686 0.898039 0.337745
0.252941 0.906863 0.349020
0.286765 0.896569 0.334804
0.339216 0.893137 0.330392
0.400980 0.896079 0.333333
0.461765 0.901961 0.335294
0.523039 0.901471 0.310784
0.591176 0.910784 0.298039
0.660294 0.920098 0.280392
0.726471 0.927451 0.255882
0.797549 0.934314 0.206373
0.860785 0.943137 0.155883
0.928431 0.946078 0.060294
0.992157 0.952941 0.000000
0.329412 0.966666 0.452941
0.340196 0.966666 0.454902
0.350981 0.966666 0.454902
0.373529 0.967647 0.456863
0.398039 0.968627 0.456863
0.430392 0.964706 0.456863
0.460785 0.964706 0.456863
0.506863 0.964706 0.457843
0.545098 0.964706 0.460785
0.596078 0.968627 0.450000
0.643137 0.972549 0.441176
0.698039 0.977451 0.423529
0.750981 0.982353 0.403922
0.810784 0.986274 0.375490
0.862745 0.988235 0.337255
0.923530 0.994117 0.281373
0.980392 0.998039 0.196078
0.011765 0.003922 0.094118
0.049019 0.000000 0.098040
0.098039 0.000000 0.098039
0.168627 0.000000 0.100000
0.243137 0.000000 0.101961
0.339216 0.000000 0.086275
0.427451 0.000000 0.078431
0.529412 0.000000 0.084314
0.631373 0.000000 0.078431
0.717647 0.000000 0.068628
0.796078 0.000000 0.066667
0.868627 0.000000 0.045098
0.929412 0.000000 0.011765
0.988236 0.000000 0.001961
1.000000 0.000000 0.000000
1.000000 0.011765 0.000000
1.000000 0.101961 0.000000
0.000000 0.043137 0.092157
0.040196 0.043137 0.098039
0.092157 0.041176 0.098040
0.167647 0.035294 0.098040
0.245098 0.019608 0.092157
0.342157 0.016667 0.091176
0.427451 0.000000 0.086275
0.529412 0.000000 0.089216
0.619608 0.000000 0.078432
0.720588 0.000000 0.067647
0.798039 0.000000 0.056862
0.869608 0.000000 0.039216
0.933333 0.000000 0.009804
0.988236 0.000000 0.000000
1.000000 0.017647 0.000000
1.000000 0.077451 0.000000
1.000000 0.147059 0.000000
0.000000 0.090196 0.090196
0.041177 0.098040 0.098040
0.094118 0.094118 0.101961
0.160784 0.096078 0.098040
0.239216 0.101961 0.098039
0.329411 0.090196 0.088235
0.427451 0.066667 0.082353
0.527451 0.043137 0.088235
0.619608 0.000000 0.070588
0.717647 0.000000 0.064706
0.796078 0.000000 0.058824
0.868627 0.000000 0.021568
0.933333 0.000000 0.000000
0.988236 0.076471 0.000000
1.000000 0.117647 0.000000
1.000000 0.154902 0.000000
1.000000 0.192157 0.000000
0.003921 0.149019 0.107843
0.038235 0.154902 0.106862
0.074510 0.158824 0.105882
0.146079 0.162745 0.097059
0.235294 0.172549 0.090196
0.336274 0.171569 0.087255
0.429412 0.164706 0.084313
0.528431 0.154902 0.078431
0.623529 0.156863 0.068628
0.716667 0.144118 0.050000
0.796079 0.143138 0.033333
0.865687 0.150000 0.008823
0.925490 0.170588 0.000000
0.982353 0.183333 0.000000
1.000000 0.209804 0.000000
1.000000 0.235294 0.000000
1.000000 0.260784 0.000000
0.000000 0.211765 0.125490
0.000000 0.217647 0.109804
0.047059 0.219608 0.109804
0.119608 0.217647 0.103921
0.196078 0.239216 0.094118
0.331372 0.254902 0.076470
0.423529 0.250980 0.082353
0.525490 0.250980 0.068628
0.615686 0.243137 0.050980
0.709804 0.247059 0.029412
0.792157 0.247059 0.015686
0.854902 0.250980 0.000000
0.925490 0.262745 0.000000
0.980392 0.284313 0.000000
1.000000 0.286275 0.000000
1.000000 0.305882 0.000000
1.000000 0.325490 0.000000
0.000000 0.288235 0.125491
0.000000 0.286274 0.122549
0.000000 0.290196 0.119608
0.075490 0.289216 0.114706
0.170588 0.303922 0.103921
0.291176 0.324510 0.076471
0.401961 0.337255 0.041176
0.514706 0.346079 0.025490
0.609804 0.343137 0.025490
0.687255 0.339216 0.015686
0.766667 0.343137 0.001961
0.842157 0.351961 0.000000
0.903922 0.356863 0.000000
0.968627 0.364706 0.000000
1.000000 0.378432 0.000000
1.000000 0.385294 0.000000
1.000000 0.401961 0.000000
0.000000 0.349020 0.121569
0.000000 0.356863 0.127451
0.000000 0.349020 0.129412
0.033334 0.350981 0.127451
0.133333 0.352941 0.121569
0.245098 0.374510 0.096078
0.349020 0.400000 0.058824
0.484314 0.417647 0.001961
0.588235 0.423529 0.000000
0.672549 0.423529 0.000000
0.752941 0.423529 0.000000
0.829412 0.425490 0.000000
0.894118 0.431373 0.000000
0.960784 0.443137 0.000000
1.000000 0.454902 0.000000
1.000000 0.452941 0.000000
1.000000 0.466667 0.000000
0.000000 0.403921 0.135294
0.000000 0.414706 0.138235
0.000000 0.411765 0.139215
0.003921 0.407843 0.133333
0.090196 0.403921 0.131373
0.201961 0.425490 0.112745
0.301961 0.445099 0.092157
0.425490 0.464706 0.028432
0.547059 0.490196 0.000000
0.658824 0.508823 0.000000
0.735294 0.500000 0.000000
0.807843 0.509804 0.000000
0.874510 0.503922 0.000000
0.940196 0.513726 0.000000
0.996078 0.519608 0.000000
1.000000 0.525490 0.000000
1.000000 0.537255 0.000000
0.000000 0.474510 0.145098
0.000000 0.472549 0.152941
0.000000 0.466667 0.149020
0.000000 0.466667 0.145098
0.035294 0.466667 0.141176
0.158824 0.470588 0.127451
0.278431 0.490196 0.105882
0.386274 0.509804 0.058824
0.490196 0.529412 0.003922
0.615687 0.556863 0.000000
0.713725 0.572549 0.000000
0.790196 0.574510 0.000000
0.854902 0.576471 0.000000
0.921569 0.578431 0.000000
0.980392 0.588235 0.000000
1.000000 0.590196 0.000000
1.000000 0.596078 0.000000
0.000000 0.527451 0.160784
0.000000 0.528431 0.160784
0.000000 0.525490 0.158824
0.000000 0.521568 0.157843
0.000000 0.517647 0.152942
0.127451 0.517647 0.146079
0.245098 0.533333 0.127451
0.342157 0.553922 0.102941
0.445099 0.572549 0.058824
0.548039 0.595098 0.004902
0.670588 0.623529 0.000000
0.769608 0.641177 0.000000
0.841176 0.645098 0.000000
0.907843 0.651961 0.000000
0.968627 0.652941 0.000000
1.000000 0.651961 0.000000
1.000000 0.654902 0.000000
0.000000 0.572549 0.168627
0.000000 0.580392 0.170588
0.000000 0.576471 0.168627
0.000000 0.578431 0.170588
0.000000 0.572549 0.168627
0.094117 0.568627 0.164706
0.211765 0.576471 0.152941
0.317647 0.594117 0.129412
0.411765 0.611765 0.101961
0.521569 0.633333 0.035294
0.611765 0.658824 0.000000
0.731372 0.680392 0.000000
0.831373 0.705882 0.000000
0.896079 0.707843 0.000000
0.956863 0.713725 0.000000
0.996078 0.717647 0.000000
1.000000 0.717647 0.000000
0.000000 0.635294 0.182353
0.000000 0.644118 0.188235
0.000000 0.641177 0.188235
0.000000 0.639216 0.183333
0.000000 0.635294 0.182353
0.062745 0.631373 0.177451
0.196078 0.629412 0.168627
0.300000 0.646079 0.154902
0.392157 0.666667 0.135295
0.490196 0.679412 0.088235
0.582353 0.696078 0.031372
0.685294 0.716666 0.000000
0.776471 0.739216 0.000000
0.873529 0.763725 0.000000
0.945098 0.774509 0.000000
0.991177 0.778431 0.000000
1.000000 0.776471 0.000000
0.000000 0.694118 0.203922
0.000000 0.698039 0.203922
0.000000 0.698039 0.203922
0.000000 0.698039 0.205882
0.000000 0.694118 0.196078
0.066667 0.696079 0.200000
0.184314 0.686275 0.192157
0.288235 0.698039 0.182353
0.392157 0.717647 0.164706
0.476471 0.725491 0.133333
0.560784 0.737255 0.090196
0.656863 0.756863 0.019608
0.737255 0.776471 0.000000
0.835294 0.790196 0.000000
0.929412 0.819608 0.000000
0.988236 0.825490 0.000000
1.000000 0.827451 0.000000
0.000000 0.768627 0.239216
0.000000 0.769607 0.240196
0.000000 0.762745 0.237255
0.000000 0.767647 0.236274
0.000000 0.760784 0.231373
0.097059 0.757843 0.227451
0.211765 0.754902 0.221569
0.297059 0.754902 0.213726
0.382353 0.764706 0.201960
0.475490 0.780392 0.180392
0.562745 0.798040 0.158824
0.644118 0.809804 0.112745
0.725490 0.817648 0.039216
0.804902 0.834313 0.006863
0.886274 0.845098 0.000000
0.971569 0.870588 0.000000
1.000000 0.882353 0.000000
0.000000 0.827451 0.278431
0.000000 0.831373 0.280392
0.000000 0.831373 0.274510
0.000000 0.827451 0.274510
0.086275 0.827451 0.274510
0.184314 0.827451 0.270588
0.258824 0.823529 0.270588
0.331372 0.821568 0.260784
0.411765 0.827451 0.250980
0.484313 0.837255 0.237255
0.560784 0.847059 0.219608
0.641177 0.858823 0.192157
0.717647 0.870588 0.156863
0.794118 0.880392 0.086275
0.866667 0.890196 0.000000
0.947059 0.901960 0.000000
1.000000 0.921569 0.000000
0.101961 0.900000 0.352941
0.122549 0.906863 0.361765
0.119608 0.901961 0.354902
0.178431 0.899020 0.349020
0.252941 0.901961 0.354902
0.288235 0.895098 0.344118
0.347058 0.898039 0.350981
0.401961 0.896079 0.345098
0.456863 0.898039 0.343137
0.520588 0.901961 0.326471
0.588235 0.907844 0.309804
0.660784 0.920588 0.300000
0.733333 0.929412 0.278431
0.798039 0.938235 0.243137
0.860785 0.941177 0.190196
0.930392 0.949019 0.091177
0.992157 0.954902 0.013725
0.333333 0.968627 0.462745
0.343137 0.966666 0.466667
0.352941 0.964706 0.462745
0.374510 0.964706 0.466667
0.403922 0.964706 0.466667
0.431372 0.966666 0.466667
0.462745 0.964706 0.466667
0.505883 0.964706 0.468627
0.545098 0.964706 0.470588
0.592157 0.966666 0.458823
0.643137 0.972549 0.450980
0.700000 0.978432 0.433334
0.752941 0.984314 0.419608
0.809804 0.984314 0.388236
0.870588 0.992157 0.352941
0.923529 0.996078 0.305883
0.976471 0.996078 0.223529
0.007843 0.003922 0.172549
0.054902 0.000981 0.172549
0.101961 0.000000 0.174510
0.175490 0.000000 0.173529
0.252941 0.000000 0.168627
0.341176 0.000000 0.166666
0.443137 0.000000 0.162745
0.532353 0.000000 0.151961
0.621568 0.000000 0.147059
0.718627 0.000000 0.149019
0.798039 0.000000 0.149019
0.866667 0.000000 0.146078
0.931372 0.000000 0.135294
0.985294 0.000000 0.121569
1.000000 0.000000 0.117647
1.000000 0.026471 0.086274
1.000000 0.115686 0.056863
0.000981 0.044117 0.170588
0.037745 0.045588 0.170588
0.102941 0.045098 0.173529
