luts/Rich_Lowlight_800.CUBE
# kravix mobile - LUTs Pack
LUT_3D_SIZE 5
0.000000 0.000000 0.000000
0.243137 0.003922 0.000000
0.627451 0.000000 0.000000
0.941176 0.000000 0.000000
1.000000 0.117647 0.000000
0.000000 0.192157 0.023529
0.196078 0.231373 0.000000
0.611765 0.247059 0.000000
0.925490 0.262745 0.000000
1.000000 0.337255 0.000000
0.000000 0.454902 0.078431
0.000000 0.454902 0.070588
0.478431 0.525490 0.000000
0.854902 0.576471 0.000000
1.000000 0.592157 0.000000
0.000000 0.705882 0.168627
0.000000 0.690196 0.156863
0.372549 0.709804 0.105882
0.737255 0.772549 0.000000
1.000000 0.827451 0.000000
0.325490 0.964706 0.447059
0.396078 0.964706 0.447059
0.541176 0.964706 0.454902
0.752941 0.984314 0.396078
0.980392 0.996078 0.176471
0.000000 0.003922 0.243137
0.254902 0.000000 0.250980
0.639216 0.000000 0.223529
0.929412 0.000000 0.227451
1.000000 0.137255 0.203922
0.000000 0.227451 0.227451
0.243137 0.250980 0.247059
0.615686 0.247059 0.247059
0.921569 0.270588 0.215686
1.000000 0.349020 0.184314
0.000000 0.486275 0.278431
0.172549 0.482353 0.254902
0.505882 0.529412 0.219608
0.854902 0.572549 0.180392
1.000000 0.592157 0.160784
0.000000 0.709804 0.290196
0.023529 0.701961 0.282353
0.396078 0.705882 0.254902
0.745098 0.772549 0.176471
1.000000 0.835294 0.007843
0.349020 0.968627 0.501961
0.407843 0.964706 0.501961
0.552941 0.964706 0.505882
0.752941 0.980392 0.462745
0.976471 0.996078 0.313725
0.000000 0.000000 0.568627
0.278431 0.000000 0.580392
0.662745 0.000000 0.603922
0.921569 0.000000 0.564706
1.000000 0.000000 0.541176
0.000000 0.235294 0.549020
0.294118 0.254902 0.568627
0.635294 0.243137 0.588235
0.909804 0.203922 0.560784
1.000000 0.258824 0.525490
0.117647 0.521569 0.517647
0.305882 0.537255 0.537255
0.576471 0.552941 0.541176
0.862745 0.572549 0.545098
1.000000 0.607843 0.545098
0.317647 0.749020 0.560784
0.396078 0.749020 0.568627
0.482353 0.733333 0.505882
0.772549 0.780392 0.494118
1.000000 0.819608 0.509804
0.423529 0.972549 0.643137
0.454902 0.968627 0.635294
0.572549 0.972549 0.635294
0.752941 0.976471 0.619608
0.976471 0.996078 0.552941
0.176471 0.000000 0.839216
0.372549 0.000000 0.843137
0.666667 0.000000 0.850980
0.925490 0.000000 0.858824
1.000000 0.000000 0.835294
0.203922 0.254902 0.831373
0.384314 0.266667 0.831373
0.658824 0.278431 0.850980
0.917647 0.298039 0.854902
1.000000 0.270588 0.827451
0.000000 0.517647 0.784314
0.250980 0.525490 0.796078
0.596078 0.549020 0.819608
0.878431 0.580392 0.835294
1.000000 0.580392 0.823529
0.309804 0.772549 0.776471
0.403922 0.780392 0.780392
0.588235 0.780392 0.784314
0.811765 0.800000 0.803922
1.000000 0.827451 0.819608
0.596078 0.976471 0.847059
0.627451 0.976471 0.850980
0.701961 0.976471 0.843137
0.780392 0.976471 0.807843
0.980392 1.000000 0.803922
0.478431 0.172549 1.000000
0.556863 0.168627 1.000000
0.729412 0.184314 1.000000
0.925490 0.243137 1.000000
1.000000 0.298039 1.000000
0.478431 0.341176 1.000000
0.549020 0.333333 1.000000
0.717647 0.345098 1.000000
0.913725 0.384314 1.000000
1.000000 0.423529 1.000000
0.400000 0.568627 1.000000
0.490196 0.572549 1.000000
0.678431 0.588235 1.000000
0.886275 0.611765 1.000000
1.000000 0.650980 1.000000
0.333333 0.803922 0.996078
0.392157 0.796078 0.996078
0.564706 0.784314 1.000000
0.839216 0.807843 1.000000
1.000000 0.847059 1.000000
0.631373 0.988235 0.992157
0.658824 0.988235 0.992157
0.745098 0.988235 0.992157
0.866667 0.988235 0.992157
1.000000 1.000000 1.000000
