luts/Silver_Nitrate_BW.CUBE
# kravix mobile - LUTs Pack
LUT_3D_SIZE 17
0.000000 0.000000 0.000000
0.007355 0.007355 0.007355
0.015594 0.015594 0.015594
0.026337 0.026337 0.026337
0.041107 0.041107 0.041107
0.057709 0.057709 0.057709
0.076080 0.076080 0.076080
0.097107 0.097107 0.097107
0.121124 0.121124 0.121124
0.148041 0.148041 0.148041
0.177521 0.177521 0.177521
0.209106 0.209106 0.209106
0.242584 0.242584 0.242584
0.277557 0.277557 0.277557
0.313782 0.313782 0.313721
0.350861 0.350952 0.350861
0.388672 0.388763 0.388672
0.005737 0.005737 0.005737
0.013672 0.013672 0.013672
0.023621 0.023621 0.023621
0.037140 0.037140 0.037140
0.053619 0.053619 0.053619
0.071533 0.071533 0.071533
0.091736 0.091736 0.091736
0.115021 0.115021 0.115021
0.141327 0.141327 0.141327
0.170105 0.170105 0.170105
0.201294 0.201294 0.201294
0.234375 0.234375 0.234375
0.268921 0.268921 0.268921
0.304840 0.304840 0.304779
0.341705 0.341766 0.341644
0.379425 0.379517 0.379425
0.417633 0.417694 0.417633
0.011322 0.011322 0.011322
0.020660 0.020660 0.020660
0.033356 0.033356 0.033356
0.049469 0.049469 0.049469
0.066925 0.066925 0.066925
0.086578 0.086578 0.086578
0.109131 0.109131 0.109131
0.134674 0.134674 0.134674
0.162872 0.162872 0.162872
0.193481 0.193481 0.193481
0.226074 0.226074 0.226074
0.260315 0.260315 0.260315
0.295990 0.295990 0.295959
0.332672 0.332733 0.332642
0.370148 0.370239 0.370148
0.408203 0.408295 0.408203
0.446716 0.446808 0.446716
0.018219 0.018219 0.018219
0.030121 0.030121 0.030121
0.045502 0.045502 0.045502
0.062561 0.062561 0.062561
0.081573 0.081573 0.081573
0.103394 0.103394 0.103394
0.128265 0.128265 0.128265
0.155853 0.155853 0.155853
0.185852 0.185852 0.185852
0.218018 0.218018 0.218018
0.251892 0.251892 0.251892
0.287231 0.287231 0.287231
0.323700 0.323730 0.323639
0.360992 0.361084 0.360992
0.398987 0.399078 0.398987
0.437347 0.437439 0.437347
0.475983 0.476044 0.475983
0.026611 0.026611 0.026611
0.041504 0.041504 0.041504
0.058197 0.058197 0.058197
0.076660 0.076660 0.076660
0.097839 0.097839 0.097839
0.121918 0.121918 0.121918
0.148834 0.148834 0.148834
0.178375 0.178375 0.178375
0.209991 0.209991 0.209991
0.243500 0.243500 0.243500
0.278503 0.278503 0.278503
0.314697 0.314728 0.314667
0.351837 0.351898 0.351807
0.389648 0.389740 0.389648
0.428009 0.428070 0.428009
0.466583 0.466675 0.466583
0.505005 0.505066 0.504974
0.037415 0.037415 0.037415
0.054047 0.054047 0.054047
0.072021 0.072021 0.072021
0.092346 0.092346 0.092346
0.115784 0.115784 0.115784
0.142151 0.142151 0.142151
0.171021 0.171021 0.171021
0.202179 0.202179 0.202179
0.235229 0.235229 0.235229
0.269867 0.269867 0.269867
0.305786 0.305817 0.305756
0.342712 0.342773 0.342682
0.380402 0.380493 0.380402
0.418640 0.418701 0.418640
0.457184 0.457245 0.457184
0.495728 0.495789 0.495697
0.533966 0.534027 0.533936
0.049866 0.049866 0.049866
0.067444 0.067444 0.067444
0.087067 0.087067 0.087067
0.109741 0.109741 0.109741
0.135345 0.135345 0.135345
0.163727 0.163727 0.163727
0.194366 0.194366 0.194366
0.226990 0.226990 0.226990
0.261322 0.261322 0.261322
0.296936 0.296936 0.296906
0.333649 0.333710 0.333618
0.371155 0.371216 0.371124
0.409302 0.409393 0.409302
0.447723 0.447815 0.447723
0.486328 0.486389 0.486328
0.524689 0.524750 0.524658
0.562653 0.562744 0.562622
0.062866 0.062866 0.062866
0.082031 0.082031 0.082031
0.103912 0.103912 0.103912
0.128906 0.128906 0.128906
0.156555 0.156555 0.156555
0.186676 0.186676 0.186676
0.218842 0.218842 0.218842
0.252808 0.252808 0.252808
0.288177 0.288177 0.288177
0.324615 0.324646 0.324554
0.361969 0.362061 0.361938
0.399933 0.400024 0.399933
0.438385 0.438477 0.438385
0.476898 0.476959 0.476898
0.515442 0.515503 0.515411
0.553467 0.553528 0.553436
0.590881 0.590973 0.590881
0.077240 0.077240 0.077240
0.098328 0.098328 0.098328
0.122498 0.122498 0.122498
0.149567 0.149567 0.149567
0.179108 0.179108 0.179108
0.210907 0.210907 0.210907
0.244446 0.244446 0.244446
0.279480 0.279480 0.279480
0.315704 0.315735 0.315674
0.352783 0.352875 0.352753
0.390656 0.390717 0.390656
0.428955 0.429047 0.428955
0.467560 0.467621 0.467560
0.505981 0.506073 0.505981
0.544250 0.544342 0.544220
0.581848 0.581940 0.581848
0.618591 0.618683 0.618591
0.092987 0.092987 0.092987
0.116455 0.116455 0.116455
0.142731 0.142731 0.142731
0.171753 0.171753 0.171753
0.202942 0.202942 0.202942
0.236084 0.236084 0.236084
0.270844 0.270844 0.270844
0.306763 0.306763 0.306702
0.343658 0.343719 0.343628
0.381378 0.381470 0.381378
0.419647 0.419739 0.419647
0.458130 0.458191 0.458130
0.496674 0.496735 0.496643
0.534973 0.535034 0.534943
0.572723 0.572815 0.572723
0.609711 0.609802 0.609711
0.645599 0.645691 0.645569
0.110504 0.110504 0.110504
0.136230 0.136230 0.136230
0.164490 0.164490 0.164490
0.195190 0.195190 0.195190
0.227875 0.227875 0.227875
0.262207 0.262207 0.262207
0.297852 0.297852 0.297821
0.334595 0.334656 0.334564
0.372162 0.372253 0.372162
0.410278 0.410370 0.410278
0.448761 0.448853 0.448761
0.487274 0.487335 0.487274
0.525665 0.525757 0.525635
0.563629 0.563721 0.563599
0.600830 0.600922 0.600830
0.636993 0.637115 0.636993
0.671906 0.671997 0.671875
0.129639 0.129639 0.129639
0.157532 0.157532 0.157532
0.187561 0.187561 0.187561
0.219757 0.219757 0.219757
0.253754 0.253754 0.253754
0.289093 0.289093 0.289062
0.325592 0.325653 0.325562
0.362946 0.363037 0.362946
0.400940 0.401031 0.400940
0.439331 0.439423 0.439331
0.477905 0.477966 0.477905
0.516449 0.516541 0.516418
0.554443 0.554535 0.554413
0.591736 0.591827 0.591736
0.628235 0.628357 0.628235
0.663513 0.663605 0.663483
0.697144 0.697266 0.697144
0.150635 0.150635 0.150635
0.180206 0.180206 0.180206
0.211823 0.211823 0.211823
0.245300 0.245300 0.245300
0.280396 0.280396 0.280365
0.316711 0.316742 0.316650
0.353851 0.353912 0.353821
0.391663 0.391754 0.391663
0.429993 0.430054 0.429993
0.468506 0.468597 0.468506
0.506989 0.507050 0.506958
0.545197 0.545288 0.545166
0.582733 0.582825 0.582703
0.619415 0.619537 0.619415
0.655060 0.655151 0.655060
0.689148 0.689240 0.689117
0.721436 0.721527 0.721405
0.172791 0.172791 0.172791
0.204193 0.204193 0.204193
0.237183 0.237183 0.237183
0.271851 0.271851 0.271851
0.307800 0.307800 0.307739
0.344696 0.344757 0.344666
0.382355 0.382477 0.382355
0.420654 0.420746 0.420654
0.459167 0.459229 0.459167
0.497681 0.497742 0.497650
0.535980 0.536041 0.535950
0.573761 0.573853 0.573761
0.610596 0.610687 0.610596
0.646423 0.646515 0.646423
0.681000 0.681091 0.680969
0.713684 0.713806 0.713654
0.744446 0.744568 0.744415
0.196533 0.196533 0.196533
0.229492 0.229492 0.229492
0.263367 0.263367 0.263367
0.299011 0.299011 0.298950
0.335693 0.335754 0.335632
0.373230 0.373322 0.373230
0.411255 0.411346 0.411255
0.449799 0.449890 0.449799
0.488373 0.488434 0.488342
0.526672 0.526733 0.526642
0.564606 0.564697 0.564575
0.601746 0.601837 0.601746
0.637939 0.638031 0.637909
0.672729 0.672821 0.672699
0.705963 0.706085 0.705933
0.737152 0.737274 0.737152
0.766144 0.766266 0.766113
0.221436 0.221436 0.221436
0.255402 0.255402 0.255402
0.290314 0.290314 0.290283
0.326752 0.326782 0.326691
0.364075 0.364166 0.364075
0.402069 0.402130 0.402069
0.440399 0.440460 0.440399
0.479004 0.479065 0.479004
0.517426 0.517487 0.517395
0.555450 0.555542 0.555420
0.592865 0.592957 0.592865
0.629211 0.629303 0.629211
0.664429 0.664520 0.664398
0.698059 0.698151 0.698029
0.729706 0.729797 0.729675
0.759216 0.759338 0.759216
0.786652 0.786774 0.786652
0.247467 0.247467 0.247467
0.282379 0.282379 0.282379
0.318054 0.318054 0.317993
0.355133 0.355194 0.355103
0.392883 0.392975 0.392883
0.431122 0.431213 0.431122
0.469635 0.469696 0.469635
0.508179 0.508240 0.508148
0.546295 0.546387 0.546265
0.583832 0.583923 0.583832
0.620575 0.620697 0.620575
0.655975 0.656067 0.655945
0.690063 0.690186 0.690033
0.722260 0.722351 0.722229
0.752289 0.752411 0.752258
0.780121 0.780243 0.780090
0.806000 0.806122 0.806000
0.005066 0.005066 0.005066
0.012909 0.012909 0.012909
0.022552 0.022552 0.022552
0.035980 0.035980 0.035980
0.052399 0.052399 0.052399
0.070190 0.070190 0.070190
0.090179 0.090179 0.090179
0.113281 0.113281 0.113281
0.139252 0.139252 0.139252
0.167969 0.167969 0.167969
0.198914 0.198914 0.198914
0.231842 0.231842 0.231842
0.266388 0.266388 0.266388
0.302246 0.302246 0.302216
0.339050 0.339142 0.339020
0.376678 0.376770 0.376678
0.414917 0.415009 0.414917
0.010864 0.010864 0.010864
0.019928 0.019928 0.019928
0.032532 0.032532 0.032532
0.048279 0.048279 0.048279
0.065643 0.065643 0.065643
0.085144 0.085144 0.085144
0.107391 0.107391 0.107391
0.132751 0.132751 0.132751
0.160858 0.160858 0.160858
0.191284 0.191284 0.191284
0.223755 0.223755 0.223755
0.257904 0.257904 0.257904
0.293488 0.293488 0.293488
0.330109 0.330139 0.330048
0.367462 0.367554 0.367432
0.405609 0.405701 0.405609
0.443970 0.444031 0.443970
0.017548 0.017548 0.017548
0.029083 0.029083 0.029083
0.044189 0.044189 0.044189
0.061218 0.061218 0.061218
0.080139 0.080139 0.080139
0.101776 0.101776 0.101776
0.126343 0.126343 0.126343
0.153778 0.153778 0.153778
0.183655 0.183655 0.183655
0.215637 0.215637 0.215637
0.249420 0.249420 0.249420
0.284637 0.284637 0.284637
0.321014 0.321075 0.320953
0.358337 0.358429 0.358307
0.396210 0.396271 0.396210
0.434601 0.434662 0.434601
0.473206 0.473267 0.473206
0.025879 0.025879 0.025879
0.040497 0.040497 0.040497
0.057068 0.057068 0.057068
0.075317 0.075317 0.075317
0.096191 0.096191 0.096191
0.120087 0.120087 0.120087
0.146942 0.146942 0.146942
0.176178 0.176178 0.176178
0.207672 0.207672 0.207672
0.241058 0.241058 0.241058
0.275970 0.275970 0.275970
0.312134 0.312134 0.312073
0.349152 0.349243 0.349152
0.386902 0.386993 0.386902
0.425262 0.425323 0.425262
0.463776 0.463867 0.463776
0.502289 0.502350 0.502258
0.036377 0.036377 0.036377
0.052795 0.052795 0.052795
0.070679 0.070679 0.070679
0.090851 0.090851 0.090851
0.114044 0.114044 0.114044
0.140167 0.140167 0.140167
0.168854 0.168854 0.168854
0.199860 0.199860 0.199860
0.232788 0.232788 0.232788
0.267334 0.267334 0.267334
0.303192 0.303223 0.303162
0.340027 0.340088 0.339996
0.377655 0.377747 0.377655
0.415863 0.415955 0.415863
0.454407 0.454468 0.454407
0.492920 0.493011 0.492920
0.531250 0.531311 0.531219
0.048706 0.048706 0.048706
0.066193 0.066193 0.066193
0.085541 0.085541 0.085541
0.108124 0.108124 0.108124
0.133545 0.133545 0.133545
0.161682 0.161682 0.161682
0.192139 0.192139 0.192139
0.224670 0.224670 0.224670
0.258820 0.258820 0.258820
0.294403 0.294403 0.294373
0.331024 0.331055 0.330963
0.368439 0.368500 0.368408
0.406525 0.406616 0.406525
0.445007 0.445099 0.445007
0.483582 0.483643 0.483551
0.521942 0.522034 0.521942
0.559998 0.560059 0.559967
0.061676 0.061676 0.061676
0.080627 0.080627 0.080627
0.102325 0.102325 0.102325
0.127106 0.127106 0.127106
0.154541 0.154541 0.154541
0.184570 0.184570 0.184570
0.216614 0.216614 0.216614
0.250366 0.250366 0.250366
0.285614 0.285614 0.285583
0.322021 0.322052 0.321960
0.359253 0.359344 0.359253
0.397217 0.397308 0.397217
0.435577 0.435669 0.435577
0.474152 0.474213 0.474152
0.512634 0.512695 0.512604
0.550751 0.550842 0.550720
0.588196 0.588318 0.588196
0.075806 0.075806 0.075806
0.096802 0.096802 0.096802
0.120758 0.120758 0.120758
0.147675 0.147675 0.147675
0.176971 0.176971 0.176971
0.208557 0.208557 0.208557
0.242004 0.242004 0.242004
0.276978 0.276978 0.276947
0.313080 0.313110 0.313019
0.350128 0.350220 0.350098
0.387909 0.388000 0.387909
0.426208 0.426300 0.426208
0.464722 0.464813 0.464722
0.503296 0.503357 0.503296
0.541504 0.541565 0.541473
0.579163 0.579254 0.579132
0.615997 0.616089 0.615997
0.091339 0.091339 0.091339
0.114746 0.114746 0.114746
0.140839 0.140839 0.140839
0.169647 0.169647 0.169647
0.200684 0.200684 0.200684
0.233673 0.233673 0.233673
0.268250 0.268250 0.268250
0.304138 0.304169 0.304108
0.341064 0.341125 0.341034
0.378662 0.378754 0.378662
0.416870 0.416962 0.416870
0.455383 0.455444 0.455383
0.493866 0.493927 0.493866
0.532227 0.532288 0.532196
0.570038 0.570129 0.570007
0.607086 0.607208 0.607086
0.643097 0.643219 0.643097
0.108643 0.108643 0.108643
0.134277 0.134277 0.134277
0.162415 0.162415 0.162415
0.192963 0.192963 0.192963
0.225433 0.225433 0.225433
0.259705 0.259705 0.259705
0.295258 0.295258 0.295227
0.332001 0.332031 0.331940
0.369446 0.369537 0.369446
0.407532 0.407623 0.407532
0.445923 0.446014 0.445923
0.484497 0.484589 0.484497
0.522919 0.522980 0.522888
0.560883 0.560974 0.560852
0.598145 0.598236 0.598145
0.634399 0.634491 0.634399
0.669434 0.669525 0.669434
0.127716 0.127716 0.127716
0.155457 0.155457 0.155457
0.185333 0.185333 0.185333
0.217407 0.217407 0.217407
0.251282 0.251282 0.251282
0.286560 0.286560 0.286530
0.322968 0.322998 0.322906
0.360260 0.360352 0.360260
0.398193 0.398285 0.398193
0.436615 0.436676 0.436615
0.475159 0.475250 0.475159
0.513550 0.513641 0.513550
0.551697 0.551758 0.551666
0.589142 0.589233 0.589142
0.625702 0.625793 0.625671
0.661011 0.661102 0.660980
0.694824 0.694916 0.694794
0.148438 0.148438 0.148438
0.178070 0.178070 0.178070
0.209381 0.209381 0.209381
0.242889 0.242889 0.242889
0.277832 0.277832 0.277832
0.314026 0.314056 0.313965
0.351044 0.351135 0.351044
0.388916 0.389008 0.388916
0.427246 0.427338 0.427246
0.465759 0.465820 0.465759
0.504242 0.504303 0.504242
0.542389 0.542480 0.542358
0.580109 0.580200 0.580078
0.616852 0.616943 0.616852
0.652527 0.652649 0.652527
0.686768 0.686859 0.686737
0.719116 0.719208 0.719086
0.170746 0.170746 0.170746
0.201721 0.201721 0.201721
0.234619 0.234619 0.234619
0.269287 0.269287 0.269287
0.305115 0.305145 0.305084
0.342010 0.342072 0.341980
0.379669 0.379761 0.379669
0.417877 0.417969 0.417877
0.456390 0.456482 0.456390
0.494873 0.494965 0.494873
0.533203 0.533264 0.533173
0.571014 0.571106 0.570984
0.607971 0.608063 0.607971
0.643921 0.644012 0.643921
0.678558 0.678650 0.678528
0.711395 0.711517 0.711365
0.742188 0.742310 0.742188
0.194122 0.194122 0.194122
0.226715 0.226715 0.226715
0.260773 0.260773 0.260773
0.296356 0.296356 0.296326
0.332977 0.333038 0.332947
0.370483 0.370544 0.370453
0.408569 0.408661 0.408569
0.446991 0.447083 0.446991
0.485565 0.485626 0.485565
0.523926 0.523987 0.523895
0.561859 0.561951 0.561829
0.599091 0.599182 0.599091
0.635315 0.635406 0.635284
0.670197 0.670288 0.670166
0.703552 0.703674 0.703522
0.734924 0.735046 0.734924
0.764069 0.764160 0.764038
0.218781 0.218781 0.218781
0.252533 0.252533 0.252533
0.287720 0.287720 0.287689
0.324127 0.324188 0.324066
0.361328 0.361420 0.361328
0.399292 0.399384 0.399292
0.437622 0.437714 0.437622
0.476227 0.476318 0.476227
0.514648 0.514709 0.514648
0.552734 0.552826 0.552704
0.590179 0.590271 0.590149
0.626587 0.626709 0.626587
0.661835 0.661926 0.661804
0.695648 0.695740 0.695618
0.727417 0.727539 0.727417
0.757141 0.757233 0.757111
0.784698 0.784821 0.784668
0.244690 0.244690 0.244690
0.279388 0.279388 0.279388
0.315247 0.315277 0.315186
0.352173 0.352264 0.352173
0.390015 0.390137 0.390015
0.428314 0.428375 0.428314
0.466827 0.466919 0.466827
0.505341 0.505402 0.505310
0.543518 0.543579 0.543488
0.581116 0.581207 0.581116
0.617767 0.617859 0.617767
0.653442 0.653564 0.653412
0.687561 0.687653 0.687531
0.719910 0.720032 0.719910
0.750122 0.750214 0.750092
0.778168 0.778259 0.778137
0.804169 0.804260 0.804138
0.270874 0.270874 0.270874
0.307098 0.307098 0.307037
0.343414 0.343506 0.343384
0.380859 0.380951 0.380859
0.419037 0.419098 0.419037
0.457581 0.457642 0.457581
0.496002 0.496063 0.496002
0.534332 0.534424 0.534302
0.572052 0.572144 0.572021
0.609039 0.609161 0.609039
0.644928 0.645020 0.644897
0.679474 0.679565 0.679443
0.712250 0.712372 0.712250
0.743042 0.743164 0.743011
0.771545 0.771667 0.771545
0.797974 0.798126 0.797974
0.822510 0.822632 0.822479
0.010437 0.010437 0.010437
0.019104 0.019104 0.019104
0.031342 0.031342 0.031342
0.046936 0.046936 0.046936
0.064240 0.064240 0.064240
0.083496 0.083496 0.083496
0.105560 0.105560 0.105560
0.130707 0.130707 0.130707
0.158600 0.158600 0.158600
0.188904 0.188904 0.188904
0.221191 0.221191 0.221191
0.255249 0.255249 0.255249
0.290710 0.290710 0.290710
0.327240 0.327301 0.327209
0.364655 0.364777 0.364655
0.402710 0.402802 0.402710
0.441132 0.441223 0.441132
0.016754 0.016754 0.016754
0.028259 0.028259 0.028259
0.043060 0.043060 0.043060
0.060028 0.060028 0.060028
0.078766 0.078766 0.078766
0.100067 0.100067 0.100067
0.124451 0.124451 0.124451
0.151642 0.151642 0.151642
0.181366 0.181366 0.181366
0.213226 0.213226 0.213226
0.246887 0.246887 0.246887
0.282013 0.282013 0.282013
0.318268 0.318298 0.318207
0.355499 0.355591 0.355499
0.393402 0.393463 0.393402
0.431732 0.431824 0.431732
0.470276 0.470337 0.470276
0.024872 0.024872 0.024872
0.039124 0.039124 0.039124
0.055603 0.055603 0.055603
0.073883 0.073883 0.073883
0.094574 0.094574 0.094574
0.118225 0.118225 0.118225
0.144806 0.144806 0.144806
0.173950 0.173950 0.173950
0.205292 0.205292 0.205292
0.238525 0.238525 0.238525
0.273285 0.273285 0.273285
0.309326 0.309357 0.309265
0.346375 0.346405 0.346344
0.384064 0.384155 0.384064
0.422333 0.422394 0.422333
0.460846 0.460907 0.460846
0.499329 0.499390 0.499298
0.035187 0.035187 0.035187
0.051514 0.051514 0.051514
0.069366 0.069366 0.069366
0.089417 0.089417 0.089417
0.112244 0.112244 0.112244
0.138123 0.138123 0.138123
0.166626 0.166626 0.166626
0.197510 0.197510 0.197510
0.230316 0.230316 0.230316
0.264740 0.264740 0.264740
0.300476 0.300476 0.300446
0.337250 0.337311 0.337219
0.374817 0.374908 0.374817
0.413025 0.413116 0.413025
0.451508 0.451569 0.451508
0.490051 0.490112 0.490051
0.528442 0.528503 0.528412
0.047455 0.047455 0.047455
0.064789 0.064789 0.064789
0.084106 0.084106 0.084106
0.106354 0.106354 0.106354
0.131653 0.131653 0.131653
0.159515 0.159515 0.159515
0.189789 0.189789 0.189789
0.222137 0.222137 0.222137
0.256195 0.256195 0.256195
0.291687 0.291687 0.291656
0.328217 0.328247 0.328156
0.365601 0.365692 0.365601
0.403687 0.403748 0.403687
0.442078 0.442169 0.442078
0.480652 0.480713 0.480652
0.519073 0.519165 0.519043
0.557129 0.557190 0.557098
0.060333 0.060333 0.060333
0.079224 0.079224 0.079224
0.100677 0.100677 0.100677
0.125214 0.125214 0.125214
0.152466 0.152466 0.152466
0.182251 0.182251 0.182251
0.214142 0.214142 0.214142
0.247833 0.247833 0.247833
0.282959 0.282959 0.282928
0.319244 0.319275 0.319183
0.356445 0.356537 0.356445
0.394348 0.394440 0.394348
0.432709 0.432800 0.432709
0.471252 0.471313 0.471252
0.509766 0.509827 0.509735
0.547913 0.548004 0.547882
0.585419 0.585510 0.585388
0.074280 0.074280 0.074280
0.095123 0.095123 0.095123
0.118896 0.118896 0.118896
0.145599 0.145599 0.145599
0.174774 0.174774 0.174774
0.206177 0.206177 0.206177
0.239471 0.239471 0.239471
0.274231 0.274231 0.274231
0.310303 0.310333 0.310272
0.347321 0.347382 0.347290
0.385040 0.385162 0.385040
0.423309 0.423401 0.423309
0.461853 0.461945 0.461853
0.500366 0.500427 0.500366
0.538635 0.538696 0.538605
0.576355 0.576447 0.576324
0.613251 0.613342 0.613251
0.089722 0.089722 0.089722
0.112854 0.112854 0.112854
0.138824 0.138824 0.138824
0.167419 0.167419 0.167419
0.198273 0.198273 0.198273
0.231201 0.231201 0.231201
0.265656 0.265656 0.265656
0.301453 0.301483 0.301422
0.338287 0.338318 0.338226
0.375793 0.375916 0.375793
0.414001 0.414062 0.414001
0.452454 0.452515 0.452454
0.491028 0.491089 0.491028
0.529358 0.529419 0.529327
0.567230 0.567322 0.567200
0.604340 0.604462 0.604340
0.640411 0.640503 0.640381
0.106903 0.106903 0.106903
0.132263 0.132263 0.132263
0.160187 0.160187 0.160187
0.190582 0.190582 0.190582
0.222961 0.222961 0.222961
0.257141 0.257141 0.257141
0.292633 0.292633 0.292603
0.329193 0.329254 0.329163
0.366608 0.366699 0.366608
0.404663 0.404755 0.404663
0.443085 0.443146 0.443085
0.481628 0.481689 0.481628
0.520020 0.520111 0.519989
0.558044 0.558136 0.558014
0.595367 0.595459 0.595367
0.631744 0.631836 0.631744
0.666809 0.666901 0.666779
0.125824 0.125824 0.125824
0.153320 0.153320 0.153320
0.182983 0.182983 0.182983
0.214935 0.214935 0.214935
0.248688 0.248688 0.248688
0.283875 0.283875 0.283844
0.320190 0.320221 0.320160
0.357422 0.357513 0.357391
0.395325 0.395416 0.395325
0.433655 0.433746 0.433655
0.472229 0.472321 0.472229
0.510681 0.510773 0.510681
0.548859 0.548920 0.548828
0.586334 0.586426 0.586304
0.622955 0.623047 0.622955
0.658386 0.658478 0.658356
0.692291 0.692383 0.692261
0.146332 0.146332 0.146332
0.175690 0.175690 0.175690
0.207001 0.207001 0.207001
0.240356 0.240356 0.240356
0.275177 0.275177 0.275177
0.311249 0.311279 0.311218
0.348267 0.348328 0.348236
0.386047 0.386139 0.386047
0.424347 0.424438 0.424347
0.462830 0.462921 0.462830
0.501343 0.501404 0.501312
0.539551 0.539612 0.539520
0.577271 0.577332 0.577240
0.614105 0.614197 0.614105
0.649872 0.649963 0.649841
0.684174 0.684296 0.684143
0.716705 0.716827 0.716705
0.168396 0.168396 0.168396
0.199310 0.199310 0.199310
0.232147 0.232147 0.232147
0.266632 0.266632 0.266632
0.302368 0.302368 0.302338
0.339203 0.339264 0.339172
0.376801 0.376892 0.376801
0.414978 0.415070 0.414978
0.453491 0.453552 0.453491
0.491974 0.492035 0.491943
0.530273 0.530365 0.530243
0.568146 0.568237 0.568115
0.605225 0.605316 0.605225
0.641235 0.641327 0.641205
0.675934 0.676056 0.675934
0.708954 0.709076 0.708954
0.739960 0.740082 0.739960
0.191589 0.191589 0.191589
0.224121 0.224121 0.224121
0.258118 0.258118 0.258118
0.293610 0.293610 0.293579
0.330170 0.330200 0.330109
0.367615 0.367706 0.367615
0.405640 0.405731 0.405640
0.444092 0.444183 0.444092
0.482635 0.482697 0.482605
0.520996 0.521057 0.520966
0.558990 0.559082 0.558960
0.596252 0.596375 0.596252
0.632568 0.632660 0.632568
0.667603 0.667694 0.667572
0.701050 0.701172 0.701050
0.732574 0.732697 0.732574
0.761902 0.762024 0.761871
0.216125 0.216125 0.216125
0.250000 0.250000 0.250000
0.284973 0.284973 0.284973
0.321259 0.321289 0.321198
0.358429 0.358521 0.358429
0.396362 0.396454 0.396362
0.434692 0.434784 0.434692
0.473236 0.473328 0.473236
0.511719 0.511780 0.511688
0.549774 0.549866 0.549774
0.587250 0.587341 0.587219
0.623840 0.623962 0.623840
0.659210 0.659332 0.659210
0.693054 0.693176 0.693054
0.725067 0.725189 0.725067
0.754944 0.755066 0.754913
0.782623 0.782745 0.782623
0.241882 0.241882 0.241882
0.276459 0.276459 0.276459
0.312439 0.312469 0.312408
0.349426 0.349487 0.349396
0.387115 0.387207 0.387115
0.425385 0.425476 0.425385
0.463867 0.463928 0.463867
0.502411 0.502472 0.502380
0.540619 0.540680 0.540588
0.578247 0.578339 0.578217
0.615051 0.615143 0.615051
0.650726 0.650818 0.650726
0.684998 0.685120 0.684967
0.717468 0.717560 0.717438
0.747864 0.747986 0.747833
0.776093 0.776215 0.776093
0.802216 0.802338 0.802185
0.268250 0.268250 0.268250
0.304108 0.304108 0.304047
0.340454 0.340515 0.340424
0.378021 0.378113 0.378021
0.416077 0.416168 0.416077
0.454529 0.454590 0.454529
0.493011 0.493103 0.493011
0.531372 0.531433 0.531342
0.569183 0.569275 0.569153
0.606232 0.606323 0.606232
0.642212 0.642303 0.642181
0.676819 0.676941 0.676788
0.709778 0.709900 0.709747
0.740692 0.740814 0.740662
0.769440 0.769531 0.769409
0.795990 0.796143 0.795990
0.820709 0.820831 0.820679
0.295288 0.295288 0.295288
0.331879 0.331940 0.331848
0.368958 0.369019 0.368927
0.406891 0.406982 0.406891
0.445282 0.445343 0.445282
0.483795 0.483856 0.483795
0.522095 0.522156 0.522064
0.560059 0.560150 0.560028
0.597351 0.597443 0.597351
0.633575 0.633667 0.633575
0.668610 0.668701 0.668579
0.701965 0.702057 0.701935
0.733459 0.733551 0.733429
0.762665 0.762756 0.762634
0.789764 0.789886 0.789734
0.814880 0.815002 0.814880
0.838104 0.838226 0.838074
0.015930 0.015930 0.015930
0.027069 0.027069 0.027069
0.041870 0.041870 0.041870
0.058624 0.058624 0.058624
0.077148 0.077148 0.077148
0.098358 0.098358 0.098358
0.122528 0.122528 0.122528
0.149536 0.149536 0.149536
0.179077 0.179077 0.179077
0.210785 0.210785 0.210785
0.244324 0.244324 0.244324
0.279358 0.279358 0.279358
0.315613 0.315613 0.315552
0.352722 0.352814 0.352722
0.390594 0.390686 0.390594
0.428925 0.429016 0.428925
0.467529 0.467590 0.467529
0.024048 0.024048 0.024048
0.037994 0.037994 0.037994
0.054352 0.054352 0.054352
