luts/Soft_Pastel_Garden.CUBE
# kravix mobile - LUTs Pack
LUT_3D_SIZE 5
0.000000 0.000000 0.000000
0.227451 0.015686 0.003922
0.615686 0.000000 0.000000
0.858824 0.000000 0.000000
1.000000 0.239216 0.058824
0.000000 0.231373 0.003922
0.184314 0.247059 0.000000
0.607843 0.243137 0.000000
0.843137 0.258824 0.000000
1.000000 0.360784 0.003922
0.000000 0.533333 0.066667
0.015686 0.513725 0.090196
0.509804 0.525490 0.000000
0.784314 0.537255 0.000000
0.976471 0.541176 0.000000
0.000000 0.705882 0.235294
0.223529 0.701961 0.247059
0.478431 0.698039 0.247059
0.717647 0.713725 0.207843
0.945098 0.737255 0.141176
0.415686 0.929412 0.498039
0.462745 0.929412 0.509804
0.576471 0.925490 0.537255
0.729412 0.941176 0.529412
0.941176 0.960784 0.513725
0.003922 0.023529 0.239216
0.250980 0.007843 0.247059
0.631373 0.000000 0.243137
0.850980 0.168627 0.301961
1.000000 0.305882 0.325490
0.000000 0.266667 0.258824
0.262745 0.278431 0.278431
0.623529 0.286275 0.274510
0.835294 0.313725 0.274510
0.996078 0.388235 0.309804
0.000000 0.549020 0.290196
0.235294 0.541176 0.305882
0.541176 0.537255 0.278431
0.788235 0.533333 0.239216
0.972549 0.549020 0.250980
0.184314 0.717647 0.352941
0.305882 0.709804 0.360784
0.498039 0.698039 0.360784
0.721569 0.717647 0.337255
0.945098 0.741176 0.309804
0.419608 0.929412 0.533333
0.466667 0.929412 0.541176
0.572549 0.925490 0.564706
0.725490 0.937255 0.560784
0.945098 0.960784 0.552941
0.054902 0.062745 0.545098
0.317647 0.070588 0.556863
0.639216 0.086275 0.580392
0.847059 0.078431 0.541176
1.000000 0.309804 0.552941
0.086275 0.270588 0.545098
0.345098 0.294118 0.560784
0.627451 0.325490 0.576471
0.831373 0.337255 0.556863
0.992157 0.423529 0.564706
0.047059 0.560784 0.560784
0.333333 0.564706 0.568627
0.600000 0.572549 0.580392
0.784314 0.576471 0.568627
0.968627 0.584314 0.568627
0.372549 0.745098 0.580392
0.447059 0.737255 0.580392
0.560784 0.721569 0.568627
0.729412 0.721569 0.552941
0.952941 0.741176 0.525490
0.407843 0.941176 0.619608
0.454902 0.937255 0.623529
0.572549 0.937255 0.635294
0.725490 0.941176 0.647059
0.949020 0.964706 0.639216
0.380392 0.172549 0.752941
0.482353 0.184314 0.752941
0.670588 0.243137 0.756863
0.835294 0.317647 0.764706
0.992157 0.345098 0.749020
0.396078 0.333333 0.745098
0.490196 0.337255 0.752941
0.662745 0.384314 0.760784
0.823529 0.435294 0.764706
0.988235 0.439216 0.752941
0.274510 0.501961 0.725490
0.403922 0.513725 0.733333
0.619608 0.560784 0.741176
0.796078 0.600000 0.760784
0.984314 0.588235 0.752941
0.349020 0.737255 0.745098
0.431373 0.745098 0.749020
0.584314 0.745098 0.749020
0.776471 0.768627 0.768627
0.972549 0.760784 0.764706
0.415686 0.960784 0.780392
0.470588 0.960784 0.780392
0.596078 0.956863 0.776471
0.737255 0.952941 0.768627
0.968627 0.972549 0.772549
0.635294 0.435294 0.945098
0.666667 0.443137 0.945098
0.752941 0.474510 0.945098
0.870588 0.525490 0.941176
1.000000 0.549020 0.949020
0.623529 0.498039 0.945098
0.658824 0.513725 0.945098
0.741176 0.529412 0.941176
0.866667 0.568627 0.941176
1.000000 0.584314 0.945098
0.564706 0.611765 0.945098
0.611765 0.619608 0.945098
0.713725 0.627451 0.945098
0.854902 0.658824 0.945098
1.000000 0.670588 0.949020
0.439216 0.741176 0.945098
0.482353 0.741176 0.945098
0.592157 0.733333 0.949020
0.807843 0.764706 0.952941
1.000000 0.800000 0.956863
0.356863 0.972549 0.968627
0.407843 0.972549 0.968627
0.549020 0.976471 0.972549
0.749020 0.976471 0.972549
1.000000 0.984314 0.980392
