luts/Soft_Pastel_Garden.CUBE
# kravix mobile - LUTs Pack
LUT_3D_SIZE 17
0.000000 0.000000 0.000000
0.035294 0.003922 0.000000
0.082353 0.007843 0.000000
0.152942 0.015686 0.001961
0.227451 0.015686 0.003922
0.325491 0.001961 0.000000
0.423529 0.000000 0.000000
0.527451 0.000000 0.000000
0.615686 0.000000 0.000000
0.692157 0.000000 0.000000
0.764706 0.000000 0.000000
0.817647 0.000000 0.000000
0.858824 0.000000 0.000000
0.903922 0.031372 0.000000
0.941176 0.117647 0.000000
0.978431 0.176471 0.019608
1.000000 0.239216 0.058824
0.000000 0.041177 0.003921
0.027451 0.041176 0.003922
0.084313 0.049019 0.000000
0.146079 0.057843 0.000000
0.237255 0.058824 0.000000
0.324510 0.040196 0.000000
0.427451 0.021569 0.000000
0.528431 0.000000 0.000000
0.611765 0.000000 0.000000
0.695098 0.000000 0.000000
0.760784 0.000000 0.000000
0.813725 0.000000 0.000000
0.858824 0.021569 0.000000
0.903922 0.090196 0.000000
0.939215 0.147059 0.000000
0.978431 0.197059 0.012745
1.000000 0.245098 0.045098
0.000000 0.090196 0.007843
0.009804 0.094118 0.007843
0.062745 0.098039 0.003922
0.147059 0.115686 0.000000
0.227451 0.117647 0.000000
0.331372 0.103921 0.000000
0.423529 0.090196 0.000000
0.527451 0.068628 0.000000
0.619608 0.027451 0.000000
0.694118 0.021568 0.000000
0.764706 0.047059 0.000000
0.811765 0.066667 0.000000
0.854902 0.109804 0.000000
0.898039 0.147059 0.000000
0.937255 0.188235 0.000000
0.978431 0.233333 0.009804
1.000000 0.274510 0.047059
0.000000 0.156863 0.007843
0.000000 0.163725 0.010784
0.017647 0.164706 0.007843
0.116667 0.173529 0.001961
0.221569 0.184314 0.000000
0.325490 0.183333 0.000000
0.421569 0.174509 0.000000
0.526470 0.169608 0.000000
0.611765 0.156863 0.000000
0.690196 0.153921 0.000000
0.754902 0.164706 0.000000
0.805882 0.164706 0.000000
0.849020 0.194117 0.000000
0.894118 0.215686 0.000000
0.933333 0.243137 0.000000
0.972549 0.277451 0.000981
1.000000 0.315686 0.029412
0.000000 0.231373 0.003922
0.000000 0.233333 0.005882
0.000000 0.243137 0.011765
0.062745 0.247058 0.000000
0.184314 0.247059 0.000000
0.309804 0.262745 0.000000
0.415686 0.270588 0.000000
0.529411 0.254902 0.000000
0.607843 0.243137 0.000000
0.686275 0.245098 0.000000
0.745098 0.243137 0.000000
0.794118 0.247058 0.000000
0.843137 0.258824 0.000000
0.882353 0.274510 0.000000
0.921569 0.298039 0.000000
0.964706 0.325490 0.000000
1.000000 0.360784 0.003922
0.000000 0.321569 0.000000
0.000000 0.321569 0.002941
0.000000 0.323530 0.011765
0.024510 0.321569 0.004902
0.150981 0.333334 0.000000
0.283333 0.339216 0.000000
0.398039 0.347058 0.000000
0.506863 0.347059 0.000000
0.598039 0.343137 0.000000
0.675490 0.325491 0.000000
0.729411 0.323530 0.000000
0.786274 0.327451 0.000000
0.831373 0.339216 0.000000
0.875490 0.346078 0.000000
0.917647 0.362745 0.000000
0.958823 0.379412 0.000000
1.000000 0.407843 0.000000
0.000000 0.392157 0.000000
0.000000 0.400000 0.005882
0.000000 0.396078 0.011765
0.000000 0.396079 0.017647
0.094118 0.396078 0.000000
0.250980 0.401961 0.000000
0.364706 0.415686 0.000000
0.490196 0.415686 0.000000
0.576471 0.411765 0.000000
0.654902 0.405883 0.000000
0.717647 0.403922 0.000000
0.770588 0.394118 0.000000
0.823529 0.400000 0.000000
0.864706 0.407843 0.000000
0.905882 0.415686 0.000000
0.947059 0.431373 0.000000
0.996078 0.450980 0.000000
0.000000 0.472549 0.021569
0.000000 0.473529 0.027451
0.000000 0.470588 0.035294
0.000000 0.460784 0.047059
0.062745 0.458823 0.037255
0.220588 0.463726 0.018627
0.333333 0.474510 0.005882
0.446078 0.476471 0.000000
0.547059 0.480392 0.000000
0.630392 0.477451 0.000000
0.696079 0.478432 0.000000
0.751961 0.469608 0.000000
0.800000 0.464706 0.000000
0.850000 0.470589 0.000000
0.894118 0.474510 0.000000
0.939216 0.485294 0.000000
0.984314 0.498039 0.000000
0.000000 0.533333 0.066667
0.000000 0.527451 0.068628
0.000000 0.529412 0.078431
0.000000 0.523529 0.088235
0.015686 0.513725 0.090196
0.196078 0.519607 0.078432
0.313725 0.521569 0.054902
0.419608 0.523529 0.015686
0.509804 0.525490 0.000000
0.601961 0.529411 0.000000
0.682353 0.541176 0.000000
0.737255 0.533334 0.000000
0.784314 0.537255 0.000000
0.839216 0.525490 0.000000
0.882353 0.525490 0.000000
0.931372 0.529411 0.000000
0.976471 0.541176 0.000000
0.000000 0.570588 0.101961
0.000000 0.577451 0.110784
0.000000 0.578431 0.117647
0.000000 0.571569 0.120588
0.029412 0.566667 0.131373
0.195098 0.564706 0.128431
0.301960 0.568628 0.115686
0.401960 0.570588 0.096079
0.486274 0.572549 0.076470
0.575490 0.573530 0.036275
0.650980 0.578431 0.005882
0.713726 0.584314 0.000000
0.766667 0.580392 0.000000
0.821568 0.586275 0.000000
0.868627 0.582353 0.000000
0.917647 0.590196 0.000000
0.968627 0.588235 0.000000
0.000000 0.615686 0.141176
0.000000 0.623529 0.154902
0.000000 0.619608 0.152941
0.000000 0.617647 0.158824
0.078431 0.611765 0.164706
0.209804 0.611765 0.170588
0.313725 0.607843 0.160784
0.390196 0.609804 0.150981
0.474510 0.619608 0.145098
0.549019 0.617647 0.121568
0.623529 0.615686 0.090196
0.692157 0.623530 0.043137
0.752941 0.631373 0.007843
0.809804 0.635294 0.000000
0.854902 0.635294 0.000000
0.907843 0.639216 0.000000
0.960784 0.643137 0.000000
0.000000 0.662745 0.188236
0.000000 0.667647 0.197059
0.000000 0.666667 0.200000
0.062745 0.664706 0.203922
0.170588 0.658824 0.207843
0.248039 0.653922 0.212745
0.321568 0.654902 0.215687
0.400980 0.656863 0.205882
0.470588 0.652942 0.192157
0.545098 0.659804 0.182353
0.607843 0.662745 0.166666
0.673529 0.664706 0.145098
0.733333 0.670589 0.119608
0.793137 0.680392 0.101961
0.845098 0.682353 0.068627
0.898039 0.687255 0.047059
0.950981 0.694118 0.043138
0.000000 0.705882 0.235294
0.013725 0.707843 0.239216
0.098039 0.705882 0.239216
0.168627 0.703921 0.243137
0.223529 0.701961 0.247059
0.290196 0.700000 0.256862
0.345098 0.694118 0.258824
0.413725 0.694118 0.252941
0.478431 0.698039 0.247059
0.545098 0.700000 0.235295
0.603922 0.701961 0.227451
0.658824 0.703921 0.211764
0.717647 0.713725 0.207843
0.772549 0.709804 0.170588
0.835294 0.725490 0.160784
0.884314 0.731372 0.149019
0.945098 0.737255 0.141176
0.162745 0.752941 0.286274
0.192157 0.754902 0.293137
0.215686 0.752941 0.292157
0.258823 0.754902 0.299019
0.301960 0.754902 0.305883
0.345098 0.749019 0.307843
0.394118 0.747058 0.315686
0.440196 0.744118 0.312745
0.500000 0.750980 0.311764
0.550000 0.748039 0.300980
0.605882 0.754902 0.298040
0.656863 0.753922 0.281372
0.705882 0.752941 0.264706
0.760784 0.763726 0.260784
0.811764 0.760784 0.233333
0.877451 0.778431 0.229412
0.943137 0.790196 0.231373
0.278431 0.807843 0.349020
0.284314 0.801961 0.347059
0.298039 0.800000 0.349020
0.323529 0.801961 0.352941
0.352941 0.796078 0.352941
0.390197 0.798039 0.358823
0.431373 0.796078 0.364706
0.466666 0.792157 0.370588
0.509804 0.792157 0.368627
0.560784 0.796079 0.362745
0.607843 0.800000 0.356863
0.656863 0.800000 0.345098
0.705882 0.807843 0.341176
0.756862 0.811765 0.329411
0.807843 0.815686 0.317647
0.866667 0.821568 0.300000
0.937255 0.839216 0.294118
0.350980 0.864706 0.421569
0.357843 0.865686 0.423530
0.362745 0.860785 0.417647
0.385294 0.861765 0.421569
0.405883 0.860785 0.427451
0.437255 0.859804 0.433334
0.466666 0.858823 0.441176
0.500980 0.854902 0.443137
0.537255 0.854902 0.445098
0.576470 0.855882 0.440196
0.619608 0.858823 0.435295
0.667647 0.866667 0.434314
0.713726 0.872549 0.429412
0.758823 0.873529 0.419608
0.809804 0.880392 0.411764
0.870588 0.885294 0.401961
0.927451 0.896079 0.396079
0.415686 0.929412 0.498039
0.423529 0.927451 0.500000
0.431373 0.925490 0.501961
0.445098 0.925490 0.503922
0.462745 0.929412 0.509804
0.490196 0.925490 0.515686
0.513725 0.925490 0.521569
0.539216 0.921569 0.525490
0.576471 0.925490 0.537255
0.609803 0.927451 0.537255
0.643137 0.929412 0.533333
0.688236 0.935294 0.529412
0.729412 0.941176 0.529412
0.774510 0.943137 0.523529
0.827451 0.949020 0.521569
0.884313 0.954902 0.515686
0.941176 0.960784 0.513725
0.005882 0.005882 0.039216
0.041177 0.006863 0.039216
0.086275 0.005882 0.041177
0.151961 0.004902 0.043138
0.227451 0.003921 0.045098
0.331373 0.000000 0.046079
0.429412 0.000000 0.047059
0.528431 0.000000 0.046078
0.617647 0.000000 0.041177
0.694118 0.000000 0.041177
0.760784 0.000000 0.045098
0.813725 0.000000 0.045098
0.856863 0.000000 0.049020
0.897059 0.050000 0.055882
0.937255 0.127451 0.068627
0.976470 0.185294 0.080392
1.000000 0.237255 0.103921
0.000000 0.047059 0.042157
0.030882 0.047549 0.041667
0.084314 0.049020 0.042157
0.152451 0.055392 0.043628
0.232353 0.054902 0.043137
0.332353 0.040196 0.043627
0.433333 0.019608 0.043137
0.527451 0.001961 0.038726
0.614706 0.000000 0.040196
0.697059 0.000000 0.037255
0.756863 0.000000 0.037255
0.812255 0.006863 0.038235
0.856863 0.035294 0.043137
0.897549 0.102941 0.051961
0.935294 0.158824 0.060784
0.975000 0.206373 0.076471
1.000000 0.253922 0.101961
0.000000 0.103921 0.047059
0.013725 0.100981 0.046079
0.070588 0.101961 0.045098
0.150980 0.111765 0.036275
0.239216 0.109803 0.037255
0.334314 0.101961 0.036275
0.425490 0.094117 0.033334
0.530392 0.069608 0.032353
0.611765 0.052942 0.031372
0.695098 0.042157 0.027451
0.756863 0.056863 0.029412
0.810784 0.086275 0.032353
0.852941 0.115686 0.033333
0.896078 0.158824 0.041177
0.935294 0.196078 0.056863
0.973529 0.237255 0.072549
1.000000 0.276471 0.096078
0.000000 0.176471 0.048040
0.000980 0.171569 0.051471
0.022549 0.172549 0.052941
0.126961 0.179412 0.042157
0.231372 0.184314 0.028431
0.330882 0.186765 0.019608
0.428432 0.176471 0.018627
0.527451 0.168137 0.016667
0.614706 0.157843 0.017647
0.691176 0.162745 0.016667
0.750980 0.167647 0.018627
0.801961 0.178922 0.021079
0.846078 0.191176 0.024510
0.892157 0.224510 0.027941
0.931373 0.254902 0.043137
0.968137 0.281373 0.057843
1.000000 0.317647 0.090196
0.000000 0.250980 0.049020
0.000000 0.245098 0.051961
0.000000 0.249020 0.058824
0.081372 0.243137 0.046078
0.190196 0.252941 0.029412
0.319608 0.264706 0.014706
0.423530 0.264706 0.009804
0.523530 0.254902 0.001961
0.609804 0.245098 0.001961
0.685294 0.250980 0.001961
0.741176 0.249020 0.003921
0.794118 0.254902 0.005882
0.839216 0.268628 0.009804
0.883333 0.286274 0.014706
0.923530 0.301960 0.027451
0.959804 0.326470 0.039216
1.000000 0.356862 0.074510
0.000000 0.331372 0.045098
0.000000 0.329902 0.051471
0.000000 0.324510 0.058824
0.029412 0.323039 0.058334
0.164706 0.332353 0.042157
0.292157 0.339216 0.024510
0.405882 0.345098 0.009804
0.512745 0.348530 0.000000
0.600000 0.337255 0.000000
0.674020 0.330392 0.000000
0.729411 0.326470 0.000000
0.786274 0.330392 0.000000
0.828431 0.338235 0.000000
0.873039 0.350980 0.000000
0.914706 0.361765 0.006863
0.954412 0.380882 0.017647
1.000000 0.407843 0.045098
0.000000 0.401961 0.047059
0.000000 0.405882 0.058824
0.000000 0.400000 0.066667
0.000000 0.396078 0.073530
0.125490 0.400000 0.056862
0.262745 0.405883 0.040196
0.378431 0.413725 0.021569
0.487255 0.415686 0.004902
0.580392 0.415686 0.000000
0.656863 0.408824 0.000000
0.713725 0.398039 0.000000
0.768628 0.401961 0.000000
0.815686 0.400000 0.000000
0.860785 0.410784 0.000000
0.905882 0.419608 0.000000
0.948039 0.434314 0.001961
0.992157 0.452941 0.021569
0.000000 0.473530 0.074510
0.000000 0.475980 0.080392
0.000000 0.472549 0.086275
0.000000 0.465686 0.096569
0.073529 0.465686 0.098039
0.234314 0.468137 0.077451
0.348039 0.474510 0.057843
0.454902 0.474510 0.025000
0.552941 0.480392 0.006863
0.633333 0.479412 0.000000
0.695098 0.474510 0.000000
0.753921 0.470098 0.000000
0.801960 0.466667 0.000000
0.849020 0.471079 0.000000
0.893137 0.476471 0.000000
0.939216 0.486765 0.000000
0.985294 0.499020 0.000000
0.000000 0.523529 0.100000
0.000000 0.533333 0.110784
0.000000 0.527451 0.113726
0.000000 0.522549 0.119608
0.029412 0.523529 0.131373
0.214706 0.518628 0.118627
0.323530 0.521568 0.098039
0.425490 0.522549 0.075490
0.515686 0.525490 0.043138
0.605882 0.533333 0.016667
0.680392 0.537254 0.000000
0.734314 0.532353 0.000000
0.784314 0.527451 0.000000
0.833333 0.526470 0.000000
0.880392 0.529411 0.000000
0.932353 0.534313 0.000000
0.976471 0.541176 0.000000
0.000000 0.577451 0.137255
0.000000 0.581862 0.143627
0.000000 0.580392 0.146078
0.000000 0.573529 0.151471
0.060784 0.570588 0.157843
0.211765 0.567647 0.159314
0.309804 0.568628 0.147059
0.409804 0.571569 0.133333
0.491177 0.572549 0.115686
0.575490 0.573529 0.082353
0.652941 0.581373 0.050980
0.716667 0.584804 0.021078
0.768628 0.585294 0.008823
0.821078 0.587745 0.002451
0.866667 0.588235 0.000000
0.918627 0.587255 0.000000
0.970588 0.592157 0.000000
0.000000 0.621568 0.170588
0.000000 0.626470 0.177451
0.000000 0.623529 0.180392
0.000000 0.619608 0.183333
0.127451 0.615686 0.188235
0.226471 0.609804 0.192157
0.311764 0.609804 0.188235
0.405883 0.613726 0.179412
0.480392 0.615686 0.164706
0.560784 0.615686 0.146079
0.621568 0.621568 0.135295
0.697059 0.625490 0.096078
0.754902 0.635294 0.076470
0.807843 0.634314 0.037255
0.854902 0.635294 0.017647
0.905883 0.637255 0.000981
0.960784 0.641177 0.000000
0.000000 0.665686 0.210784
0.000000 0.670589 0.218137
0.000000 0.668627 0.219608
0.080882 0.664216 0.219608
0.180392 0.658824 0.225490
0.261765 0.656373 0.231373
0.328432 0.652942 0.230392
0.409314 0.654902 0.224020
0.476471 0.654902 0.211765
0.547549 0.660294 0.203922
0.611765 0.662745 0.190196
0.674510 0.667157 0.174510
0.735294 0.670588 0.150000
0.791667 0.677941 0.134804
0.843137 0.683334 0.113726
0.896569 0.689216 0.093627
0.952941 0.694118 0.075490
0.000000 0.707843 0.250980
0.056863 0.710784 0.254902
0.129412 0.713726 0.260784
0.181372 0.706862 0.259804
0.243137 0.705882 0.264706
0.300981 0.700980 0.270589
0.354902 0.698039 0.278431
0.422549 0.697059 0.268628
0.482353 0.698039 0.260784
0.548039 0.702941 0.255883
0.605882 0.705882 0.249020
0.660784 0.705882 0.231373
0.717647 0.707843 0.211765
0.770588 0.711765 0.197059
0.833333 0.725490 0.186275
0.887255 0.732353 0.175490
0.945098 0.743137 0.176471
0.189216 0.758823 0.306862
0.205882 0.757353 0.306863
0.227451 0.754902 0.306863
0.269118 0.757843 0.312745
0.298039 0.749019 0.309804
0.351471 0.750490 0.319118
0.393137 0.746078 0.323529
0.444118 0.745098 0.325490
0.495098 0.746078 0.319608
0.553431 0.746569 0.310784
0.603922 0.751961 0.304902
0.658333 0.752451 0.294118
0.708824 0.760784 0.288235
0.762255 0.760294 0.269118
0.813725 0.765686 0.254902
0.879412 0.778431 0.244118
0.942157 0.794118 0.253922
0.274509 0.801961 0.352942
0.288235 0.803922 0.357843
0.301961 0.803922 0.358823
0.329412 0.801961 0.360784
0.356863 0.803922 0.364706
0.394118 0.799019 0.370588
0.429412 0.800000 0.378432
0.468627 0.793137 0.378432
0.513725 0.792157 0.376471
0.565686 0.798039 0.372549
0.611765 0.800000 0.366667
0.657843 0.803922 0.359804
0.705882 0.803922 0.349020
0.758824 0.810785 0.338236
0.811764 0.815686 0.327451
0.863726 0.818628 0.311765
0.937255 0.839216 0.305883
0.347059 0.862745 0.422549
0.359804 0.864216 0.428431
0.371568 0.864706 0.430392
0.386765 0.862745 0.429902
0.413726 0.865687 0.439216
0.440196 0.861765 0.439706
0.470588 0.862745 0.448039
0.502451 0.854412 0.448529
0.541176 0.859804 0.458824
0.582843 0.862255 0.454412
0.618627 0.860784 0.445098
0.667157 0.865687 0.439706
0.711765 0.869608 0.433333
0.761765 0.873529 0.424510
0.809804 0.877451 0.415686
0.866667 0.883333 0.405392
0.925490 0.887255 0.394118
0.415686 0.925490 0.503922
0.422549 0.926470 0.504902
0.431373 0.925490 0.505882
0.445098 0.927451 0.508823
0.466667 0.929412 0.515686
0.488235 0.925490 0.517647
0.509804 0.925490 0.523529
0.543137 0.925490 0.531373
0.572549 0.921569 0.539216
0.607843 0.925490 0.540196
0.643137 0.931372 0.537254
0.685294 0.934314 0.534314
0.727451 0.939215 0.531373
0.775490 0.943137 0.526471
0.823529 0.947059 0.523529
0.882353 0.954902 0.519608
0.941176 0.960784 0.515686
0.019608 0.011765 0.086275
0.049019 0.011765 0.086275
0.094118 0.011765 0.090196
0.152942 0.003921 0.090196
0.235294 0.000000 0.090196
0.343137 0.000000 0.094118
0.435294 0.000000 0.098039
0.529411 0.000000 0.113726
0.615686 0.000000 0.117647
0.700000 0.000000 0.111765
0.764706 0.000000 0.113725
0.815686 0.000000 0.125491
0.854902 0.011765 0.117647
0.896079 0.100000 0.131373
0.933333 0.156863 0.141176
0.972549 0.203922 0.145098
1.000000 0.250980 0.164706
0.001961 0.049020 0.094118
0.038235 0.050980 0.094118
0.086275 0.058824 0.101961
0.160784 0.053922 0.093137
0.243138 0.047059 0.100000
0.342157 0.038235 0.100981
0.437255 0.023529 0.105882
0.532353 0.011765 0.110784
0.621568 0.000000 0.105882
0.696078 0.000000 0.110784
0.758823 0.005882 0.113726
0.811765 0.031372 0.114706
0.854902 0.084314 0.117647
0.893137 0.132353 0.129412
0.931372 0.178432 0.139215
0.974510 0.224510 0.144118
1.000000 0.266667 0.158824
0.000000 0.105882 0.098039
0.015686 0.111765 0.101961
0.074510 0.113725 0.098039
0.164706 0.117647 0.101961
0.243137 0.113725 0.109804
0.341176 0.107843 0.100000
0.435294 0.105882 0.101961
0.529411 0.090196 0.098039
0.619608 0.082353 0.101961
0.694117 0.070588 0.109803
0.756863 0.082353 0.105882
0.807843 0.115686 0.111765
0.854902 0.141176 0.113725
0.894117 0.182353 0.129412
0.933333 0.219608 0.129412
0.974509 0.254902 0.145098
1.000000 0.290196 0.156863
0.000000 0.190196 0.107843
0.002941 0.189215 0.107843
0.047059 0.180392 0.103921
0.142157 0.186275 0.104902
0.237255 0.184314 0.092157
0.347059 0.188235 0.090196
0.435294 0.180392 0.094118
0.533333 0.177451 0.095098
0.619608 0.176471 0.088235
0.694117 0.176471 0.094118
0.750981 0.178432 0.092157
0.804902 0.195098 0.102941
0.847059 0.209804 0.101961
0.889215 0.238235 0.114706
0.927451 0.266667 0.125490
0.966667 0.289216 0.131373
1.000000 0.321569 0.152942
0.000000 0.270588 0.109804
0.000000 0.258824 0.113725
0.000000 0.254902 0.113725
0.103922 0.252941 0.111765
0.219608 0.258824 0.094118
0.339216 0.264706 0.086275
0.435294 0.262745 0.086275
0.539216 0.258823 0.068628
0.611765 0.250980 0.066667
0.686274 0.258824 0.072549
0.741176 0.262745 0.070588
0.796079 0.260784 0.084314
0.839216 0.274510 0.098039
0.884313 0.292157 0.096078
0.921569 0.309804 0.105882
0.960784 0.333333 0.125490
1.000000 0.372549 0.152941
0.000000 0.341176 0.111765
0.000000 0.342157 0.115686
0.000000 0.333333 0.117647
0.050980 0.329412 0.120589
0.178431 0.341176 0.115686
0.310785 0.343137 0.103921
0.417647 0.352941 0.090196
0.521569 0.344118 0.067647
0.601961 0.339216 0.047059
0.674510 0.334314 0.031372
0.729411 0.333334 0.033334
0.787255 0.334313 0.047059
0.827451 0.343137 0.060784
0.874510 0.354902 0.076471
0.913725 0.366667 0.084314
0.953921 0.388236 0.102941
0.996078 0.403921 0.127450
0.000000 0.411765 0.121569
0.000000 0.415686 0.121569
0.000000 0.411765 0.133333
0.027451 0.403922 0.133333
0.145098 0.411765 0.129412
0.286274 0.409804 0.121568
0.380392 0.411765 0.094118
0.503922 0.423530 0.070588
0.584314 0.419608 0.062745
0.656863 0.409804 0.037255
0.717647 0.400000 0.011765
0.770588 0.398039 0.001961
0.819608 0.403922 0.027451
0.862745 0.419608 0.029412
0.905882 0.423529 0.050980
0.943137 0.433334 0.086275
0.992157 0.458824 0.105882
0.000000 0.484314 0.133333
0.000000 0.481372 0.137255
0.000000 0.482353 0.141177
0.001961 0.471569 0.150000
0.125491 0.462745 0.149019
0.252941 0.470589 0.144118
0.350980 0.476471 0.129412
0.460784 0.478431 0.109804
0.556863 0.482353 0.078432
0.638235 0.483333 0.056863
0.696079 0.476471 0.019608
0.752941 0.468627 0.001961
0.803921 0.464706 0.000000
0.850000 0.470588 0.000000
0.892157 0.478432 0.013725
0.936275 0.489216 0.027451
0.982353 0.501961 0.070588
0.000000 0.529412 0.156863
0.000000 0.537255 0.160784
0.000000 0.533333 0.164706
0.000000 0.531373 0.170588
0.125490 0.521569 0.176471
0.231372 0.525490 0.164706
0.333333 0.525490 0.160784
0.431372 0.527451 0.139215
0.525490 0.533333 0.121569
0.607843 0.533334 0.094118
0.674510 0.541176 0.086275
0.735294 0.533334 0.037255
0.784314 0.529412 0.000000
0.837255 0.525490 0.000000
0.882353 0.525490 0.000000
0.931372 0.533334 0.000000
0.976471 0.545098 0.019608
0.000000 0.580392 0.176471
0.000000 0.586275 0.185294
0.000000 0.580392 0.184314
0.011765 0.577451 0.190196
0.123529 0.574510 0.194118
0.235294 0.570588 0.198039
0.325490 0.570588 0.194117
0.415686 0.574510 0.177451
0.505883 0.576470 0.164706
0.578431 0.577451 0.146079
0.650980 0.584313 0.123530
0.716667 0.586275 0.104902
0.772549 0.582353 0.068627
0.820588 0.584314 0.045098
0.866667 0.584313 0.023529
0.918628 0.587255 0.002941
0.968627 0.596078 0.000000
0.000000 0.627451 0.207843
0.000000 0.631373 0.213726
0.000000 0.623529 0.211765
0.043138 0.623529 0.217647
0.152941 0.619608 0.219608
0.241176 0.613725 0.225490
0.325490 0.611765 0.219608
0.413725 0.611765 0.211765
0.486275 0.615686 0.203922
0.560784 0.619607 0.192157
0.627451 0.619608 0.172549
0.692157 0.627451 0.156863
0.756863 0.631373 0.137255
0.813725 0.635294 0.119608
0.850980 0.639216 0.101961
0.905883 0.637255 0.064706
0.960784 0.643137 0.031373
0.000000 0.668627 0.239216
0.006863 0.670589 0.244118
0.027451 0.670589 0.245098
0.125490 0.666667 0.248039
0.205882 0.664706 0.252941
0.274510 0.659804 0.256863
0.343137 0.656862 0.260784
0.414706 0.655883 0.251961
0.484314 0.656862 0.241177
0.550980 0.660784 0.234314
0.615686 0.666667 0.225490
0.674510 0.667647 0.209804
0.733333 0.668627 0.192157
0.793137 0.680392 0.178431
0.843137 0.688236 0.170589
0.897059 0.689216 0.146079
0.950981 0.694118 0.133333
0.050980 0.709804 0.274510
0.107843 0.709804 0.278431
0.149020 0.709804 0.278431
0.203922 0.707843 0.284314
0.250980 0.705882 0.282353
0.311765 0.703921 0.290196
0.368627 0.694118 0.294118
0.429412 0.698039 0.292157
0.486275 0.698039 0.290196
0.549019 0.701961 0.276470
0.603922 0.701961 0.270588
0.658824 0.703921 0.256862
0.721569 0.709804 0.243137
0.778431 0.713726 0.223529
0.831373 0.725490 0.215686
0.886274 0.733333 0.207844
0.945098 0.737255 0.200000
0.213725 0.762745 0.329412
0.226470 0.759804 0.328431
0.247058 0.760784 0.329412
0.284313 0.758824 0.333333
0.317647 0.754902 0.333333
0.354902 0.748039 0.332353
0.401960 0.750980 0.343137
0.443137 0.741176 0.338235
0.498039 0.743138 0.333334
0.554902 0.748039 0.332353
0.603922 0.749019 0.321569
0.659804 0.754902 0.316666
0.707843 0.752941 0.300000
0.760784 0.760784 0.290196
0.811764 0.760784 0.272549
0.879412 0.779412 0.269608
0.939215 0.788236 0.270588
0.282353 0.803922 0.368627
0.296079 0.805883 0.374510
0.309804 0.803922 0.372549
0.335294 0.803922 0.376471
0.360784 0.803922 0.380392
0.400000 0.800000 0.382353
0.435294 0.796078 0.388235
0.474510 0.794118 0.394118
0.517647 0.792157 0.392157
0.560785 0.796078 0.386274
0.607843 0.796078 0.380392
0.654902 0.801961 0.374510
0.705882 0.811765 0.376471
0.756862 0.811765 0.356862
0.807843 0.815686 0.345098
0.872549 0.819608 0.327451
0.937255 0.847059 0.333333
0.349020 0.860785 0.429412
0.359804 0.863726 0.436275
0.368627 0.860785 0.435295
0.393138 0.865686 0.443137
0.411764 0.860785 0.439215
0.440196 0.859804 0.446078
0.466666 0.856863 0.450980
0.502941 0.853921 0.456863
0.541176 0.854902 0.460785
0.580392 0.856862 0.456863
0.625490 0.864706 0.456863
0.667647 0.865687 0.449020
0.711765 0.872549 0.447059
0.758823 0.874510 0.437255
0.811764 0.884313 0.437255
0.867647 0.881373 0.414706
0.925490 0.890196 0.407843
0.419608 0.929412 0.509804
0.425490 0.929412 0.509804
0.435294 0.929412 0.513725
0.449020 0.929412 0.517647
0.462745 0.925490 0.517647
0.488235 0.925490 0.523529
0.513725 0.929412 0.533333
0.543137 0.925490 0.537254
0.572549 0.925490 0.545098
0.607843 0.925490 0.545098
0.647059 0.933333 0.545098
0.682353 0.933333 0.539216
0.725490 0.937255 0.537255
0.778431 0.943137 0.537255
0.823529 0.945098 0.529412
0.882353 0.954902 0.527451
0.941176 0.960784 0.521569
0.015686 0.013725 0.158824
0.053921 0.015686 0.160784
0.096078 0.015686 0.166666
0.159803 0.013725 0.166667
0.231372 0.001961 0.160784
0.350000 0.000000 0.168627
0.452941 0.000000 0.168627
0.543137 0.000000 0.170588
0.633333 0.000000 0.180392
0.700981 0.000000 0.188235
0.760784 0.000000 0.201961
0.812745 0.054902 0.209804
0.852941 0.101960 0.205882
0.896079 0.154902 0.214706
0.931372 0.194117 0.223529
0.971569 0.236275 0.227451
1.000000 0.274510 0.237255
0.003922 0.052941 0.163725
0.040686 0.060784 0.167157
0.098039 0.061765 0.162745
