luts/Soft Graphite BW.CUBE
# kravix mobile - LUTs Pack
LUT_3D_SIZE 17
0.000000 0.000000 0.000000
0.001465 0.001465 0.001465
0.000397 0.000397 0.000397
0.000732 0.000732 0.000732
0.000885 0.000885 0.000885
0.001190 0.001190 0.001190
0.001465 0.001465 0.001465
0.001648 0.001648 0.001648
0.001953 0.001953 0.001953
0.002258 0.002258 0.002258
0.002502 0.002502 0.002502
0.002838 0.002838 0.002838
0.003143 0.003143 0.003143
0.003540 0.003540 0.003540
0.003906 0.003906 0.003906
0.004333 0.004333 0.004333
0.004700 0.004700 0.004700
0.000793 0.000793 0.000793
0.003143 0.003143 0.003143
0.003540 0.003540 0.003540
0.003906 0.003906 0.003906
0.004364 0.004364 0.004364
0.004944 0.004944 0.004944
0.005371 0.005371 0.005371
0.006042 0.006042 0.006042
0.006500 0.006500 0.006500
0.007172 0.007172 0.007172
0.007843 0.007843 0.007843
0.008545 0.008545 0.008545
0.009369 0.009369 0.009369
0.010223 0.010223 0.010223
0.011078 0.011078 0.011078
0.012207 0.012207 0.012207
0.013367 0.013367 0.013367
0.001953 0.001953 0.001953
0.005005 0.005005 0.005005
0.010498 0.010498 0.010498
0.011566 0.011566 0.011566
0.012512 0.012512 0.012512
0.013611 0.013611 0.013611
0.014771 0.014771 0.014771
0.016113 0.016113 0.016113
0.017365 0.017365 0.017365
0.018860 0.018860 0.018860
0.020386 0.020386 0.020386
0.022186 0.022186 0.022186
0.023926 0.023926 0.023926
0.025970 0.025970 0.025970
0.028046 0.028046 0.028046
0.030273 0.030273 0.030273
0.032623 0.032623 0.032623
0.003143 0.003143 0.003143
0.007263 0.007263 0.007263
0.014771 0.014771 0.014771
0.028412 0.028412 0.028412
0.030945 0.030945 0.030945
0.033386 0.033386 0.033386
0.036041 0.036041 0.036041
0.038879 0.038879 0.038879
0.041718 0.041718 0.041718
0.044739 0.044739 0.044739
0.047852 0.047852 0.047852
0.051025 0.051025 0.051025
0.054321 0.054321 0.054321
0.057861 0.057861 0.057861
0.061310 0.061310 0.061310
0.064880 0.064880 0.064880
0.068787 0.068787 0.068787
0.004913 0.004913 0.004913
0.010315 0.010315 0.010315
0.020447 0.020447 0.020447
0.038879 0.038879 0.038879
0.065643 0.065643 0.065643
0.069336 0.069336 0.069336
0.073181 0.073181 0.073181
0.077148 0.077148 0.077148
0.081177 0.081177 0.081177
0.085266 0.085266 0.085266
0.089508 0.089508 0.089508
0.093872 0.093872 0.093872
0.098236 0.098236 0.098236
0.102844 0.102844 0.102844
0.107513 0.107513 0.107513
0.112244 0.112244 0.112244
0.117035 0.117035 0.117035
0.006927 0.006927 0.006927
0.014618 0.014618 0.014618
0.028168 0.028168 0.028168
0.051208 0.051208 0.051208
0.081268 0.081268 0.081268
0.118103 0.118103 0.118103
0.123138 0.123138 0.123138
0.128265 0.128265 0.128265
0.133606 0.133606 0.133606
0.138916 0.138916 0.138916
0.144440 0.144440 0.144440
0.150085 0.150085 0.150085
0.155823 0.155823 0.155823
0.161743 0.161743 0.161743
0.167755 0.167755 0.167755
0.173920 0.173920 0.173920
0.180145 0.180145 0.180145
0.010193 0.010193 0.010193
0.020233 0.020233 0.020233
0.038300 0.038300 0.038300
0.065094 0.065094 0.065094
0.098419 0.098419 0.098419
0.138977 0.138977 0.138977
0.187714 0.187714 0.187714
0.194153 0.194153 0.194153
0.200836 0.200836 0.200836
0.207642 0.207642 0.207642
0.214478 0.214478 0.214478
0.221466 0.221466 0.221466
0.228546 0.228546 0.228546
0.235718 0.235718 0.235718
0.242950 0.242950 0.242950
0.250336 0.250336 0.250336
0.257782 0.257782 0.257782
0.014374 0.014374 0.014374
0.027710 0.027710 0.027710
0.050537 0.050537 0.050537
0.080566 0.080566 0.080566
0.117279 0.117279 0.117279
0.161865 0.161865 0.161865
0.214569 0.214569 0.214569
0.274231 0.274231 0.274231
0.281921 0.281921 0.281891
0.289734 0.289734 0.289703
0.297577 0.297607 0.297546
0.305481 0.305511 0.305450
0.313507 0.313538 0.313477
0.321472 0.321533 0.321472
0.329681 0.329712 0.329651
0.337799 0.337830 0.337738
0.346008 0.346100 0.346008
0.019867 0.019867 0.019867
0.037872 0.037872 0.037872
0.064453 0.064453 0.064453
0.097656 0.097656 0.097656
0.138092 0.138092 0.138092
0.186768 0.186768 0.186768
0.243134 0.243134 0.243134
0.305603 0.305634 0.305573
0.372284 0.372375 0.372284
0.380676 0.380737 0.380646
0.389099 0.389191 0.389099
0.397614 0.397675 0.397614
0.406128 0.406219 0.406128
0.414642 0.414734 0.414642
0.423279 0.423340 0.423279
0.431854 0.431915 0.431854
0.440430 0.440491 0.440430
0.027466 0.027466 0.027466
0.050262 0.050262 0.050262
0.079956 0.079956 0.079956
0.116547 0.116547 0.116547
0.160919 0.160919 0.160919
0.213562 0.213562 0.213562
0.273193 0.273193 0.273163
0.337952 0.338013 0.337921
0.406219 0.406311 0.406219
0.476349 0.476440 0.476349
0.485046 0.485138 0.485046
0.493683 0.493774 0.493683
0.502411 0.502472 0.502380
0.511047 0.511108 0.511047
0.519745 0.519806 0.519714
0.528381 0.528442 0.528351
0.537018 0.537079 0.536987
0.037506 0.037506 0.037506
0.064270 0.064270 0.064270
0.097046 0.097046 0.097046
0.137360 0.137360 0.137360
0.185791 0.185791 0.185791
0.242065 0.242065 0.242065
0.304413 0.304443 0.304382
0.371155 0.371216 0.371124
0.440643 0.440704 0.440643
0.511169 0.511261 0.511169
0.581177 0.581268 0.581177
0.589661 0.589752 0.589630
0.598175 0.598236 0.598145
0.606598 0.606689 0.606598
0.614990 0.615082 0.614990
0.623291 0.623413 0.623291
0.631653 0.631744 0.631653
0.049683 0.049683 0.049683
0.079712 0.079712 0.079712
0.115906 0.115906 0.115906
0.160095 0.160095 0.160095
0.212555 0.212555 0.212555
0.272064 0.272064 0.272064
0.336761 0.336823 0.336731
0.405029 0.405121 0.405029
0.475281 0.475342 0.475281
0.545807 0.545898 0.545776
0.615082 0.615173 0.615082
0.681427 0.681519 0.681396
0.689240 0.689331 0.689240
0.696991 0.697113 0.696991
0.704742 0.704865 0.704712
0.712402 0.712524 0.712402
0.719940 0.720032 0.719910
0.063782 0.063782 0.063782
0.096649 0.096649 0.096649
0.136627 0.136627 0.136627
0.184814 0.184814 0.184814
0.240997 0.240997 0.240997
0.303406 0.303436 0.303375
0.370026 0.370117 0.369995
0.439453 0.439514 0.439453
0.510010 0.510071 0.509979
0.580139 0.580231 0.580139
0.648224 0.648315 0.648193
0.712524 0.712646 0.712524
0.771149 0.771271 0.771118
0.777924 0.778046 0.777893
0.784607 0.784698 0.784576
0.791107 0.791229 0.791107
0.797546 0.797668 0.797516
0.078979 0.078979 0.078979
0.115540 0.115540 0.115540
0.159393 0.159393 0.159393
0.211731 0.211731 0.211731
0.271027 0.271027 0.271027
0.335693 0.335754 0.335663
0.403839 0.403931 0.403839
0.474121 0.474182 0.474121
0.544678 0.544739 0.544647
0.614014 0.614105 0.613983
0.680481 0.680603 0.680481
0.742310 0.742401 0.742279
0.797607 0.797729 0.797577
0.844788 0.844910 0.844757
0.850037 0.850159 0.850006
0.855103 0.855225 0.855103
0.860138 0.860260 0.860107
0.096252 0.096252 0.096252
0.136566 0.136566 0.136566
0.184143 0.184143 0.184143
0.240143 0.240143 0.240143
0.302338 0.302338 0.302307
0.368927 0.368988 0.368896
0.438232 0.438324 0.438232
0.508911 0.508972 0.508881
0.579071 0.579163 0.579071
0.647186 0.647278 0.647156
0.711578 0.711700 0.711548
0.770447 0.770569 0.770447
0.822021 0.822144 0.821991
0.865082 0.865204 0.865051
0.900208 0.900360 0.900208
0.904053 0.904205 0.904022
0.907745 0.907867 0.907715
0.115295 0.115295 0.115295
0.159180 0.159180 0.159180
0.210938 0.210938 0.210938
0.270081 0.270081 0.270081
0.334656 0.334717 0.334625
0.402832 0.402924 0.402832
0.472961 0.473022 0.472961
0.543579 0.543640 0.543549
0.612946 0.613037 0.612946
0.679474 0.679596 0.679474
0.741425 0.741516 0.741394
0.796875 0.796997 0.796844
0.844299 0.844391 0.844269
0.883362 0.883514 0.883362
0.914948 0.915100 0.914917
0.939850 0.940002 0.939850
0.942566 0.942688 0.942535
0.136414 0.136414 0.136414
0.184296 0.184296 0.184296
0.239441 0.239441 0.239441
0.301575 0.301575 0.301514
0.367950 0.368042 0.367920
0.437195 0.437286 0.437195
0.507812 0.507874 0.507782
0.578003 0.578125 0.578003
0.646210 0.646301 0.646179
0.710632 0.710754 0.710602
0.769714 0.769836 0.769684
0.821320 0.821442 0.821289
0.864563 0.864685 0.864532
0.899841 0.899994 0.899811
0.928040 0.928162 0.928009
0.950073 0.950195 0.950043
0.966705 0.966858 0.966705
0.001160 0.001160 0.001160
0.002716 0.002716 0.002716
0.003113 0.003113 0.003113
0.003510 0.003510 0.003510
0.003876 0.003876 0.003876
0.004272 0.004272 0.004272
0.004761 0.004761 0.004761
0.005310 0.005310 0.005310
0.005737 0.005737 0.005737
0.006378 0.006378 0.006378
0.006989 0.006989 0.006989
0.007660 0.007660 0.007660
0.008270 0.008270 0.008270
0.009094 0.009094 0.009094
0.010132 0.010132 0.010132
0.010986 0.010986 0.010986
0.012207 0.012207 0.012207
0.003113 0.003113 0.003113
0.003876 0.003876 0.003876
0.004608 0.004608 0.004608
0.005005 0.005005 0.005005
0.005493 0.005493 0.005493
0.006104 0.006104 0.006104
0.006592 0.006592 0.006592
0.007294 0.007294 0.007294
0.007965 0.007965 0.007965
0.008728 0.008728 0.008728
0.009521 0.009521 0.009521
0.010529 0.010529 0.010529
0.011414 0.011414 0.011414
0.012573 0.012573 0.012573
0.013763 0.013763 0.013763
0.014923 0.014923 0.014923
0.016083 0.016083 0.016083
0.004669 0.004669 0.004669
0.006134 0.006134 0.006134
0.012817 0.012817 0.012817
0.013947 0.013947 0.013947
0.015076 0.015076 0.015076
0.016296 0.016296 0.016296
0.017731 0.017731 0.017731
0.019257 0.019257 0.019257
0.020782 0.020782 0.020782
0.022400 0.022400 0.022400
0.024323 0.024323 0.024323
0.026245 0.026245 0.026245
0.028412 0.028412 0.028412
0.030701 0.030701 0.030701
0.033142 0.033142 0.033142
0.035767 0.035767 0.035767
0.038727 0.038727 0.038727
0.006927 0.006927 0.006927
0.008850 0.008850 0.008850
0.017761 0.017761 0.017761
0.033813 0.033813 0.033813
0.036469 0.036469 0.036469
0.039337 0.039337 0.039337
0.042145 0.042145 0.042145
0.045319 0.045319 0.045319
0.048401 0.048401 0.048401
0.051605 0.051605 0.051605
0.054932 0.054932 0.054932
0.058472 0.058472 0.058472
0.061981 0.061981 0.061981
0.065521 0.065521 0.065521
0.069336 0.069336 0.069336
0.073120 0.073120 0.073120
0.076935 0.076935 0.076935
0.010071 0.010071 0.010071
0.012451 0.012451 0.012451
0.024292 0.024292 0.024292
0.045258 0.045258 0.045258
0.073761 0.073761 0.073761
0.077759 0.077759 0.077759
0.081787 0.081787 0.081787
0.085968 0.085968 0.085968
0.090210 0.090210 0.090210
0.094543 0.094543 0.094543
0.098999 0.098999 0.098999
0.103546 0.103546 0.103546
0.108276 0.108276 0.108276
0.113007 0.113007 0.113007
0.117889 0.117889 0.117889
0.122986 0.122986 0.122986
0.128113 0.128113 0.128113
0.014221 0.014221 0.014221
0.017365 0.017365 0.017365
0.033264 0.033264 0.033264
0.058502 0.058502 0.058502
0.090210 0.090210 0.090210
0.129120 0.129120 0.129120
0.134399 0.134399 0.134399
0.139801 0.139801 0.139801
0.145325 0.145325 0.145325
0.151001 0.151001 0.151001
0.156799 0.156799 0.156799
0.162750 0.162750 0.162750
0.168762 0.168762 0.168762
0.174927 0.174927 0.174927
0.181183 0.181183 0.181183
0.187622 0.187622 0.187622
0.194153 0.194153 0.194153
0.019836 0.019836 0.019836
0.024078 0.024078 0.024078
0.044800 0.044800 0.044800
0.073181 0.073181 0.073181
0.108337 0.108337 0.108337
0.151093 0.151093 0.151093
0.201935 0.201935 0.201935
0.208679 0.208679 0.208679
0.215576 0.215576 0.215576
0.222565 0.222565 0.222565
0.229675 0.229675 0.229675
0.236847 0.236847 0.236847
0.244141 0.244141 0.244141
0.251465 0.251465 0.251465
0.258942 0.258942 0.258942
0.266510 0.266510 0.266510
0.274139 0.274139 0.274109
0.027069 0.027069 0.027069
0.033051 0.033051 0.033051
0.057831 0.057831 0.057831
0.089630 0.089630 0.089630
0.128326 0.128326 0.128326
0.175049 0.175049 0.175049
0.229767 0.229767 0.229767
0.290924 0.290955 0.290894
0.298798 0.298798 0.298737
0.306702 0.306732 0.306702
0.314697 0.314728 0.314667
0.322754 0.322815 0.322723
0.330841 0.330902 0.330841
0.339050 0.339111 0.339020
0.347260 0.347321 0.347229
0.355530 0.355591 0.355499
0.363861 0.363922 0.363831
0.036987 0.036987 0.036987
0.044495 0.044495 0.044495
0.072662 0.072662 0.072662
0.107666 0.107666 0.107666
0.150177 0.150177 0.150177
0.200958 0.200958 0.200958
0.259094 0.259094 0.259094
0.322876 0.322906 0.322845
0.390411 0.390503 0.390411
0.398895 0.398987 0.398895
0.407410 0.407501 0.407410
0.415955 0.416046 0.415955
0.424500 0.424591 0.424500
0.433136 0.433228 0.433136
0.441742 0.441803 0.441742
0.450378 0.450439 0.450378
0.459045 0.459106 0.459045
0.049194 0.049194 0.049194
0.057495 0.057495 0.057495
0.088989 0.088989 0.088989
0.127563 0.127563 0.127563
0.174011 0.174011 0.174011
0.228668 0.228668 0.228668
0.289764 0.289795 0.289734
0.355682 0.355774 0.355682
0.424652 0.424713 0.424652
0.495026 0.495087 0.494995
0.503662 0.503754 0.503632
0.512329 0.512390 0.512299
0.521027 0.521088 0.520996
0.529694 0.529755 0.529663
0.538300 0.538361 0.538269
0.546936 0.546997 0.546906
0.555542 0.555634 0.555542
0.063049 0.063049 0.063049
0.072205 0.072205 0.072205
0.106964 0.106964 0.106964
0.149323 0.149323 0.149323
0.199982 0.199982 0.199982
0.258057 0.258057 0.258057
0.321686 0.321716 0.321655
0.389313 0.389374 0.389313
0.459167 0.459259 0.459167
0.529816 0.529907 0.529816
0.599396 0.599487 0.599396
0.607788 0.607880 0.607788
0.616180 0.616272 0.616180
0.624512 0.624603 0.624512
0.632812 0.632904 0.632812
0.641083 0.641174 0.641052
0.649292 0.649384 0.649261
0.078186 0.078186 0.078186
0.088684 0.088684 0.088684
0.126740 0.126740 0.126740
0.173157 0.173157 0.173157
0.227692 0.227692 0.227692
0.288757 0.288757 0.288727
0.354492 0.354553 0.354462
0.423492 0.423553 0.423492
0.493927 0.494019 0.493927
0.564301 0.564362 0.564270
0.632965 0.633057 0.632935
0.698090 0.698212 0.698059
0.705841 0.705963 0.705841
0.713470 0.713562 0.713440
0.721069 0.721161 0.721039
0.728516 0.728607 0.728485
0.735840 0.735962 0.735840
0.095154 0.095154 0.095154
0.106476 0.106476 0.106476
0.148499 0.148499 0.148499
0.199066 0.199066 0.199066
0.256927 0.256927 0.256927
0.320587 0.320618 0.320557
0.388123 0.388214 0.388123
0.458008 0.458099 0.458008
0.528656 0.528748 0.528656
0.598358 0.598450 0.598358
0.665619 0.665710 0.665588
0.728638 0.728729 0.728607
0.785492 0.785583 0.785461
0.791992 0.792114 0.791962
0.798401 0.798523 0.798370
0.804657 0.804779 0.804657
0.810791 0.810913 0.810760
0.113800 0.113800 0.113800
0.126343 0.126343 0.126343
0.172394 0.172394 0.172394
0.226746 0.226746 0.226746
0.287628 0.287628 0.287628
0.353455 0.353516 0.353424
0.422333 0.422394 0.422333
0.492767 0.492859 0.492767
0.563171 0.563232 0.563141
0.631836 0.631958 0.631836
0.697266 0.697357 0.697235
0.757538 0.757660 0.757507
0.810913 0.811035 0.810883
0.855804 0.855927 0.855774
0.860779 0.860931 0.860779
0.865662 0.865784 0.865631
0.870331 0.870483 0.870331
0.134369 0.134369 0.134369
0.148102 0.148102 0.148102
0.198303 0.198303 0.198303
0.256104 0.256104 0.256104
0.319550 0.319580 0.319519
0.387024 0.387115 0.387024
0.456848 0.456909 0.456848
0.527557 0.527618 0.527527
0.597321 0.597412 0.597290
0.664612 0.664734 0.664612
0.727753 0.727844 0.727722
0.784790 0.784912 0.784760
0.834137 0.834259 0.834106
0.875061 0.875183 0.875031
0.908234 0.908356 0.908203
0.911835 0.911957 0.911804
0.915375 0.915497 0.915344
0.157043 0.157043 0.157043
0.172089 0.172089 0.172089
0.225983 0.225983 0.225983
0.286713 0.286713 0.286713
0.352325 0.352417 0.352295
0.421204 0.421295 0.421204
0.491638 0.491730 0.491638
0.562073 0.562164 0.562042
0.630829 0.630920 0.630829
0.696320 0.696411 0.696289
0.756622 0.756744 0.756622
0.810211 0.810333 0.810181
0.855316 0.855438 0.855316
0.892334 0.892487 0.892303
0.922119 0.922241 0.922089
0.945435 0.945587 0.945404
0.947937 0.948059 0.947906
0.181519 0.181519 0.181519
0.198364 0.198364 0.198364
0.255493 0.255493 0.255493
0.318604 0.318634 0.318542
0.385956 0.386047 0.385956
0.455872 0.455933 0.455872
0.526398 0.526459 0.526367
0.596283 0.596375 0.596283
0.663605 0.663696 0.663605
0.726837 0.726929 0.726807
0.784027 0.784149 0.784027
0.833527 0.833649 0.833496
0.874542 0.874664 0.874542
0.907898 0.908020 0.907867
0.934418 0.934540 0.934387
0.954895 0.955048 0.954895
0.970306 0.970459 0.970276
0.002686 0.002686 0.002686
0.004669 0.004669 0.004669
0.008423 0.008423 0.008423
0.009186 0.009186 0.009186
0.010010 0.010010 0.010010
0.010895 0.010895 0.010895
0.011902 0.011902 0.011902
0.013000 0.013000 0.013000
0.014160 0.014160 0.014160
0.015289 0.015289 0.015289
0.016541 0.016541 0.016541
0.018005 0.018005 0.018005
0.019531 0.019531 0.019531
0.021088 0.021088 0.021088
0.022919 0.022919 0.022919
0.024780 0.024780 0.024780
0.026794 0.026794 0.026794
0.005371 0.005371 0.005371
0.006592 0.006592 0.006592
0.011292 0.011292 0.011292
0.012482 0.012482 0.012482
0.013550 0.013550 0.013550
0.014709 0.014709 0.014709
0.015839 0.015839 0.015839
0.017334 0.017334 0.017334
0.018829 0.018829 0.018829
0.020386 0.020386 0.020386
0.021912 0.021912 0.021912
0.023804 0.023804 0.023804
0.025757 0.025757 0.025757
0.027740 0.027740 0.027740
0.029968 0.029968 0.029968
0.032288 0.032288 0.032288
0.034973 0.034973 0.034973
0.010010 0.010010 0.010010
0.012482 0.012482 0.012482
0.015198 0.015198 0.015198
0.016663 0.016663 0.016663
0.017822 0.017822 0.017822
0.019348 0.019348 0.019348
0.021149 0.021149 0.021149
0.022797 0.022797 0.022797
0.024658 0.024658 0.024658
0.026733 0.026733 0.026733
0.028870 0.028870 0.028870
0.031158 0.031158 0.031158
0.033661 0.033661 0.033661
0.036316 0.036316 0.036316
0.039215 0.039215 0.039215
0.042114 0.042114 0.042114
0.045197 0.045197 0.045197
0.014313 0.014313 0.014313
0.017365 0.017365 0.017365
0.021179 0.021179 0.021179
0.039795 0.039795 0.039795
0.042633 0.042633 0.042633
0.045746 0.045746 0.045746
0.048920 0.048920 0.048920
0.052155 0.052155 0.052155
0.055511 0.055511 0.055511
0.058899 0.058899 0.058899
0.062531 0.062531 0.062531
0.066162 0.066162 0.066162
0.069885 0.069885 0.069885
0.073669 0.073669 0.073669
0.077667 0.077667 0.077667
0.081665 0.081665 0.081665
0.085754 0.085754 0.085754
0.019592 0.019592 0.019592
0.023804 0.023804 0.023804
0.028778 0.028778 0.028778
0.052063 0.052063 0.052063
0.082428 0.082428 0.082428
0.086548 0.086548 0.086548
0.090881 0.090881 0.090881
0.095184 0.095184 0.095184
0.099670 0.099670 0.099670
0.104309 0.104309 0.104309
0.108978 0.108978 0.108978
0.113800 0.113800 0.113800
0.118683 0.118683 0.118683
0.123810 0.123810 0.123810
0.128906 0.128906 0.128906
0.134216 0.134216 0.134216
0.139587 0.139587 0.139587
0.026794 0.026794 0.026794
0.032562 0.032562 0.032562
0.039246 0.039246 0.039246
0.066254 0.066254 0.066254
0.099792 0.099792 0.099792
0.140656 0.140656 0.140656
0.146240 0.146240 0.146240
0.151886 0.151886 0.151886
0.157684 0.157684 0.157684
0.163635 0.163635 0.163635
0.169647 0.169647 0.169647
0.175873 0.175873 0.175873
0.182159 0.182159 0.182159
0.188568 0.188568 0.188568
0.195129 0.195129 0.195129
0.201782 0.201782 0.201782
0.208557 0.208557 0.208557
0.036591 0.036591 0.036591
0.043854 0.043854 0.043854
0.051605 0.051605 0.051605
0.081848 0.081848 0.081848
0.118835 0.118835 0.118835
0.163727 0.163727 0.163727
0.216614 0.216614 0.216614
0.223602 0.223602 0.223602
0.230682 0.230682 0.230682
0.237885 0.237885 0.237885
0.245178 0.245178 0.245178
0.252594 0.252594 0.252594
0.260040 0.260040 0.260040
0.267609 0.267609 0.267609
0.275238 0.275238 0.275238
0.282959 0.282959 0.282928
0.290741 0.290741 0.290710
0.048706 0.048706 0.048706
0.056885 0.056885 0.056885
0.065643 0.065643 0.065643
0.099060 0.099060 0.099060
0.139771 0.139771 0.139771
0.188721 0.188721 0.188721
0.245331 0.245331 0.245331
0.307861 0.307861 0.307831
0.315887 0.315918 0.315826
0.323914 0.323944 0.323883
0.332031 0.332092 0.332001
0.340179 0.340240 0.340149
0.348450 0.348511 0.348419
0.356720 0.356781 0.356689
0.365051 0.365143 0.365051
0.373413 0.373505 0.373413
0.381836 0.381927 0.381836
0.062469 0.062469 0.062469
0.071442 0.071442 0.071442
0.081207 0.081207 0.081207
0.118042 0.118042 0.118042
0.162689 0.162689 0.162689
0.215668 0.215668 0.215668
0.275421 0.275421 0.275391
0.340332 0.340393 0.340302
0.408600 0.408691 0.408600
0.417145 0.417236 0.417145
0.425751 0.425812 0.425751
0.434326 0.434418 0.434326
0.442963 0.443024 0.442963
0.451569 0.451660 0.451569
0.460266 0.460327 0.460266
0.468903 0.468964 0.468903
0.477570 0.477631 0.477539
0.077606 0.077606 0.077606
0.087677 0.087677 0.087677
0.098328 0.098328 0.098328
0.138977 0.138977 0.138977
0.187683 0.187683 0.187683
0.244232 0.244232 0.244232
0.306732 0.306732 0.306702
0.373596 0.373657 0.373566
0.443054 0.443146 0.443054
0.513550 0.513611 0.513519
0.522217 0.522278 0.522217
0.530853 0.530914 0.530823
0.539490 0.539581 0.539459
0.548096 0.548187 0.548096
0.556732 0.556824 0.556702
0.565308 0.565399 0.565277
0.573822 0.573914 0.573792
0.094452 0.094452 0.094452
0.105560 0.105560 0.105560
0.117340 0.117340 0.117340
0.161926 0.161926 0.161926
0.214569 0.214569 0.214569
0.274261 0.274261 0.274261
0.339111 0.339172 0.339081
0.407471 0.407562 0.407471
0.477753 0.477814 0.477722
0.548218 0.548309 0.548187
0.617310 0.617401 0.617310
0.625641 0.625732 0.625610
0.633942 0.634033 0.633911
0.642181 0.642273 0.642151
0.650330 0.650452 0.650330
0.658478 0.658569 0.658447
0.666534 0.666626 0.666504
0.113068 0.113068 0.113068
0.125183 0.125183 0.125183
0.138245 0.138245 0.138245
0.186829 0.186829 0.186829
0.243164 0.243164 0.243164
0.305634 0.305664 0.305603
0.372375 0.372467 0.372375
0.441864 0.441956 0.441864
0.512482 0.512543 0.512451
0.582520 0.582611 0.582520
0.650482 0.650574 0.650452
0.714478 0.714569 0.714447
0.722046 0.722137 0.722015
0.729462 0.729553 0.729431
0.736816 0.736938 0.736786
0.744080 0.744202 0.744080
0.751251 0.751373 0.751251
0.133423 0.133423 0.133423
0.146851 0.146851 0.146851
0.161041 0.161041 0.161041
0.213654 0.213654 0.213654
0.273224 0.273224 0.273224
0.338043 0.338104 0.338013
0.406281 0.406372 0.406281
0.476562 0.476654 0.476562
0.547089 0.547150 0.547058
0.616302 0.616425 0.616302
0.682617 0.682709 0.682587
0.744202 0.744324 0.744202
0.799164 0.799286 0.799164
0.805420 0.805542 0.805420
0.811554 0.811676 0.811523
0.817566 0.817688 0.817535
0.823425 0.823547 0.823395
0.155853 0.155853 0.155853
0.170532 0.170532 0.170532
0.186066 0.186066 0.186066
0.242218 0.242218 0.242218
0.304565 0.304596 0.304535
0.371246 0.371338 0.371246
0.440704 0.440765 0.440704
0.511292 0.511353 0.511261
0.581421 0.581512 0.581390
0.649414 0.649506 0.649384
0.713593 0.713715 0.713593
0.772247 0.772369 0.772247
0.823517 0.823608 0.823486
0.866211 0.866333 0.866180
0.870941 0.871063 0.870911
0.875519 0.875641 0.875488
0.880005 0.880157 0.879974
0.180420 0.180420 0.180420
0.196075 0.196075 0.196075
0.212921 0.212921 0.212921
0.272308 0.272308 0.272308
0.336975 0.337036 0.336914
0.405182 0.405273 0.405182
0.475372 0.475433 0.475372
0.545990 0.546051 0.545959
0.615234 0.615326 0.615234
0.681580 0.681702 0.681580
0.743286 0.743408 0.743286
0.798523 0.798645 0.798492
0.845642 0.845764 0.845612
0.884460 0.884583 0.884430
0.915771 0.915924 0.915741
0.919159 0.919312 0.919128
0.922455 0.922577 0.922424
0.206757 0.206757 0.206757
0.223755 0.223755 0.223755
0.241425 0.241425 0.241425
0.303711 0.303741 0.303680
0.370209 0.370300 0.370209
0.439606 0.439667 0.439606
0.510162 0.510223 0.510132
0.580322 0.580414 0.580322
0.648407 0.648499 0.648376
0.712708 0.712830 0.712708
0.771423 0.771545 0.771423
0.822845 0.822968 0.822815
0.865753 0.865906 0.865753
0.900787 0.900940 0.900787
0.928802 0.928925 0.928772
0.950592 0.950714 0.950562
0.952911 0.953033 0.952881
0.234955 0.234955 0.234955
0.252869 0.252869 0.252869
0.271637 0.271637 0.271637
0.336060 0.336121 0.336029
0.404236 0.404327 0.404236
0.474365 0.474426 0.474365
0.544891 0.544952 0.544861
0.614166 0.614288 0.614166
0.680664 0.680756 0.680634
0.742432 0.742554 0.742401
0.797821 0.797943 0.797791
0.845032 0.845154 0.845001
0.884003 0.884125 0.884003
0.915436 0.915588 0.915405
0.940308 0.940430 0.940277
0.959381 0.959534 0.959381
0.973602 0.973785 0.973572
0.004303 0.004303 0.004303
0.007660 0.007660 0.007660
0.013092 0.013092 0.013092
0.021149 0.021149 0.021149
0.022766 0.022766 0.022766
0.024597 0.024597 0.024597
0.026703 0.026703 0.026703
0.028778 0.028778 0.028778
0.031067 0.031067 0.031067
0.033630 0.033630 0.033630
0.036255 0.036255 0.036255
0.039093 0.039093 0.039093
0.041992 0.041992 0.041992
0.045135 0.045135 0.045135
0.048187 0.048187 0.048187
0.051422 0.051422 0.051422
0.054749 0.054749 0.054749
0.008423 0.008423 0.008423
0.010468 0.010468 0.010468
0.017334 0.017334 0.017334
