luts/Soft_Pastel_Garden.CUBE
# kravix mobile - LUTs Pack
LUT_3D_SIZE 9
0.000000 0.000000 0.000000
0.082353 0.007843 0.000000
0.227451 0.015686 0.003922
0.423529 0.000000 0.000000
0.615686 0.000000 0.000000
0.764706 0.000000 0.000000
0.858824 0.000000 0.000000
0.941176 0.117647 0.000000
1.000000 0.239216 0.058824
0.000000 0.090196 0.007843
0.062745 0.098039 0.003922
0.227451 0.117647 0.000000
0.423529 0.090196 0.000000
0.619608 0.027451 0.000000
0.764706 0.047059 0.000000
0.854902 0.109804 0.000000
0.937255 0.188235 0.000000
1.000000 0.274510 0.047059
0.000000 0.231373 0.003922
0.000000 0.243137 0.011765
0.184314 0.247059 0.000000
0.415686 0.270588 0.000000
0.607843 0.243137 0.000000
0.745098 0.243137 0.000000
0.843137 0.258824 0.000000
0.921569 0.298039 0.000000
1.000000 0.360784 0.003922
0.000000 0.392157 0.000000
0.000000 0.396078 0.011765
0.094118 0.396078 0.000000
0.364706 0.415686 0.000000
0.576471 0.411765 0.000000
0.717647 0.403922 0.000000
0.823529 0.400000 0.000000
0.905882 0.415686 0.000000
0.996078 0.450980 0.000000
0.000000 0.533333 0.066667
0.000000 0.529412 0.078431
0.015686 0.513725 0.090196
0.313725 0.521569 0.054902
0.509804 0.525490 0.000000
0.682353 0.541176 0.000000
0.784314 0.537255 0.000000
0.882353 0.525490 0.000000
0.976471 0.541176 0.000000
0.000000 0.615686 0.141176
0.000000 0.619608 0.152941
0.078431 0.611765 0.164706
0.313725 0.607843 0.160784
0.474510 0.619608 0.145098
0.623529 0.615686 0.090196
0.752941 0.631373 0.007843
0.854902 0.635294 0.000000
0.960784 0.643137 0.000000
0.000000 0.705882 0.235294
0.098039 0.705882 0.239216
0.223529 0.701961 0.247059
0.345098 0.694118 0.258824
0.478431 0.698039 0.247059
0.603922 0.701961 0.227451
0.717647 0.713725 0.207843
0.835294 0.725490 0.160784
0.945098 0.737255 0.141176
0.278431 0.807843 0.349020
0.298039 0.800000 0.349020
0.352941 0.796078 0.352941
0.431373 0.796078 0.364706
0.509804 0.792157 0.368627
0.607843 0.800000 0.356863
0.705882 0.807843 0.341176
0.807843 0.815686 0.317647
0.937255 0.839216 0.294118
0.415686 0.929412 0.498039
0.431373 0.925490 0.501961
0.462745 0.929412 0.509804
0.513725 0.925490 0.521569
0.576471 0.925490 0.537255
0.643137 0.929412 0.533333
0.729412 0.941176 0.529412
0.827451 0.949020 0.521569
0.941176 0.960784 0.513725
0.019608 0.011765 0.086275
0.094118 0.011765 0.090196
0.235294 0.000000 0.090196
0.435294 0.000000 0.098039
0.615686 0.000000 0.117647
0.764706 0.000000 0.113725
0.854902 0.011765 0.117647
0.933333 0.156863 0.141176
1.000000 0.250980 0.164706
0.000000 0.105882 0.098039
0.074510 0.113725 0.098039
0.243137 0.113725 0.109804
0.435294 0.105882 0.101961
0.619608 0.082353 0.101961
0.756863 0.082353 0.105882
0.854902 0.141176 0.113725
0.933333 0.219608 0.129412
1.000000 0.290196 0.156863
0.000000 0.270588 0.109804
0.000000 0.254902 0.113725
0.219608 0.258824 0.094118
0.435294 0.262745 0.086275
0.611765 0.250980 0.066667
0.741176 0.262745 0.070588
0.839216 0.274510 0.098039
0.921569 0.309804 0.105882
1.000000 0.372549 0.152941
0.000000 0.411765 0.121569
0.000000 0.411765 0.133333
0.145098 0.411765 0.129412
0.380392 0.411765 0.094118
0.584314 0.419608 0.062745
0.717647 0.400000 0.011765
0.819608 0.403922 0.027451
0.905882 0.423529 0.050980
0.992157 0.458824 0.105882
0.000000 0.529412 0.156863
0.000000 0.533333 0.164706
0.125490 0.521569 0.176471
0.333333 0.525490 0.160784
0.525490 0.533333 0.121569
0.674510 0.541176 0.086275
0.784314 0.529412 0.000000
0.882353 0.525490 0.000000
0.976471 0.545098 0.019608
0.000000 0.627451 0.207843
0.000000 0.623529 0.211765
0.152941 0.619608 0.219608
0.325490 0.611765 0.219608
0.486275 0.615686 0.203922
0.627451 0.619608 0.172549
0.756863 0.631373 0.137255
0.850980 0.639216 0.101961
0.960784 0.643137 0.031373
0.050980 0.709804 0.274510
0.149020 0.709804 0.278431
0.250980 0.705882 0.282353
0.368627 0.694118 0.294118
0.486275 0.698039 0.290196
0.603922 0.701961 0.270588
0.721569 0.709804 0.243137
0.831373 0.725490 0.215686
0.945098 0.737255 0.200000
0.282353 0.803922 0.368627
0.309804 0.803922 0.372549
0.360784 0.803922 0.380392
0.435294 0.796078 0.388235
0.517647 0.792157 0.392157
0.607843 0.796078 0.380392
0.705882 0.811765 0.376471
0.807843 0.815686 0.345098
0.937255 0.847059 0.333333
0.419608 0.929412 0.509804
0.435294 0.929412 0.513725
0.462745 0.925490 0.517647
0.513725 0.929412 0.533333
0.572549 0.925490 0.545098
0.647059 0.933333 0.545098
0.725490 0.937255 0.537255
0.823529 0.945098 0.529412
0.941176 0.960784 0.521569
0.003922 0.023529 0.239216
0.105882 0.019608 0.247059
0.250980 0.007843 0.247059
0.454902 0.000000 0.250980
0.631373 0.000000 0.243137
0.764706 0.000000 0.258824
0.850980 0.168627 0.301961
0.929412 0.239216 0.313725
1.000000 0.305882 0.325490
0.000000 0.105882 0.243137
0.094118 0.121569 0.258824
0.270588 0.133333 0.258824
0.466667 0.082353 0.247059
0.639216 0.086275 0.254902
0.756863 0.152941 0.278431
0.843137 0.223529 0.301961
0.925490 0.274510 0.298039
1.000000 0.329412 0.313725
0.000000 0.266667 0.258824
0.000000 0.274510 0.262745
0.262745 0.278431 0.278431
0.470588 0.286275 0.274510
0.623529 0.286275 0.274510
0.741176 0.290196 0.274510
0.835294 0.313725 0.274510
0.913725 0.345098 0.294118
0.996078 0.388235 0.309804
0.000000 0.435294 0.274510
0.039216 0.439216 0.286275
0.254902 0.427451 0.286275
0.431373 0.427451 0.270588
0.603922 0.435294 0.250980
0.721569 0.415686 0.250980
0.815686 0.423529 0.250980
0.898039 0.439216 0.258824
0.988235 0.470588 0.294118
0.000000 0.549020 0.290196
0.015686 0.552941 0.298039
0.235294 0.541176 0.305882
0.384314 0.529412 0.294118
0.541176 0.537255 0.278431
0.682353 0.541176 0.262745
0.788235 0.533333 0.239216
0.882353 0.541176 0.231373
0.972549 0.549020 0.250980
0.000000 0.635294 0.309804
0.125490 0.639216 0.321569
0.250980 0.627451 0.321569
0.368627 0.615686 0.325490
0.509804 0.619608 0.313725
0.635294 0.623529 0.298039
0.764706 0.635294 0.278431
0.854902 0.639216 0.250980
0.960784 0.643137 0.227451
0.184314 0.717647 0.352941
0.231373 0.717647 0.364706
0.305882 0.709804 0.360784
0.396078 0.701961 0.364706
0.498039 0.698039 0.360784
0.611765 0.705882 0.352941
0.721569 0.717647 0.337255
0.831373 0.725490 0.321569
0.945098 0.741176 0.309804
0.305882 0.807843 0.423529
0.333333 0.807843 0.423529
0.380392 0.807843 0.427451
0.447059 0.800000 0.435294
0.521569 0.796078 0.443137
0.611765 0.800000 0.431373
0.705882 0.807843 0.423529
0.807843 0.815686 0.403922
0.937255 0.839216 0.388235
0.419608 0.929412 0.533333
0.435294 0.933333 0.541176
0.466667 0.929412 0.541176
0.513725 0.925490 0.552941
0.572549 0.925490 0.564706
0.643137 0.929412 0.568627
0.725490 0.937255 0.560784
0.827451 0.949020 0.556863
0.945098 0.960784 0.552941
0.000000 0.035294 0.403922
0.101961 0.035294 0.407843
0.282353 0.031373 0.423529
0.462745 0.000000 0.435294
0.619608 0.000000 0.419608
0.768627 0.000000 0.403922
0.850980 0.094118 0.411765
0.929412 0.227451 0.427451
1.000000 0.321569 0.454902
0.000000 0.137255 0.407843
0.129412 0.141176 0.415686
0.294118 0.145098 0.423529
0.466667 0.137255 0.431373
0.627451 0.109804 0.431373
0.760784 0.109804 0.411765
0.850980 0.203922 0.415686
0.925490 0.286275 0.431373
0.996078 0.392157 0.478431
0.000000 0.247059 0.407843
0.062745 0.262745 0.427451
0.298039 0.298039 0.431373
0.474510 0.298039 0.443137
0.627451 0.286275 0.439216
0.745098 0.305882 0.431373
0.831373 0.345098 0.439216
0.905882 0.407843 0.466667
0.992157 0.443137 0.474510
0.000000 0.443137 0.435294
0.000000 0.447059 0.443137
0.282353 0.450980 0.450980
0.478431 0.454902 0.450980
0.607843 0.454902 0.454902
0.717647 0.450980 0.443137
0.811765 0.458824 0.443137
0.890196 0.470588 0.443137
0.980392 0.494118 0.450980
0.000000 0.572549 0.435294
0.184314 0.576471 0.450980
0.352941 0.572549 0.454902
0.447059 0.552941 0.447059
0.564706 0.549020 0.435294
0.694118 0.552941 0.419608
0.788235 0.541176 0.403922
0.874510 0.552941 0.403922
0.968627 0.560784 0.415686
0.286275 0.654902 0.462745
0.329412 0.650980 0.470588
0.360784 0.647059 0.458824
0.439216 0.631373 0.447059
0.533333 0.627451 0.447059
0.647059 0.631373 0.435294
0.756863 0.643137 0.419608
0.858824 0.643137 0.396078
0.964706 0.647059 0.376471
0.298039 0.725490 0.470588
0.305882 0.725490 0.458824
0.368627 0.721569 0.458824
0.443137 0.713725 0.462745
0.521569 0.701961 0.462745
0.615686 0.713725 0.458824
0.721569 0.713725 0.443137
0.835294 0.733333 0.431373
0.949020 0.741176 0.415686
0.337255 0.815686 0.494118
0.360784 0.815686 0.498039
0.403922 0.811765 0.494118
0.466667 0.803922 0.501961
0.537255 0.800000 0.505882
0.615686 0.800000 0.505882
0.705882 0.807843 0.494118
0.807843 0.819608 0.482353
0.941176 0.839216 0.478431
0.419608 0.933333 0.572549
0.435294 0.937255 0.576471
0.466667 0.933333 0.580392
0.517647 0.933333 0.588235
0.572549 0.929412 0.596078
0.650980 0.933333 0.607843
0.729412 0.941176 0.603922
0.827451 0.949020 0.596078
0.945098 0.960784 0.588235
0.054902 0.062745 0.545098
0.172549 0.062745 0.549020
0.317647 0.070588 0.556863
0.498039 0.082353 0.564706
0.639216 0.086275 0.580392
0.741176 0.035294 0.552941
0.847059 0.078431 0.541176
0.929412 0.207843 0.541176
1.000000 0.309804 0.552941
0.105882 0.152941 0.549020
0.192157 0.156863 0.549020
0.333333 0.172549 0.560784
0.494118 0.180392 0.568627
0.635294 0.192157 0.576471
0.737255 0.180392 0.564706
0.847059 0.184314 0.545098
0.921569 0.266667 0.545098
1.000000 0.349020 0.564706
0.086275 0.270588 0.545098
0.223529 0.298039 0.564706
0.345098 0.294118 0.560784
0.498039 0.321569 0.572549
0.627451 0.325490 0.576471
0.729412 0.317647 0.568627
0.831373 0.337255 0.556863
0.909804 0.380392 0.560784
0.992157 0.423529 0.564706
0.000000 0.400000 0.545098
0.160784 0.411765 0.552941
0.305882 0.415686 0.552941
0.490196 0.454902 0.568627
0.615686 0.462745 0.584314
0.729412 0.462745 0.568627
0.811765 0.470588 0.568627
0.890196 0.498039 0.572549
0.980392 0.533333 0.596078
0.047059 0.560784 0.560784
0.196078 0.564706 0.572549
0.333333 0.564706 0.568627
0.474510 0.568627 0.576471
0.600000 0.572549 0.580392
0.701961 0.576471 0.572549
0.784314 0.576471 0.568627
0.874510 0.576471 0.568627
0.968627 0.584314 0.568627
0.250980 0.674510 0.572549
0.313725 0.678431 0.580392
0.403922 0.666667 0.572549
0.501961 0.662745 0.576471
0.572549 0.650980 0.564706
0.662745 0.647059 0.560784
0.764706 0.647059 0.545098
0.858824 0.647059 0.525490
0.960784 0.650980 0.533333
0.372549 0.745098 0.580392
0.396078 0.741176 0.580392
0.447059 0.737255 0.580392
0.498039 0.733333 0.572549
0.560784 0.721569 0.568627
0.631373 0.717647 0.564706
0.729412 0.721569 0.552941
0.839216 0.733333 0.545098
0.952941 0.741176 0.525490
0.427451 0.823529 0.600000
0.435294 0.827451 0.600000
0.450980 0.827451 0.592157
0.482353 0.815686 0.576471
0.552941 0.815686 0.580392
0.619608 0.803922 0.584314
0.709804 0.811765 0.572549
0.811765 0.827451 0.568627
0.945098 0.843137 0.568627
0.407843 0.941176 0.619608
0.423529 0.941176 0.623529
0.454902 0.937255 0.623529
0.509804 0.937255 0.627451
0.572549 0.937255 0.635294
0.643137 0.933333 0.650980
0.725490 0.941176 0.647059
0.831373 0.952941 0.647059
0.949020 0.964706 0.639216
0.227451 0.105882 0.654902
0.282353 0.109804 0.658824
0.392157 0.117647 0.666667
0.529412 0.137255 0.666667
0.654902 0.184314 0.678431
0.749020 0.200000 0.678431
0.819608 0.200000 0.658824
0.913725 0.231373 0.650980
1.000000 0.290196 0.650980
0.250980 0.180392 0.658824
0.309804 0.188235 0.662745
0.400000 0.196078 0.662745
0.533333 0.207843 0.666667
0.654902 0.254902 0.674510
0.745098 0.266667 0.674510
0.819608 0.262745 0.662745
0.909804 0.282353 0.654902
1.000000 0.333333 0.654902
0.262745 0.294118 0.650980
0.317647 0.301961 0.658824
0.407843 0.309804 0.662745
0.533333 0.333333 0.666667
0.643137 0.352941 0.670588
0.737255 0.368627 0.674510
0.811765 0.372549 0.662745
0.905882 0.376471 0.658824
0.996078 0.407843 0.658824
0.188235 0.392157 0.643137
0.258824 0.403922 0.650980
0.403922 0.431373 0.658824
0.521569 0.447059 0.662745
0.627451 0.466667 0.666667
0.721569 0.482353 0.674510
0.796078 0.474510 0.662745
0.898039 0.478431 0.658824
0.984314 0.505882 0.666667
0.219608 0.537255 0.650980
0.266667 0.529412 0.647059
0.360784 0.525490 0.647059
0.470588 0.541176 0.647059
0.603922 0.560784 0.658824
0.701961 0.580392 0.670588
0.796078 0.576471 0.666667
0.878431 0.580392 0.666667
0.976471 0.603922 0.678431
0.274510 0.650980 0.662745
0.321569 0.658824 0.662745
0.400000 0.658824 0.662745
0.494118 0.658824 0.666667
0.592157 0.662745 0.670588
0.690196 0.666667 0.678431
0.776471 0.670588 0.674510
0.866667 0.670588 0.670588
0.964706 0.670588 0.670588
0.349020 0.764706 0.670588
0.392157 0.772549 0.674510
0.431373 0.760784 0.674510
0.509804 0.752941 0.670588
0.596078 0.749020 0.674510
0.662745 0.733333 0.662745
0.741176 0.733333 0.654902
0.847059 0.737255 0.643137
0.964706 0.737255 0.627451
0.411765 0.843137 0.682353
0.431373 0.839216 0.678431
0.470588 0.839216 0.678431
0.529412 0.835294 0.678431
0.584314 0.827451 0.670588
0.639216 0.819608 0.662745
0.717647 0.815686 0.658824
0.823529 0.827451 0.654902
0.952941 0.843137 0.647059
0.462745 0.949020 0.709804
0.474510 0.949020 0.705882
0.505882 0.949020 0.709804
0.529412 0.945098 0.698039
0.568627 0.945098 0.690196
0.647059 0.945098 0.701961
0.729412 0.945098 0.705882
0.831373 0.952941 0.701961
0.956863 0.964706 0.698039
0.380392 0.172549 0.752941
0.419608 0.180392 0.756863
0.482353 0.184314 0.752941
0.580392 0.203922 0.752941
0.670588 0.243137 0.756863
0.756863 0.298039 0.760784
0.835294 0.317647 0.764706
0.890196 0.313725 0.745098
0.992157 0.345098 0.749020
0.384314 0.223529 0.745098
0.419608 0.235294 0.749020
0.494118 0.243137 0.756863
0.576471 0.262745 0.752941
0.670588 0.294118 0.756863
0.756863 0.341176 0.760784
0.831373 0.356863 0.760784
0.890196 0.349020 0.745098
0.992157 0.376471 0.752941
0.396078 0.333333 0.745098
0.427451 0.337255 0.749020
0.490196 0.337255 0.752941
0.572549 0.352941 0.749020
0.662745 0.384314 0.760784
0.745098 0.419608 0.760784
0.823529 0.435294 0.764706
0.882353 0.419608 0.745098
0.988235 0.439216 0.752941
0.376471 0.427451 0.741176
0.407843 0.435294 0.741176
0.470588 0.443137 0.741176
0.552941 0.458824 0.741176
0.647059 0.478431 0.749020
0.733333 0.505882 0.756863
0.807843 0.517647 0.760784
0.874510 0.509804 0.749020
0.984314 0.513725 0.756863
0.274510 0.501961 0.725490
0.313725 0.513725 0.721569
0.403922 0.513725 0.733333
0.509804 0.533333 0.733333
0.619608 0.560784 0.741176
0.717647 0.592157 0.752941
0.796078 0.600000 0.760784
0.870588 0.592157 0.752941
0.984314 0.588235 0.752941
0.305882 0.623529 0.733333
0.337255 0.623529 0.729412
0.396078 0.623529 0.733333
0.478431 0.623529 0.729412
0.572549 0.627451 0.729412
0.690196 0.654902 0.749020
0.788235 0.678431 0.760784
0.878431 0.670588 0.756863
0.980392 0.678431 0.760784
0.349020 0.737255 0.745098
0.376471 0.745098 0.749020
0.431373 0.745098 0.749020
0.505882 0.741176 0.749020
0.584314 0.745098 0.749020
0.678431 0.752941 0.756863
0.776471 0.768627 0.768627
0.866667 0.756863 0.760784
0.972549 0.760784 0.764706
0.384314 0.862745 0.764706
0.403922 0.862745 0.768627
0.450980 0.862745 0.768627
0.517647 0.858824 0.768627
0.592157 0.854902 0.764706
0.678431 0.843137 0.760784
0.745098 0.835294 0.752941
0.839216 0.835294 0.749020
0.968627 0.843137 0.737255
0.415686 0.960784 0.780392
0.435294 0.960784 0.776471
0.470588 0.960784 0.780392
0.525490 0.956863 0.776471
0.596078 0.956863 0.776471
0.670588 0.956863 0.776471
0.737255 0.952941 0.768627
0.839216 0.956863 0.772549
0.968627 0.972549 0.772549
0.521569 0.270588 0.843137
0.537255 0.270588 0.843137
0.576471 0.282353 0.843137
0.639216 0.301961 0.843137
0.705882 0.329412 0.843137
0.780392 0.376471 0.850980
0.847059 0.423529 0.847059
0.917647 0.427451 0.850980
0.984314 0.415686 0.843137
0.513725 0.305882 0.839216
0.537255 0.313725 0.843137
0.572549 0.321569 0.839216
0.635294 0.333333 0.839216
0.701961 0.364706 0.843137
0.772549 0.400000 0.843137
0.847059 0.447059 0.850980
0.917647 0.450980 0.854902
0.980392 0.439216 0.843137
0.509804 0.376471 0.835294
0.529412 0.388235 0.839216
0.568627 0.392157 0.839216
0.631373 0.403922 0.839216
0.698039 0.427451 0.847059
0.764706 0.454902 0.843137
0.843137 0.498039 0.847059
0.909804 0.498039 0.850980
0.972549 0.490196 0.839216
0.490196 0.462745 0.831373
0.513725 0.470588 0.835294
0.549020 0.474510 0.831373
0.611765 0.486275 0.839216
0.678431 0.498039 0.835294
0.752941 0.525490 0.843137
0.827451 0.556863 0.843137
0.905882 0.556863 0.847059
0.964706 0.549020 0.835294
0.396078 0.521569 0.823529
0.423529 0.521569 0.823529
0.498039 0.541176 0.827451
0.580392 0.556863 0.827451
0.654902 0.572549 0.831373
0.733333 0.592157 0.839216
0.815686 0.619608 0.843137
0.894118 0.623529 0.850980
0.964706 0.619608 0.839216
0.349020 0.615686 0.823529
0.368627 0.615686 0.815686
0.411765 0.611765 0.815686
0.494118 0.615686 0.819608
0.592157 0.623529 0.823529
0.705882 0.654902 0.831373
0.800000 0.686275 0.843137
0.890196 0.698039 0.854902
0.972549 0.690196 0.847059
0.356863 0.721569 0.823529
0.380392 0.721569 0.831373
0.423529 0.725490 0.827451
0.486275 0.717647 0.823529
0.568627 0.717647 0.823529
0.643137 0.709804 0.819608
0.768627 0.741176 0.835294
0.882353 0.772549 0.858824
0.984314 0.772549 0.858824
0.376471 0.839216 0.847059
0.396078 0.843137 0.847059
0.435294 0.839216 0.847059
0.494118 0.843137 0.847059
0.572549 0.843137 0.847059
0.658824 0.847059 0.850980
0.760784 0.850980 0.854902
0.878431 0.862745 0.866667
0.984314 0.862745 0.858824
0.360784 0.976471 0.866667
0.376471 0.972549 0.862745
0.419608 0.976471 0.862745
0.486275 0.976471 0.866667
0.568627 0.972549 0.866667
0.666667 0.972549 0.866667
0.768627 0.968627 0.866667
0.854902 0.964706 0.858824
0.984314 0.976471 0.862745
0.635294 0.435294 0.945098
0.647059 0.439216 0.949020
0.666667 0.443137 0.945098
0.705882 0.458824 0.945098
0.752941 0.474510 0.945098
0.811765 0.501961 0.945098
0.870588 0.525490 0.941176
0.945098 0.560784 0.945098
1.000000 0.549020 0.949020
0.631373 0.454902 0.945098
0.639216 0.458824 0.945098
0.666667 0.466667 0.945098
0.705882 0.478431 0.945098
0.752941 0.494118 0.945098
0.807843 0.517647 0.945098
0.870588 0.537255 0.941176
0.941176 0.568627 0.941176
1.000000 0.564706 0.949020
0.623529 0.498039 0.945098
0.635294 0.505882 0.945098
0.658824 0.513725 0.945098
0.698039 0.517647 0.945098
0.741176 0.529412 0.941176
0.800000 0.549020 0.941176
0.866667 0.568627 0.941176
0.941176 0.596078 0.945098
1.000000 0.584314 0.945098
0.603922 0.552941 0.941176
0.619608 0.560784 0.945098
0.643137 0.560784 0.945098
0.682353 0.568627 0.941176
0.733333 0.580392 0.945098
0.792157 0.592157 0.945098
0.858824 0.607843 0.941176
0.941176 0.631373 0.945098
1.000000 0.627451 0.949020
0.564706 0.611765 0.945098
0.584314 0.615686 0.945098
0.611765 0.619608 0.945098
0.654902 0.619608 0.945098
0.713725 0.627451 0.945098
0.780392 0.643137 0.945098
0.854902 0.658824 0.945098
0.933333 0.678431 0.949020
1.000000 0.670588 0.949020
0.478431 0.658824 0.941176
0.498039 0.654902 0.945098
0.529412 0.654902 0.945098
0.580392 0.654902 0.945098
0.674510 0.678431 0.945098
0.752941 0.690196 0.945098
0.839216 0.709804 0.949020
0.929412 0.733333 0.952941
1.000000 0.729412 0.952941
0.439216 0.741176 0.945098
0.454902 0.745098 0.949020
0.482353 0.741176 0.945098
0.529412 0.737255 0.945098
0.592157 0.733333 0.949020
0.682353 0.741176 0.949020
0.807843 0.764706 0.952941
0.921569 0.792157 0.956863
1.000000 0.800000 0.956863
0.415686 0.850980 0.956863
0.427451 0.850980 0.956863
0.458824 0.850980 0.960784
0.509804 0.850980 0.960784
0.572549 0.843137 0.956863
0.650980 0.843137 0.960784
0.741176 0.835294 0.956863
0.894118 0.858824 0.964706
1.000000 0.882353 0.968627
0.356863 0.972549 0.968627
0.368627 0.968627 0.968627
0.407843 0.972549 0.968627
0.470588 0.972549 0.968627
0.549020 0.976471 0.972549
0.639216 0.972549 0.968627
0.749020 0.976471 0.972549
0.870588 0.980392 0.972549
1.000000 0.984314 0.980392
