luts/Subway Steel.CUBE
# kravix mobile - LUTs Pack
LUT_3D_SIZE 17
0.070481 0.070512 0.070542
0.095735 0.072206 0.072251
0.122774 0.072938 0.072999
0.155596 0.071351 0.071412
0.195682 0.067704 0.067811
0.240253 0.062760 0.062898
0.287282 0.057114 0.057313
0.335241 0.051576 0.051835
0.385611 0.045975 0.046281
0.437613 0.040269 0.040620
0.491218 0.034836 0.035248
0.546654 0.030014 0.030472
0.603067 0.025666 0.026154
0.660655 0.021744 0.022293
0.721645 0.018067 0.018646
0.785168 0.014374 0.015000
0.854871 0.010575 0.011231
0.073945 0.098253 0.074128
0.098543 0.098711 0.074327
0.123980 0.098939 0.074372
0.156085 0.097459 0.072633
0.197208 0.094133 0.068925
0.245212 0.089601 0.064012
0.297581 0.084138 0.058305
0.352895 0.078935 0.052995
0.412192 0.073503 0.047440
0.474754 0.067826 0.041489
0.540536 0.062333 0.035721
0.607187 0.057298 0.030335
0.675380 0.052979 0.025605
0.746471 0.049515 0.021653
0.818891 0.046525 0.018128
0.894057 0.043992 0.015152
0.972061 0.041840 0.012436
0.073976 0.124804 0.074372
0.100145 0.125765 0.075258
0.126390 0.127123 0.076356
0.160357 0.127108 0.076036
0.206043 0.125124 0.073594
0.260670 0.121477 0.069383
0.321477 0.116854 0.064073
0.386297 0.112200 0.058335
0.455406 0.106905 0.051865
0.530907 0.101503 0.045289
0.609598 0.096147 0.038895
0.689906 0.091661 0.033555
0.770016 0.088533 0.029435
0.848081 0.086625 0.026627
0.924331 0.085847 0.024918
0.980880 0.085878 0.024262
1.000000 0.086320 0.024277
0.071138 0.158236 0.071809
0.099931 0.161227 0.073899
0.128084 0.164874 0.076509
0.164706 0.167498 0.077852
0.215991 0.166888 0.076310
0.280156 0.163897 0.072786
0.353368 0.159960 0.068360
0.430549 0.155581 0.063355
0.513649 0.150973 0.057908
0.600793 0.146105 0.052216
0.688655 0.141741 0.046769
0.773632 0.138766 0.042451
0.854154 0.137530 0.039521
0.929213 0.137942 0.038010
0.961746 0.139956 0.037858
0.980880 0.143130 0.038544
1.000000 0.146975 0.039902
0.062776 0.204807 0.063828
0.092714 0.210391 0.065889
0.123857 0.217380 0.069276
0.161181 0.223743 0.071672
0.217823 0.226154 0.070665
0.292683 0.224872 0.067231
0.376486 0.221592 0.062760
0.463172 0.217899 0.058000
0.552956 0.213703 0.053040
0.644129 0.209415 0.048051
0.733059 0.206195 0.043885
0.815961 0.205005 0.040955
0.891676 0.206027 0.039521
0.942626 0.209171 0.039124
0.961746 0.213977 0.040299
0.980880 0.219684 0.042283
1.000000 0.225299 0.044266
0.046357 0.267628 0.047974
0.077897 0.277729 0.050126
0.112322 0.288029 0.053208
0.148714 0.298405 0.056947
0.206607 0.303471 0.056550
0.287877 0.302541 0.052400
0.377218 0.299351 0.047471
0.467277 0.296132 0.043030
0.558526 0.292576 0.039170
0.649195 0.289235 0.035904
0.735348 0.287007 0.033890
0.813901 0.287037 0.033570
0.885222 0.288991 0.034043
0.942626 0.292607 0.035294
0.961746 0.296971 0.036728
0.980880 0.302190 0.038621
1.000000 0.307622 0.040589
0.023835 0.347021 0.026108
0.057176 0.359091 0.028611
0.093507 0.370794 0.031983
0.131716 0.382116 0.037674
0.188220 0.388434 0.040024
0.272679 0.387427 0.037644
0.365148 0.384039 0.034775
0.456123 0.380484 0.032654
0.546715 0.376944 0.031266
0.635813 0.373693 0.029877
0.720729 0.371298 0.028901
0.798840 0.370626 0.028458
0.870100 0.372229 0.028778
0.935027 0.375753 0.030152
0.961746 0.380407 0.031876
0.980880 0.385611 0.033860
1.000000 0.390784 0.035660
0.001816 0.432334 0.004654
0.038300 0.444312 0.009277
0.077211 0.455604 0.015183
0.119112 0.466011 0.023728
0.174319 0.472480 0.030259
0.258412 0.471183 0.030793
0.351629 0.467048 0.029541
0.442405 0.463096 0.028092
0.532341 0.459129 0.026505
0.621500 0.455528 0.025147
0.706767 0.453239 0.024170
0.785367 0.452888 0.023987
0.857191 0.454444 0.024491
0.922423 0.457649 0.025528
0.961746 0.462211 0.027329
0.980880 0.467247 0.029267
1.000000 0.472297 0.031235
0.000000 0.516732 0.000000
0.027192 0.527535 0.000000
0.068040 0.537667 0.006607
0.112032 0.546868 0.016007
0.162631 0.554131 0.024277
0.243412 0.553323 0.025818
0.336309 0.548989 0.024353
0.427543 0.545205 0.023056
0.517968 0.541466 0.021820
0.607401 0.538048 0.020508
0.692897 0.535683 0.019669
0.771588 0.534936 0.019303
0.843275 0.536278 0.019638
0.908721 0.539254 0.020829
0.961746 0.543374 0.022416
0.980880 0.547875 0.024170
1.000000 0.552285 0.025925
0.000000 0.596963 0.000000
0.020523 0.607294 0.000000
0.061189 0.617456 0.000427
0.105241 0.626780 0.009354
0.153536 0.634668 0.018952
0.230655 0.635081 0.021561
0.323919 0.630945 0.020371
0.415396 0.627024 0.019242
0.505501 0.623011 0.017731
0.594736 0.619272 0.016358
0.680064 0.616495 0.015427
0.758816 0.615396 0.015076
0.830137 0.616114 0.015244
0.895094 0.618387 0.016113
0.955200 0.621683 0.017517
0.980880 0.625315 0.018860
1.000000 0.628748 0.020249
0.000000 0.675746 0.000000
0.019120 0.686320 0.000000
0.057557 0.696559 0.000000
0.101640 0.705852 0.005890
0.148821 0.714137 0.016190
0.223331 0.714977 0.019287
0.316258 0.710460 0.017975
0.407126 0.706050 0.016525
0.497063 0.701640 0.015289
0.585779 0.697322 0.013794
0.670527 0.693843 0.012497
0.748547 0.691875 0.011734
0.819348 0.691615 0.011704
0.883619 0.692912 0.012283
0.943084 0.695094 0.013245
0.980880 0.697581 0.014313
1.000000 0.699825 0.015137
0.000000 0.753384 0.000000
0.019120 0.763653 0.000000
0.057816 0.773770 0.000000
0.101686 0.782757 0.006134
0.148531 0.790570 0.016251
0.222004 0.790890 0.019318
0.314153 0.785794 0.017823
0.404196 0.780713 0.016175
0.493141 0.775601 0.014511
0.581094 0.770367 0.012772
0.665064 0.765789 0.011185
0.742031 0.762722 0.010040
0.811856 0.761227 0.009567
0.875334 0.761288 0.009735
0.933669 0.762234 0.010132
0.980880 0.763577 0.010712
1.000000 0.764813 0.011399
0.000000 0.828550 0.000000
0.020691 0.838376 0.000000
0.061265 0.847761 0.001053
0.104448 0.856062 0.009537
0.151522 0.862852 0.018769
0.225360 0.862043 0.021164
0.316228 0.856077 0.019364
0.404944 0.849989 0.017350
0.492638 0.843656 0.015137
0.579400 0.837385 0.013001
0.662058 0.831617 0.010895
0.738155 0.827314 0.009262
0.807187 0.824796 0.008530
0.869551 0.823560 0.008118
0.927077 0.823529 0.008255
0.980880 0.823850 0.008484
1.000000 0.824033 0.008637
0.000000 0.900191 0.000000
0.026413 0.909072 0.000000
0.066560 0.917403 0.006317
0.109056 0.924544 0.014588
0.156695 0.929793 0.022583
0.230762 0.927657 0.023972
0.319860 0.920638 0.021576
0.407233 0.913390 0.019074
0.493675 0.906157 0.016617
0.579156 0.898589 0.013748
0.660838 0.891936 0.011322
0.736049 0.886503 0.009232
0.804227 0.882887 0.008072
0.865705 0.880812 0.007416
0.922118 0.879591 0.006897
0.975753 0.879072 0.006867
1.000000 0.878431 0.006729
0.000000 0.961746 0.000000
0.031769 0.961746 0.004120
0.071397 0.961746 0.011124
0.112886 0.961746 0.018998
0.161196 0.961746 0.025910
0.235218 0.961746 0.026383
0.323125 0.961746 0.023835
0.409064 0.961746 0.020890
0.494362 0.961746 0.017945
0.578851 0.955184 0.014710
0.659495 0.947540 0.011643
0.733959 0.941283 0.009354
0.801160 0.936782 0.007706
0.862043 0.933776 0.006607
0.917815 0.931838 0.005859
0.970840 0.930663 0.005570
1.000000 0.929412 0.005203
0.000000 0.980880 0.001633
0.035615 0.980880 0.008103
0.074861 0.980880 0.014649
0.115297 0.980880 0.022049
0.163714 0.980880 0.027985
0.237095 0.980880 0.027771
0.323476 0.980880 0.024796
0.408576 0.980880 0.021591
0.492729 0.980880 0.018082
0.576288 0.980880 0.014664
0.656367 0.980880 0.011490
0.730343 0.980880 0.008896
0.797208 0.980880 0.006973
0.857679 0.980880 0.005692
0.913222 0.980880 0.004898
0.966049 0.980087 0.004349
1.000000 0.978485 0.003754
0.000000 1.000000 0.004120
0.037278 1.000000 0.009979
0.075898 1.000000 0.015946
0.115770 1.000000 0.022934
0.163073 1.000000 0.028153
0.234989 1.000000 0.027832
0.320333 1.000000 0.024506
0.404639 1.000000 0.020981
0.488151 1.000000 0.017288
0.571038 1.000000 0.013535
0.650721 1.000000 0.010132
0.724407 1.000000 0.007324
0.790997 1.000000 0.005234
0.851301 1.000000 0.003784
0.906676 1.000000 0.002853
0.959350 1.000000 0.002213
1.000000 1.000000 0.001678
0.070924 0.070970 0.094591
0.096452 0.072831 0.096757
0.122927 0.073121 0.097215
0.155703 0.071519 0.095872
0.195666 0.067811 0.092577
0.240314 0.062791 0.088060
0.287663 0.057114 0.082811
0.336202 0.051576 0.077638
0.387228 0.045960 0.072267
0.439933 0.040238 0.066758
0.494713 0.034791 0.061555
0.551659 0.029923 0.057038
0.608499 0.025483 0.052979
0.667857 0.021576 0.049531
0.729427 0.017823 0.046296
0.795041 0.014160 0.043198
0.865995 0.010376 0.040040
0.073960 0.098375 0.098634
0.098634 0.098802 0.099077
0.123903 0.099046 0.099336
0.156008 0.097642 0.097948
0.197513 0.094469 0.094820
0.245777 0.089845 0.090303
0.299062 0.084474 0.084932
0.355581 0.079316 0.080110
0.415396 0.073777 0.074617
0.479484 0.068147 0.068971
0.546288 0.062577 0.063569
0.613977 0.057481 0.058549
0.684428 0.053239 0.054398
0.755871 0.049760 0.050980
0.829557 0.046891 0.048081
0.905333 0.044511 0.045884
0.983337 0.042542 0.043961
0.074220 0.125032 0.099901
0.100542 0.126070 0.101167
0.126833 0.127565 0.102724
0.160952 0.127825 0.103014
0.207126 0.126009 0.101289
0.262318 0.122240 0.097612
0.324437 0.117769 0.092714
0.390005 0.112993 0.087114
0.460868 0.107805 0.081071
0.537530 0.102373 0.074876
0.617304 0.097002 0.068971
0.699016 0.092653 0.064286
0.779538 0.089586 0.060838
0.857710 0.087846 0.058763
0.933715 0.087266 0.057847
0.980880 0.087495 0.058000
1.000000 0.088289 0.058915
0.071824 0.159152 0.099153
0.100771 0.162112 0.101762
0.129213 0.166079 0.105119
0.165972 0.168856 0.107103
0.217914 0.168383 0.106340
0.283360 0.165621 0.103410
0.357458 0.161547 0.099184
0.435966 0.157321 0.094682
0.520165 0.152743 0.089738
0.607980 0.147875 0.084474
0.696284 0.143572 0.079561
0.781338 0.140719 0.075822
0.861692 0.139605 0.073487
0.936599 0.140398 0.072709
0.961746 0.142489 0.073060
0.980880 0.145907 0.074495
1.000000 0.150149 0.076539
0.063508 0.206577 0.093034
0.093736 0.212451 0.095781
0.125170 0.219654 0.099931
0.162829 0.226215 0.103059
0.220356 0.228916 0.102770
0.296101 0.227573 0.099809
0.380758 0.224292 0.095689
0.468025 0.220584 0.091295
0.558221 0.216419 0.086748
0.649760 0.212253 0.082399
0.738521 0.209064 0.078462
0.821012 0.207965 0.075944
0.896193 0.209140 0.074968
0.942626 0.212558 0.075441
0.961746 0.217380 0.076860
0.980880 0.223011 0.079026
1.000000 0.228595 0.081086
0.047013 0.270878 0.078630
0.078965 0.281239 0.081636
0.113710 0.291646 0.085557
0.150423 0.301930 0.089937
0.209094 0.306905 0.090150
0.290990 0.305928 0.086412
0.380987 0.302815 0.081987
0.471214 0.299382 0.077928
0.562387 0.295888 0.074311
0.652903 0.292607 0.071565
0.738796 0.290486 0.069734
0.817075 0.290455 0.069490
0.888411 0.292332 0.070192
0.942626 0.295903 0.071428
0.961746 0.300359 0.073091
0.980880 0.305486 0.074983
1.000000 0.310918 0.077104
0.024582 0.351034 0.058442
0.058335 0.363043 0.061677
0.095140 0.374685 0.065812
0.133684 0.385946 0.072206
0.190845 0.392172 0.074998
0.275822 0.390936 0.072923
0.368429 0.387472 0.070375
0.459419 0.383871 0.068605
0.549798 0.380362 0.067079
0.638987 0.376974 0.065690
0.723781 0.374594 0.064576
0.802090 0.374075 0.064271
0.873274 0.375555 0.064607
0.938201 0.379095 0.066072
0.961746 0.383703 0.067872
0.980880 0.388907 0.069947
1.000000 0.394171 0.072038
0.003296 0.436347 0.038682
0.040223 0.448249 0.044099
0.079576 0.459327 0.050446
0.121691 0.469627 0.059495
0.177676 0.476036 0.066331
0.261860 0.474434 0.066712
0.354726 0.470283 0.065248
0.445487 0.466300 0.063722
0.535607 0.462455 0.062226
0.624582 0.458854 0.060700
0.710033 0.456519 0.059785
0.788678 0.456168 0.059617
0.860410 0.457771 0.060182
0.925750 0.461143 0.061433
0.961746 0.465522 0.063157
0.980880 0.470466 0.065126
1.000000 0.475471 0.067155
0.000000 0.520287 0.025818
0.029801 0.530999 0.034012
0.071046 0.541253 0.042466
0.114748 0.550195 0.051743
0.165774 0.557351 0.060060
0.246647 0.556588 0.061387
0.339742 0.552468 0.060044
0.430854 0.548470 0.058640
0.521157 0.544793 0.057252
0.610590 0.541360 0.055894
0.696056 0.538979 0.055024
0.774853 0.538399 0.054826
0.846464 0.539559 0.055161
0.911864 0.542397 0.056367
0.961746 0.546487 0.057954
0.980880 0.550881 0.059739
1.000000 0.555215 0.061524
0.000000 0.600488 0.019684
0.023300 0.610681 0.027756
0.064012 0.620859 0.035965
0.108095 0.630198 0.045029
0.156710 0.638239 0.054688
0.234012 0.638376 0.056992
0.327276 0.634211 0.055833
0.418585 0.630289 0.054581
0.508751 0.626429 0.053178
0.598123 0.622629 0.051881
0.683223 0.619776 0.050721
0.761807 0.618479 0.050202
0.833082 0.619135 0.050507
0.897963 0.621302 0.051362
0.957977 0.624491 0.052781
0.980880 0.627970 0.054200
1.000000 0.631495 0.055665
0.000000 0.679225 0.019120
0.019654 0.689769 0.024369
0.060502 0.700114 0.032807
0.104524 0.709361 0.041550
0.151766 0.717479 0.051667
0.226612 0.718196 0.054780
0.319417 0.713741 0.053498
0.410391 0.709331 0.052201
0.500114 0.704814 0.050568
0.588693 0.700465 0.048997
0.673335 0.696788 0.047517
0.751415 0.694850 0.046998
0.822141 0.694469 0.046921
0.886198 0.695537 0.047364
0.945495 0.697490 0.048249
0.980880 0.699855 0.049241
1.000000 0.702159 0.050217
0.000000 0.756893 0.019120
0.019974 0.767040 0.024857
0.060609 0.777096 0.033127
0.104494 0.785992 0.041901
0.151369 0.793729 0.051804
0.225132 0.794003 0.054810
0.317174 0.788861 0.053284
0.407111 0.783734 0.051606
0.495903 0.778424 0.049851
0.583673 0.773022 0.047898
0.667445 0.768307 0.046128
0.744305 0.765103 0.044892
0.814206 0.763653 0.044541
0.877409 0.763439 0.044495
0.935637 0.764233 0.044861
0.980880 0.765637 0.045563
1.000000 0.766598 0.045975
0.000000 0.831800 0.020462
0.023407 0.841535 0.028443
0.063966 0.850813 0.036606
0.107088 0.859007 0.045090
0.154208 0.865660 0.054215
0.228016 0.864713 0.056474
0.318654 0.858640 0.054581
0.407248 0.852430 0.052445
0.494972 0.846159 0.050294
0.581476 0.839582 0.047868
0.663996 0.833722 0.045655
0.740169 0.829450 0.044114
0.808942 0.826658 0.043122
0.871397 0.825467 0.042832
0.928649 0.825147 0.042741
0.980880 0.825498 0.043061
1.000000 0.825620 0.043214
0.000000 0.903105 0.026505
0.029068 0.911940 0.034272
0.069184 0.920134 0.041871
0.111696 0.927199 0.050217
0.159228 0.932326 0.058076
0.232944 0.929900 0.059174
0.321859 0.922774 0.056657
0.409247 0.915602 0.054200
0.495491 0.908064 0.051423
0.580880 0.900618 0.048570
0.662470 0.893614 0.045899
0.737728 0.888258 0.043900
0.805631 0.884398 0.042512
0.866911 0.882231 0.041688
0.923598 0.881041 0.041352
0.977081 0.880446 0.041306
1.000000 0.879728 0.041123
0.000000 0.961746 0.032425
0.034104 0.961746 0.039490
0.073838 0.961746 0.046616
0.115267 0.961746 0.054444
0.163210 0.961746 0.061097
0.237095 0.961746 0.061662
0.324742 0.961746 0.058763
0.410697 0.961746 0.055863
0.495827 0.961746 0.052598
0.580224 0.956832 0.049439
0.660807 0.949081 0.046265
0.735058 0.942565 0.043717
0.802304 0.937957 0.041947
0.863005 0.934951 0.040803
0.918975 0.933059 0.040208
0.971954 0.931807 0.039872
1.000000 0.930526 0.039460
0.000000 0.980880 0.036896
0.037888 0.980880 0.043504
0.076875 0.980880 0.049821
0.117464 0.980880 0.057313
0.165393 0.980880 0.063020
0.238544 0.980880 0.062913
0.324926 0.980880 0.059770
0.409705 0.980880 0.056245
0.493843 0.980880 0.052781
0.577356 0.980880 0.049256
0.657511 0.980880 0.045930
0.731350 0.980880 0.043168
0.798016 0.980880 0.041123
0.858473 0.980880 0.039780
0.914000 0.980880 0.038941
0.966827 0.980880 0.038361
1.000000 0.979416 0.037858
0.001267 1.000000 0.039216
0.039323 1.000000 0.045197
0.077760 1.000000 0.050965
0.117571 1.000000 0.057786
0.164706 1.000000 0.063157
0.236072 1.000000 0.062821
0.321218 1.000000 0.059220
0.405417 1.000000 0.055512
0.488960 1.000000 0.051774
0.571893 1.000000 0.048005
0.651698 1.000000 0.044465
0.725307 1.000000 0.041581
0.791852 1.000000 0.039445
0.852155 1.000000 0.037949
0.907607 1.000000 0.036988
0.960220 1.000000 0.036332
1.000000 1.000000 0.035767
0.071229 0.071275 0.122057
0.096513 0.072847 0.124132
0.122911 0.073076 0.124681
0.155535 0.071412 0.123186
0.195636 0.067735 0.119402
0.240421 0.062760 0.114107
0.288060 0.057160 0.108171
0.337362 0.051713 0.102907
0.388846 0.046082 0.097566
0.442145 0.040284 0.092348
0.498665 0.034836 0.087755
0.556085 0.029877 0.083604
0.614450 0.025421 0.079896
0.674830 0.021439 0.076799
0.737774 0.017685 0.073960
0.804654 0.014038 0.071260
0.876524 0.010315 0.068543
0.073823 0.098344 0.125566
0.098558 0.098741 0.125734
0.123781 0.099016 0.125872
0.156054 0.097841 0.124483
0.197879 0.094743 0.121050
0.246677 0.090181 0.116182
0.300877 0.084962 0.111055
0.358099 0.079835 0.106386
0.418891 0.074266 0.101320
0.484047 0.068559 0.096315
0.552178 0.062928 0.091463
0.621347 0.057816 0.086992
0.692943 0.053574 0.083299
0.765255 0.050126 0.080384
0.839887 0.047349 0.078248
0.916487 0.045243 0.076570
0.994476 0.043504 0.075120
0.074357 0.125200 0.126757
0.100923 0.126390 0.127916
0.127275 0.127993 0.129488
0.161761 0.128634 0.130098
0.208331 0.126925 0.128252
0.264408 0.123308 0.124697
0.327352 0.118822 0.120134
0.394049 0.114092 0.115206
0.466194 0.108843 0.109987
0.543908 0.103380 0.104677
0.625360 0.098131 0.099641
0.708309 0.093858 0.095644
0.789197 0.090913 0.092805
0.866941 0.089311 0.091234
0.942626 0.088930 0.090730
0.980880 0.089418 0.091188
1.000000 0.090486 0.092454
0.072526 0.160067 0.126223
0.101762 0.163241 0.129030
0.130373 0.167391 0.132753
0.167529 0.170504 0.135286
0.220005 0.170123 0.134798
0.286595 0.167498 0.132448
0.361685 0.163409 0.129046
0.441672 0.159380 0.125658
0.526741 0.154757 0.121706
0.615290 0.149920 0.117449
0.703548 0.145525 0.113176
0.788663 0.142779 0.110018
0.868772 0.141848 0.108141
0.942626 0.142870 0.107530
0.961746 0.145373 0.108003
0.980880 0.148928 0.109270
1.000000 0.153414 0.111513
0.064454 0.208347 0.121065
0.095048 0.214633 0.124468
0.126879 0.222141 0.129274
0.164965 0.229145 0.133211
0.223224 0.232059 0.133761
0.299855 0.230640 0.131563
0.385138 0.227161 0.128420
0.472831 0.223346 0.124956
0.563348 0.219165 0.121279
0.654978 0.215030 0.117739
0.743770 0.212024 0.114488
0.825772 0.210941 0.112306
0.900389 0.212284 0.111482
0.942626 0.215900 0.111925
0.961746 0.220966 0.113222
0.980880 0.226429 0.114626
1.000000 0.231952 0.116335
0.048051 0.274144 0.110033
0.080324 0.284688 0.113634
0.115480 0.295125 0.118242
0.152590 0.305623 0.123339
0.211658 0.310384 0.124132
0.294102 0.309285 0.121233
0.384497 0.306096 0.117708
0.475059 0.302770 0.114565
0.566018 0.299092 0.111482
0.656336 0.295827 0.109300
0.741970 0.293858 0.107973
0.820096 0.293721 0.107622
0.891386 0.295506 0.108125
0.942626 0.299001 0.109117
0.961746 0.303578 0.110460
0.980880 0.308904 0.112001
1.000000 0.314229 0.113405
0.025666 0.354940 0.092989
0.059876 0.366949 0.096971
0.097108 0.378332 0.101625
0.135988 0.389517 0.108675
0.193729 0.395758 0.112062
0.278859 0.394278 0.110506
0.371542 0.390738 0.108614
0.462593 0.387243 0.107347
0.552682 0.383551 0.105516
0.641901 0.380072 0.103807
0.726665 0.377691 0.102495
0.805066 0.377218 0.102159
0.876417 0.378882 0.102831
0.941222 0.382239 0.104234
0.961746 0.386816 0.106081
0.980880 0.392035 0.108049
1.000000 0.397360 0.109819
0.004990 0.440131 0.074907
0.042359 0.451865 0.081086
0.082322 0.462943 0.088334
0.124559 0.472908 0.097749
0.180789 0.479194 0.104723
0.265095 0.477638 0.105165
0.357626 0.473335 0.103288
0.448371 0.469413 0.101549
0.538659 0.465568 0.099962
0.627771 0.462181 0.098405
0.713085 0.459800 0.097322
0.791745 0.459342 0.097047
0.863493 0.460945 0.097658
0.928771 0.464286 0.099077
0.961746 0.468742 0.101076
0.980880 0.473671 0.103304
1.000000 0.478416 0.105470
0.000000 0.523644 0.063111
0.032746 0.534264 0.071488
0.073945 0.544427 0.080049
0.117769 0.553475 0.089616
0.168826 0.560479 0.097765
0.249729 0.559731 0.099001
0.342870 0.555627 0.097520
0.434119 0.551827 0.096193
0.524224 0.547997 0.094514
0.613764 0.544518 0.093172
0.699107 0.542153 0.092134
0.777890 0.541543 0.091890
0.849607 0.542763 0.092393
0.915007 0.545586 0.093690
0.961746 0.549477 0.095247
0.980880 0.553796 0.097139
1.000000 0.557961 0.098970
0.000000 0.603708 0.056657
0.026246 0.614023 0.064958
0.066926 0.624109 0.073213
0.111162 0.633402 0.082475
0.159777 0.641459 0.092058
0.237293 0.641749 0.094453
0.330465 0.637369 0.093049
0.421637 0.633448 0.091646
0.511757 0.629541 0.090150
0.601083 0.625696 0.088747
0.686198 0.622858 0.087571
0.764767 0.621622 0.087144
0.836057 0.622171 0.087419
0.900862 0.624247 0.088273
0.960769 0.627314 0.089708
0.980880 0.630671 0.091188
1.000000 0.633875 0.092500
0.000000 0.682536 0.053040
0.022644 0.693049 0.061463
0.063432 0.703380 0.069947
0.107500 0.712673 0.078874
0.154757 0.720638 0.088869
0.229725 0.721279 0.091844
0.322469 0.716762 0.090501
0.413291 0.712322 0.089067
0.502968 0.707805 0.087373
0.591440 0.703349 0.085664
0.676112 0.699641 0.084214
0.753964 0.697490 0.083452
0.824567 0.696971 0.083314
0.888533 0.697902 0.083741
0.947692 0.699733 0.084581
0.980880 0.702144 0.085771
1.000000 0.704158 0.086580
0.000000 0.760159 0.053651
0.023011 0.770397 0.062028
0.063676 0.780331 0.070436
0.107362 0.789029 0.079103
0.154238 0.796689 0.088914
0.228016 0.796841 0.091783
0.319905 0.791638 0.090135
0.409674 0.786419 0.088319
0.498390 0.781003 0.086458
0.585992 0.775494 0.084337
0.669703 0.770718 0.082505
0.746624 0.767483 0.081269
0.816236 0.765728 0.080674
0.879332 0.765408 0.080583
0.937606 0.766247 0.081056
0.980880 0.767346 0.081575
1.000000 0.768399 0.082109
0.000000 0.835019 0.057618
0.026307 0.844572 0.065614
0.066789 0.853727 0.073793
0.109804 0.861708 0.082246
0.156863 0.868269 0.091310
0.230488 0.867216 0.093416
0.321157 0.861204 0.091508
0.409552 0.854871 0.089219
0.496956 0.848325 0.086717
0.583337 0.841642 0.084123
0.665934 0.835843 0.081956
0.741863 0.831281 0.080125
0.810712 0.828534 0.079225
0.872816 0.827100 0.078584
0.930129 0.826841 0.078599
0.980880 0.827024 0.078813
1.000000 0.826917 0.078798
0.000000 0.905959 0.063752
0.031769 0.914565 0.071473
0.071809 0.922606 0.079088
0.114214 0.929412 0.087343
0.161517 0.934447 0.095125
0.234943 0.932097 0.096132
0.323842 0.924926 0.093538
0.410925 0.917464 0.090700
0.497230 0.910002 0.087892
0.582345 0.902281 0.084688
0.664027 0.895354 0.082017
0.739025 0.889708 0.079744
0.807004 0.885893 0.078401
0.868376 0.883604 0.077485
0.924788 0.882277 0.077073
0.978119 0.881483 0.076875
1.000000 0.880705 0.076661
0.000000 0.961746 0.069596
0.036652 0.961746 0.076814
0.076143 0.961746 0.083772
0.117540 0.961746 0.091539
0.165316 0.961746 0.098299
0.238590 0.961746 0.098543
0.326268 0.961746 0.095552
0.412024 0.961746 0.092226
0.497124 0.961746 0.088945
0.581445 0.958312 0.085588
0.661799 0.950286 0.082093
0.736065 0.943893 0.079454
0.803433 0.939162 0.077699
0.864057 0.936095 0.076494
0.920089 0.934112 0.075822
0.972717 0.932677 0.075273
1.000000 0.931380 0.074754
0.001633 0.980880 0.073960
0.040055 0.980880 0.080339
0.079148 0.980880 0.086870
0.119539 0.980880 0.094346
0.167224 0.980880 0.100145
0.239597 0.980880 0.099718
0.325856 0.980880 0.096284
0.410742 0.980880 0.092668
0.494820 0.980880 0.089006
0.578332 0.980880 0.085161
0.658228 0.980880 0.081605
0.732113 0.980880 0.078798
0.798886 0.980880 0.076753
0.859312 0.980880 0.075349
0.914961 0.980880 0.074433
0.967758 0.980880 0.073823
1.000000 0.980285 0.073304
0.003479 1.000000 0.075731
0.041306 1.000000 0.081590
0.079744 1.000000 0.087587
0.119600 1.000000 0.094789
0.166064 1.000000 0.099977
0.236912 1.000000 0.099428
0.322118 1.000000 0.095659
0.406332 1.000000 0.091753
0.489693 1.000000 0.087831
0.572732 1.000000 0.083848
0.652399 1.000000 0.080186
0.725978 1.000000 0.077150
0.792569 1.000000 0.074785
0.852842 1.000000 0.073365
0.908309 1.000000 0.072267
0.960937 1.000000 0.071519
1.000000 1.000000 0.070985
0.070848 0.070909 0.158419
0.095857 0.072099 0.160601
0.122042 0.072236 0.161379
0.154559 0.070619 0.160082
0.194675 0.066926 0.155993
0.239567 0.061952 0.150088
0.287846 0.056489 0.143542
0.337728 0.051164 0.137362
0.389639 0.045563 0.131060
0.444373 0.039887 0.125048
0.501884 0.034485 0.119783
0.560403 0.029526 0.115480
0.619852 0.024994 0.112154
0.681620 0.020996 0.109895
0.745159 0.017151 0.108171
0.813611 0.013474 0.107149
0.886717 0.009705 0.106355
0.072877 0.097536 0.162005
0.097719 0.097902 0.162066
0.122866 0.098268 0.162417
