luts/Subway Steel.CUBE
# kravix mobile - LUTs Pack
LUT_3D_SIZE 9
0.070481 0.070512 0.070542
0.122774 0.072938 0.072999
0.195682 0.067704 0.067811
0.287282 0.057114 0.057313
0.385611 0.045975 0.046281
0.491218 0.034836 0.035248
0.603067 0.025666 0.026154
0.721645 0.018067 0.018646
0.854871 0.010575 0.011231
0.073976 0.124804 0.074372
0.126390 0.127123 0.076356
0.206043 0.125124 0.073594
0.321477 0.116854 0.064073
0.455406 0.106905 0.051865
0.609598 0.096147 0.038895
0.770016 0.088533 0.029435
0.924331 0.085847 0.024918
1.000000 0.086320 0.024277
0.062776 0.204807 0.063828
0.123857 0.217380 0.069276
0.217823 0.226154 0.070665
0.376486 0.221592 0.062760
0.552956 0.213703 0.053040
0.733059 0.206195 0.043885
0.891676 0.206027 0.039521
0.961746 0.213977 0.040299
1.000000 0.225299 0.044266
0.023835 0.347021 0.026108
0.093507 0.370794 0.031983
0.188220 0.388434 0.040024
0.365148 0.384039 0.034775
0.546715 0.376944 0.031266
0.720729 0.371298 0.028901
0.870100 0.372229 0.028778
0.961746 0.380407 0.031876
1.000000 0.390784 0.035660
0.000000 0.516732 0.000000
0.068040 0.537667 0.006607
0.162631 0.554131 0.024277
0.336309 0.548989 0.024353
0.517968 0.541466 0.021820
0.692897 0.535683 0.019669
0.843275 0.536278 0.019638
0.961746 0.543374 0.022416
1.000000 0.552285 0.025925
0.000000 0.675746 0.000000
0.057557 0.696559 0.000000
0.148821 0.714137 0.016190
0.316258 0.710460 0.017975
0.497063 0.701640 0.015289
0.670527 0.693843 0.012497
0.819348 0.691615 0.011704
0.943084 0.695094 0.013245
1.000000 0.699825 0.015137
0.000000 0.828550 0.000000
0.061265 0.847761 0.001053
0.151522 0.862852 0.018769
0.316228 0.856077 0.019364
0.492638 0.843656 0.015137
0.662058 0.831617 0.010895
0.807187 0.824796 0.008530
0.927077 0.823529 0.008255
1.000000 0.824033 0.008637
0.000000 0.961746 0.000000
0.071397 0.961746 0.011124
0.161196 0.961746 0.025910
0.323125 0.961746 0.023835
0.494362 0.961746 0.017945
0.659495 0.947540 0.011643
0.801160 0.936782 0.007706
0.917815 0.931838 0.005859
1.000000 0.929412 0.005203
0.000000 1.000000 0.004120
0.075898 1.000000 0.015946
0.163073 1.000000 0.028153
0.320333 1.000000 0.024506
0.488151 1.000000 0.017288
0.650721 1.000000 0.010132
0.790997 1.000000 0.005234
0.906676 1.000000 0.002853
1.000000 1.000000 0.001678
0.071229 0.071275 0.122057
0.122911 0.073076 0.124681
0.195636 0.067735 0.119402
0.288060 0.057160 0.108171
0.388846 0.046082 0.097566
0.498665 0.034836 0.087755
0.614450 0.025421 0.079896
0.737774 0.017685 0.073960
0.876524 0.010315 0.068543
0.074357 0.125200 0.126757
0.127275 0.127993 0.129488
0.208331 0.126925 0.128252
0.327352 0.118822 0.120134
0.466194 0.108843 0.109987
0.625360 0.098131 0.099641
0.789197 0.090913 0.092805
0.942626 0.088930 0.090730
1.000000 0.090486 0.092454
0.064454 0.208347 0.121065
0.126879 0.222141 0.129274
0.223224 0.232059 0.133761
0.385138 0.227161 0.128420
0.563348 0.219165 0.121279
0.743770 0.212024 0.114488
0.900389 0.212284 0.111482
0.961746 0.220966 0.113222
1.000000 0.231952 0.116335
0.025666 0.354940 0.092989
0.097108 0.378332 0.101625
0.193729 0.395758 0.112062
0.371542 0.390738 0.108614
0.552682 0.383551 0.105516
0.726665 0.377691 0.102495
0.876417 0.378882 0.102831
0.961746 0.386816 0.106081
1.000000 0.397360 0.109819
0.000000 0.523644 0.063111
0.073945 0.544427 0.080049
0.168826 0.560479 0.097765
0.342870 0.555627 0.097520
0.524224 0.547997 0.094514
0.699107 0.542153 0.092134
0.849607 0.542763 0.092393
0.961746 0.549477 0.095247
1.000000 0.557961 0.098970
0.000000 0.682536 0.053040
0.063432 0.703380 0.069947
0.154757 0.720638 0.088869
0.322469 0.716762 0.090501
0.502968 0.707805 0.087373
0.676112 0.699641 0.084214
0.824567 0.696971 0.083314
0.947692 0.699733 0.084581
1.000000 0.704158 0.086580
0.000000 0.835019 0.057618
0.066789 0.853727 0.073793
0.156863 0.868269 0.091310
0.321157 0.861204 0.091508
0.496956 0.848325 0.086717
0.665934 0.835843 0.081956
0.810712 0.828534 0.079225
0.930129 0.826841 0.078599
1.000000 0.826917 0.078798
0.000000 0.961746 0.069596
0.076143 0.961746 0.083772
0.165316 0.961746 0.098299
0.326268 0.961746 0.095552
0.497124 0.961746 0.088945
0.661799 0.950286 0.082093
0.803433 0.939162 0.077699
0.920089 0.934112 0.075822
1.000000 0.931380 0.074754
0.003479 1.000000 0.075731
0.079744 1.000000 0.087587
0.166064 1.000000 0.099977
0.322118 1.000000 0.095659
0.489693 1.000000 0.087831
0.652399 1.000000 0.080186
0.792569 1.000000 0.074785
0.908309 1.000000 0.072267
1.000000 1.000000 0.070985
0.069825 0.069886 0.203662
0.120378 0.070726 0.207202
0.192630 0.065324 0.202914
0.286412 0.054902 0.191516
0.389334 0.043916 0.180026
0.503777 0.032822 0.170199
0.623835 0.023087 0.165118
0.751354 0.014939 0.165774
0.894224 0.007187 0.170230
0.072236 0.123095 0.213336
0.125734 0.126421 0.219455
0.207279 0.125841 0.222660
0.329778 0.117922 0.216922
0.473747 0.108110 0.209552
0.637797 0.097261 0.203586
0.802686 0.090043 0.204318
0.955200 0.088350 0.212131
1.000000 0.090166 0.224491
0.063523 0.208713 0.221729
0.127047 0.223178 0.237888
0.224369 0.233738 0.250294
0.389578 0.228748 0.247196
0.569543 0.220905 0.240864
0.749523 0.213947 0.234913
0.904326 0.214664 0.236133
0.961746 0.222950 0.244327
1.000000 0.233219 0.254322
0.026184 0.359152 0.198672
0.098756 0.382147 0.215610
0.196109 0.399054 0.229282
0.374563 0.394064 0.223423
0.556054 0.387106 0.216571
0.730205 0.381323 0.211078
0.879835 0.382391 0.212222
0.961746 0.390097 0.220264
1.000000 0.399924 0.230533
0.000000 0.527596 0.166491
0.078737 0.547570 0.186877
0.173144 0.564141 0.204273
0.346685 0.559640 0.200763
0.528481 0.552422 0.194675
0.703288 0.546563 0.189960
0.853620 0.546853 0.190417
0.961746 0.553155 0.195956
1.000000 0.561059 0.203525
0.000000 0.686793 0.150195
0.069017 0.707210 0.170336
0.159869 0.724636 0.188922
0.326635 0.721050 0.187381
0.506661 0.712001 0.180728
0.679820 0.703655 0.175067
0.828061 0.700587 0.173114
0.950790 0.702724 0.174960
1.000000 0.706584 0.177844
0.000000 0.838209 0.158267
0.071565 0.856458 0.177020
0.161074 0.870832 0.193011
0.323445 0.863935 0.188205
0.499260 0.851133 0.178546
0.668101 0.838407 0.170092
0.812726 0.830732 0.165560
0.931838 0.828595 0.164492
1.000000 0.828260 0.164523
0.001175 0.961746 0.179431
0.079393 0.961746 0.193835
0.167468 0.961746 0.204303
0.326726 0.961746 0.194308
0.497704 0.961746 0.180880
0.662318 0.951568 0.169192
0.803952 0.940200 0.162768
0.920653 0.934844 0.160616
1.000000 0.932082 0.159533
0.005676 1.000000 0.191180
0.081712 1.000000 0.200519
0.167102 1.000000 0.206500
0.321263 1.000000 0.193515
0.489342 1.000000 0.178134
0.652247 1.000000 0.165789
0.792721 1.000000 0.159503
0.908522 1.000000 0.156817
1.000000 1.000000 0.155734
0.066239 0.066331 0.302708
0.116091 0.066850 0.308568
0.187335 0.061418 0.307042
0.282536 0.050935 0.300313
0.387304 0.039551 0.294484
0.505028 0.027848 0.292821
0.629206 0.017319 0.297978
0.760815 0.008392 0.310842
0.907210 0.000153 0.329229
0.068208 0.119142 0.323629
0.122118 0.122850 0.337118
0.203113 0.122576 0.350179
0.328176 0.114107 0.355505
0.476402 0.103548 0.361654
0.644633 0.091966 0.369985
0.809598 0.084520 0.382437
0.960464 0.082780 0.399619
1.000000 0.085649 0.417426
0.060304 0.205646 0.367254
0.124727 0.220249 0.397162
0.221195 0.231037 0.423499
0.388632 0.225193 0.431159
0.569192 0.216754 0.432258
0.748730 0.209964 0.431373
0.901350 0.210941 0.434012
0.961746 0.219135 0.441718
1.000000 0.229313 0.450858
0.021714 0.356634 0.386282
0.095186 0.378882 0.409567
0.192493 0.395804 0.426886
0.370855 0.390661 0.421927
0.551843 0.383291 0.414893
0.726177 0.377554 0.409461
0.876326 0.378775 0.410788
0.961746 0.386297 0.418021
1.000000 0.396185 0.427878
0.000000 0.523232 0.365454
0.076906 0.543267 0.385458
0.170428 0.560052 0.402472
0.342855 0.556207 0.398642
0.524575 0.548943 0.391562
0.699550 0.542992 0.385763
0.849912 0.543084 0.385992
0.961746 0.549004 0.391959
1.000000 0.556466 0.399512
0.000000 0.682612 0.346990
0.067384 0.703014 0.367697
0.157900 0.720424 0.385443
0.322194 0.717159 0.382345
0.502266 0.708064 0.373281
0.675242 0.699397 0.364782
0.823407 0.695994 0.361517
0.945739 0.697566 0.363302
1.000000 0.700832 0.366812
0.000000 0.833417 0.355016
0.069551 0.851270 0.373373
0.158068 0.865431 0.387961
0.317662 0.858869 0.381369
0.493294 0.845838 0.368185
0.662272 0.832929 0.355245
0.806790 0.825040 0.347234
0.925673 0.822507 0.344976
1.000000 0.821942 0.344625
0.000000 0.961746 0.374487
0.076249 0.961746 0.388052
0.162722 0.961746 0.397574
0.319066 0.961746 0.386465
0.489967 0.961501 0.368856
0.655222 0.945022 0.351934
0.796994 0.933577 0.340337
0.913756 0.928237 0.334936
1.000000 0.925414 0.332158
0.002136 1.000000 0.383658
0.077806 1.000000 0.392584
0.161440 1.000000 0.398215
0.312718 1.000000 0.384436
0.480873 1.000000 0.364263
0.644404 1.000000 0.345037
0.785550 1.000000 0.331579
0.901839 1.000000 0.324941
1.000000 1.000000 0.321614
0.062501 0.062623 0.401251
0.111894 0.062898 0.409445
0.182116 0.057587 0.410971
0.278553 0.046952 0.409277
0.385931 0.035187 0.410498
0.506584 0.022736 0.417563
0.634424 0.011399 0.433600
0.770077 0.001770 0.459663
0.919448 0.000000 0.491905
0.064073 0.115175 0.434638
0.118502 0.119188 0.457145
0.198856 0.119295 0.481041
0.326970 0.110231 0.498558
0.479545 0.098787 0.518425
0.650294 0.086763 0.539330
0.815045 0.079026 0.561685
0.961746 0.077730 0.586572
1.000000 0.081315 0.608133
0.056886 0.202487 0.517250
0.122301 0.217288 0.561379
0.217914 0.228168 0.599832
0.387121 0.221469 0.615854
0.568460 0.212924 0.622766
0.746792 0.206195 0.624109
0.898131 0.207645 0.627390
0.961746 0.215518 0.634501
1.000000 0.225803 0.643732
0.017441 0.353765 0.572931
0.091890 0.375830 0.600992
0.189136 0.392447 0.619944
0.367163 0.387182 0.615137
0.548196 0.379721 0.608316
0.722805 0.374090 0.603037
0.872908 0.375189 0.604105
0.961746 0.382864 0.611429
1.000000 0.392584 0.620722
0.000000 0.519249 0.558846
0.075013 0.539300 0.578714
0.167865 0.556435 0.595773
0.339117 0.552758 0.592355
0.520745 0.545449 0.585367
0.695766 0.539391 0.579614
0.845975 0.539117 0.579461
0.961746 0.544625 0.584878
1.000000 0.551827 0.591959
0.000000 0.678676 0.540749
0.065583 0.698940 0.561120
0.155581 0.716136 0.578439
0.317769 0.713298 0.575769
0.497688 0.703777 0.566644
0.670207 0.694682 0.557671
0.817945 0.690608 0.553780
0.940078 0.691798 0.555276
1.000000 0.694636 0.558068
0.000000 0.828748 0.547738
0.067231 0.846189 0.565454
0.155154 0.859937 0.579416
0.311574 0.853605 0.573266
0.486839 0.840085 0.559838
0.655497 0.826673 0.546593
0.799741 0.818296 0.538384
0.918608 0.815335 0.535592
1.000000 0.814420 0.534936
0.000000 0.960601 0.565103
0.072969 0.961746 0.578027
0.158404 0.961746 0.587213
0.311345 0.961746 0.576684
0.481987 0.954437 0.559045
0.647028 0.937545 0.542016
0.788998 0.925963 0.530434
0.905715 0.920378 0.524941
1.000000 0.917235 0.521981
0.000000 1.000000 0.572274
0.073808 1.000000 0.580880
0.156603 1.000000 0.586282
0.303700 1.000000 0.573571
0.472190 1.000000 0.553689
0.635645 1.000000 0.534798
0.776959 1.000000 0.521492
0.893385 1.000000 0.514931
0.998352 1.000000 0.511635
0.059297 0.059464 0.492851
0.108492 0.059510 0.503059
0.178058 0.054383 0.507805
0.275792 0.043488 0.511193
0.386465 0.031403 0.520531
0.510552 0.018219 0.536248
0.642344 0.006073 0.562844
0.781903 0.000000 0.600931
0.933303 0.000000 0.644907
0.060685 0.112093 0.539483
0.115663 0.116274 0.570932
0.196048 0.116716 0.605982
0.327855 0.107210 0.635767
0.484764 0.094942 0.667674
0.657374 0.082612 0.697475
0.822248 0.075105 0.727092
0.961746 0.074311 0.756039
1.000000 0.078950 0.779507
0.053880 0.200549 0.659831
0.120119 0.215824 0.716274
0.215900 0.226535 0.763149
0.387167 0.219547 0.784726
0.568902 0.210773 0.793896
0.746334 0.204578 0.795926
0.896391 0.206119 0.797940
0.961746 0.213840 0.805127
1.000000 0.224125 0.813901
0.014237 0.352880 0.742748
0.089754 0.374472 0.772457
0.187732 0.391043 0.791257
0.365332 0.385672 0.786282
0.546242 0.378210 0.779263
0.720867 0.372488 0.774029
0.871427 0.373693 0.775296
0.961746 0.381109 0.781994
1.000000 0.390753 0.791089
0.000000 0.517266 0.729976
0.074037 0.537346 0.749584
0.166674 0.554818 0.766812
0.337224 0.551263 0.763653
0.518883 0.543893 0.756542
0.693629 0.537453 0.750439
0.843824 0.536965 0.750011
0.961746 0.542168 0.754955
1.000000 0.548836 0.761257
0.000000 0.676860 0.712215
0.064607 0.696895 0.732036
0.154498 0.714015 0.749065
0.315175 0.711192 0.746487
0.494789 0.701289 0.736767
0.667033 0.691661 0.727626
0.814389 0.687053 0.723247
0.936141 0.687800 0.724025
1.000000 0.690211 0.726238
0.000000 0.825879 0.717678
0.065553 0.842954 0.734585
0.153185 0.856397 0.748104
0.307179 0.850111 0.742061
0.482200 0.836072 0.728313
0.650523 0.822187 0.714748
0.794522 0.813352 0.706172
0.913298 0.810086 0.703059
1.000000 0.808698 0.701991
0.000000 0.956237 0.732708
0.070634 0.961746 0.745052
0.155520 0.961746 0.753780
0.305486 0.961746 0.743694
0.475975 0.949248 0.725963
0.640803 0.931868 0.708721
0.782574 0.920043 0.696956
0.899382 0.914214 0.691402
1.000000 0.911116 0.688380
0.000000 1.000000 0.738033
0.070710 1.000000 0.746029
0.153216 1.000000 0.751492
0.296849 1.000000 0.739422
0.465263 1.000000 0.719661
0.628901 1.000000 0.700771
0.770214 1.000000 0.687587
0.886809 1.000000 0.681010
0.991958 1.000000 0.677729
0.057176 0.057359 0.571725
0.106264 0.057221 0.582788
0.176074 0.052277 0.591775
0.275578 0.041138 0.599908
0.389624 0.028702 0.616678
0.518181 0.014862 0.640650
0.654932 0.002075 0.676570
0.798489 0.000000 0.724239
0.950866 0.000000 0.775555
0.058778 0.110567 0.632074
0.114336 0.114961 0.671382
0.195972 0.115526 0.715618
0.331991 0.105760 0.755657
0.493446 0.093263 0.796460
0.668086 0.080766 0.831403
0.832349 0.073609 0.863569
0.961746 0.073854 0.893736
1.000000 0.079530 0.915984
0.051774 0.201282 0.783505
0.118868 0.217029 0.847639
0.216617 0.227802 0.898909
0.389685 0.220478 0.921553
0.571847 0.212039 0.923506
0.748150 0.206119 0.923506
0.897917 0.207675 0.923506
0.961746 0.215274 0.923506
1.000000 0.225849 0.923506
0.012589 0.355108 0.879744
0.089754 0.376638 0.908888
0.188937 0.392737 0.923506
0.366461 0.387091 0.920974
0.547402 0.379583 0.914137
0.722332 0.374105 0.909178
0.872694 0.375143 0.909880
0.961746 0.382589 0.916609
1.000000 0.392081 0.923506
0.000000 0.518685 0.865232
0.074815 0.539025 0.884901
0.167636 0.556374 0.901869
0.338643 0.552804 0.898680
0.519844 0.545144 0.891386
0.694575 0.538628 0.885267
0.844587 0.537835 0.884459
0.961746 0.542672 0.888899
1.000000 0.548867 0.894560
0.000000 0.678325 0.847578
0.065339 0.698375 0.867063
0.154910 0.715023 0.883635
0.315526 0.711788 0.880690
0.494636 0.701488 0.870649
0.666575 0.691524 0.861265
0.813626 0.686351 0.856367
0.934997 0.686671 0.856672
1.000000 0.688624 0.858503
0.000000 0.826520 0.851850
0.065690 0.843107 0.868101
0.152804 0.855879 0.880888
0.306111 0.849332 0.874876
0.480522 0.834882 0.860716
0.648478 0.820539 0.847013
0.792203 0.811261 0.837903
0.910567 0.807630 0.834440
1.000000 0.806119 0.833036
0.000000 0.955123 0.864637
0.069871 0.961746 0.876371
0.154345 0.961746 0.884825
0.302647 0.961746 0.874876
0.472892 0.946807 0.856855
0.637629 0.929320 0.839734
0.779324 0.917021 0.827695
0.896025 0.911025 0.821866
1.000000 0.907820 0.818799
0.000000 1.000000 0.868025
0.069215 1.000000 0.875837
0.151476 1.000000 0.881041
0.293202 1.000000 0.869749
0.461646 1.000000 0.849897
0.625116 1.000000 0.831128
0.766598 1.000000 0.817929
0.883360 1.000000 0.811383
0.988586 1.000000 0.808164
0.055528 0.055741 0.644099
0.104631 0.055512 0.656321
0.175265 0.050721 0.670146
0.277165 0.039429 0.684230
0.394583 0.026490 0.707515
0.527703 0.012024 0.739147
0.669383 0.000000 0.783612
0.817365 0.000000 0.839841
0.969207 0.000000 0.895048
0.057633 0.109911 0.720211
0.113924 0.114595 0.767529
0.197757 0.115175 0.820157
0.338201 0.105272 0.869032
0.503609 0.092683 0.915740
0.679728 0.080156 0.952850
0.843793 0.073732 0.961746
0.961746 0.074983 0.961746
1.000000 0.081987 0.961746
0.050263 0.203784 0.900160
0.118257 0.219913 0.961746
0.218677 0.230335 0.961746
0.393622 0.223133 0.961746
0.575814 0.214817 0.961746
0.751293 0.209461 0.961746
0.900572 0.210666 0.961746
0.961746 0.218509 0.961746
1.000000 0.228992 0.961746
0.012223 0.359182 0.961746
0.090913 0.380270 0.961746
0.191501 0.395972 0.961746
0.369024 0.390097 0.961746
0.550179 0.382788 0.961746
0.724895 0.377234 0.961746
0.875608 0.378241 0.961746
0.961746 0.385412 0.961746
1.000000 0.394705 0.961746
0.000000 0.522087 0.961746
0.076448 0.542367 0.961746
0.169955 0.559731 0.961746
0.341314 0.555749 0.961746
0.522622 0.548043 0.961746
0.696956 0.541176 0.961746
0.846601 0.540002 0.961746
0.961746 0.544579 0.961746
1.000000 0.550301 0.961746
0.000000 0.681666 0.961746
0.066789 0.701305 0.961746
0.156298 0.717876 0.961746
0.317693 0.713939 0.961746
0.496071 0.703227 0.961746
0.667536 0.692699 0.961746
0.814237 0.687114 0.961746
0.935225 0.686961 0.961746
1.000000 0.688487 0.961746
0.000000 0.828779 0.961746
0.066636 0.844770 0.961746
0.153368 0.857023 0.961746
0.306416 0.849989 0.961746
0.480323 0.835081 0.961746
0.647852 0.820279 0.960555
0.791592 0.810681 0.951431
0.909392 0.806577 0.947524
1.000000 0.804791 0.945861
0.000000 0.955581 0.961746
0.069871 0.961746 0.961746
0.154025 0.961746 0.961746
0.301656 0.961746 0.961746
0.471321 0.945785 0.961746
0.635828 0.927993 0.952392
0.777646 0.915633 0.940475
0.894301 0.909468 0.934569
0.999298 0.906111 0.931212
0.000000 1.000000 0.961746
0.068696 1.000000 0.961746
0.150591 1.000000 0.961746
0.291127 1.000000 0.961746
0.459419 1.000000 0.961700
0.623056 1.000000 0.943389
0.764614 1.000000 0.930526
0.881498 1.000000 0.924056
0.986893 1.000000 0.920806
0.053864 0.054093 0.716472
0.103136 0.053864 0.730907
0.174578 0.049149 0.749523
0.279393 0.037751 0.771710
0.400473 0.024277 0.802106
0.538247 0.009125 0.841901
0.684871 0.000000 0.895048
0.835523 0.000000 0.957702
0.987045 0.000000 1.000000
0.056489 0.109255 0.810666
0.113588 0.114336 0.867231
0.200076 0.115084 0.929625
0.344854 0.104936 0.986053
0.513085 0.092271 1.000000
0.691218 0.079942 1.000000
0.854002 0.074189 1.000000
0.961746 0.076799 1.000000
1.000000 0.084703 1.000000
0.048814 0.206394 1.000000
0.117464 0.222843 1.000000
0.221073 0.233158 1.000000
0.397192 0.225925 1.000000
0.579202 0.218082 1.000000
0.753948 0.212787 1.000000
0.903365 0.213901 1.000000
0.961746 0.221744 1.000000
1.000000 0.232456 1.000000
0.012177 0.363088 1.000000
0.092546 0.384070 1.000000
0.194156 0.399161 1.000000
0.372091 0.393210 1.000000
0.552926 0.385916 1.000000
0.727932 0.380438 1.000000
0.878355 0.381231 1.000000
0.961746 0.388373 1.000000
1.000000 0.397421 1.000000
0.000000 0.525521 1.000000
0.078126 0.545968 1.000000
0.172137 0.562982 1.000000
0.344350 0.558709 1.000000
0.524956 0.550805 1.000000
0.699184 0.543770 1.000000
0.848676 0.542245 1.000000
0.961746 0.546181 1.000000
1.000000 0.551583 1.000000
0.000000 0.684916 1.000000
0.068284 0.704433 1.000000
0.157809 0.720592 1.000000
0.319524 0.716060 1.000000
0.497414 0.704860 1.000000
0.668330 0.693767 1.000000
0.814633 0.687785 1.000000
0.935378 0.687160 1.000000
1.000000 0.688258 1.000000
0.000000 0.830716 1.000000
0.067430 0.846342 1.000000
0.153903 0.858015 1.000000
0.306584 0.850507 1.000000
0.479988 0.835187 1.000000
0.647120 0.819989 1.000000
0.790646 0.809949 1.000000
0.908354 0.805493 1.000000
1.000000 0.803494 1.000000
0.000000 0.955901 1.000000
0.069779 0.961746 1.000000
0.153597 0.961746 1.000000
0.300282 0.961746 1.000000
0.469734 0.944747 1.000000
0.634195 0.926665 1.000000
0.775799 0.914137 1.000000
0.892348 0.907866 1.000000
0.997421 0.904387 1.000000
0.000000 1.000000 1.000000
0.067979 1.000000 1.000000
0.149752 1.000000 1.000000
0.288975 1.000000 1.000000
0.457206 1.000000 1.000000
0.620859 1.000000 1.000000
0.762722 1.000000 1.000000
0.879774 1.000000 1.000000
0.984939 1.000000 1.000000
