luts/Subway Steel.CUBE
# kravix mobile - LUTs Pack
LUT_3D_SIZE 5
0.070481 0.070512 0.070542
0.195682 0.067704 0.067811
0.385611 0.045975 0.046281
0.603067 0.025666 0.026154
0.854871 0.010575 0.011231
0.062776 0.204807 0.063828
0.217823 0.226154 0.070665
0.552956 0.213703 0.053040
0.891676 0.206027 0.039521
1.000000 0.225299 0.044266
0.000000 0.516732 0.000000
0.162631 0.554131 0.024277
0.517968 0.541466 0.021820
0.843275 0.536278 0.019638
1.000000 0.552285 0.025925
0.000000 0.828550 0.000000
0.151522 0.862852 0.018769
0.492638 0.843656 0.015137
0.807187 0.824796 0.008530
1.000000 0.824033 0.008637
0.000000 1.000000 0.004120
0.163073 1.000000 0.028153
0.488151 1.000000 0.017288
0.790997 1.000000 0.005234
1.000000 1.000000 0.001678
0.069825 0.069886 0.203662
0.192630 0.065324 0.202914
0.389334 0.043916 0.180026
0.623835 0.023087 0.165118
0.894224 0.007187 0.170230
0.063523 0.208713 0.221729
0.224369 0.233738 0.250294
0.569543 0.220905 0.240864
0.904326 0.214664 0.236133
1.000000 0.233219 0.254322
0.000000 0.527596 0.166491
0.173144 0.564141 0.204273
0.528481 0.552422 0.194675
0.853620 0.546853 0.190417
1.000000 0.561059 0.203525
0.000000 0.838209 0.158267
0.161074 0.870832 0.193011
0.499260 0.851133 0.178546
0.812726 0.830732 0.165560
1.000000 0.828260 0.164523
0.005676 1.000000 0.191180
0.167102 1.000000 0.206500
0.489342 1.000000 0.178134
0.792721 1.000000 0.159503
1.000000 1.000000 0.155734
0.062501 0.062623 0.401251
0.182116 0.057587 0.410971
0.385931 0.035187 0.410498
0.634424 0.011399 0.433600
0.919448 0.000000 0.491905
0.056886 0.202487 0.517250
0.217914 0.228168 0.599832
0.568460 0.212924 0.622766
0.898131 0.207645 0.627390
1.000000 0.225803 0.643732
0.000000 0.519249 0.558846
0.167865 0.556435 0.595773
0.520745 0.545449 0.585367
0.845975 0.539117 0.579461
1.000000 0.551827 0.591959
0.000000 0.828748 0.547738
0.155154 0.859937 0.579416
0.486839 0.840085 0.559838
0.799741 0.818296 0.538384
1.000000 0.814420 0.534936
0.000000 1.000000 0.572274
0.156603 1.000000 0.586282
0.472190 1.000000 0.553689
0.776959 1.000000 0.521492
0.998352 1.000000 0.511635
0.057176 0.057359 0.571725
0.176074 0.052277 0.591775
0.389624 0.028702 0.616678
0.654932 0.002075 0.676570
0.950866 0.000000 0.775555
0.051774 0.201282 0.783505
0.216617 0.227802 0.898909
0.571847 0.212039 0.923506
0.897917 0.207675 0.923506
1.000000 0.225849 0.923506
0.000000 0.518685 0.865232
0.167636 0.556374 0.901869
0.519844 0.545144 0.891386
0.844587 0.537835 0.884459
1.000000 0.548867 0.894560
0.000000 0.826520 0.851850
0.152804 0.855879 0.880888
0.480522 0.834882 0.860716
0.792203 0.811261 0.837903
1.000000 0.806119 0.833036
0.000000 1.000000 0.868025
0.151476 1.000000 0.881041
0.461646 1.000000 0.849897
0.766598 1.000000 0.817929
0.988586 1.000000 0.808164
0.053864 0.054093 0.716472
0.174578 0.049149 0.749523
0.400473 0.024277 0.802106
0.684871 0.000000 0.895048
0.987045 0.000000 1.000000
0.048814 0.206394 1.000000
0.221073 0.233158 1.000000
0.579202 0.218082 1.000000
0.903365 0.213901 1.000000
1.000000 0.232456 1.000000
0.000000 0.525521 1.000000
0.172137 0.562982 1.000000
0.524956 0.550805 1.000000
0.848676 0.542245 1.000000
1.000000 0.551583 1.000000
0.000000 0.830716 1.000000
0.153903 0.858015 1.000000
0.479988 0.835187 1.000000
0.790646 0.809949 1.000000
1.000000 0.803494 1.000000
0.000000 1.000000 1.000000
0.149752 1.000000 1.000000
0.457206 1.000000 1.000000
0.762722 1.000000 1.000000
0.984939 1.000000 1.000000
