luts/Summer_Getaway.CUBE
# kravix mobile - LUTs Pack
LUT_3D_SIZE 9
0.035431 0.035706 0.035874
0.128893 0.034455 0.035447
0.241489 0.027848 0.030549
0.380499 0.013672 0.019638
0.503532 0.003235 0.011643
0.599649 0.000000 0.008331
0.681895 0.000031 0.009796
0.786404 0.000000 0.007431
0.891844 0.000000 0.005432
0.029541 0.125780 0.036271
0.122713 0.123339 0.028794
0.225681 0.117357 0.024887
0.367010 0.102800 0.015534
0.499641 0.091264 0.009476
0.604761 0.088075 0.009842
0.691875 0.091279 0.014710
0.795224 0.092348 0.017197
0.906798 0.094881 0.021073
0.014313 0.216068 0.030121
0.108766 0.216175 0.022675
0.213107 0.213962 0.020157
0.358785 0.201251 0.017273
0.504219 0.191592 0.017609
0.623362 0.192966 0.026200
0.721294 0.202914 0.039857
0.827543 0.212131 0.051453
0.944930 0.220157 0.061036
0.000000 0.326040 0.015610
0.075639 0.332265 0.015457
0.179583 0.340322 0.017182
0.334966 0.335836 0.010697
0.505669 0.326650 0.023529
0.646494 0.327108 0.043763
0.756954 0.337392 0.066117
0.862287 0.350408 0.088456
0.983948 0.359930 0.102358
0.000000 0.459403 0.024521
0.074372 0.472496 0.030884
0.168444 0.486229 0.038453
0.298787 0.494423 0.028504
0.484627 0.486259 0.023941
0.649973 0.481804 0.048066
0.776669 0.488182 0.076890
0.888319 0.499352 0.106065
1.000000 0.509941 0.126558
0.000000 0.600412 0.059419
0.087449 0.617121 0.068818
0.187366 0.633478 0.078050
0.297276 0.647745 0.078248
0.461448 0.649134 0.053025
0.639933 0.642695 0.062058
0.783429 0.644388 0.089921
0.900771 0.652842 0.118685
1.000000 0.660471 0.141482
0.036210 0.739330 0.111757
0.133043 0.757183 0.121996
0.230991 0.774609 0.131151
0.331319 0.790997 0.137377
0.464332 0.799786 0.114000
0.636545 0.794553 0.099138
0.786923 0.790997 0.115892
0.904646 0.795377 0.138216
1.000000 0.800000 0.151446
0.084428 0.878614 0.164843
0.182986 0.893675 0.176257
0.281254 0.907195 0.185916
0.376242 0.920851 0.191684
0.488823 0.925628 0.174182
0.643885 0.925628 0.146715
0.798444 0.922011 0.151232
0.917479 0.922591 0.162432
1.000000 0.921706 0.164462
0.111101 1.000000 0.201511
0.206836 1.000000 0.210147
0.302983 1.000000 0.217807
0.398093 1.000000 0.224079
0.504784 1.000000 0.217411
0.640284 1.000000 0.186999
0.787579 1.000000 0.165682
0.911330 1.000000 0.165164
1.000000 1.000000 0.167926
0.032685 0.035996 0.128450
0.128069 0.034134 0.128176
0.240253 0.027619 0.121859
0.380331 0.013397 0.108721
0.504265 0.002243 0.098482
0.601953 0.000000 0.093278
0.685237 0.000000 0.093889
0.786175 0.000000 0.092195
0.891829 0.000000 0.090288
0.030793 0.125063 0.124498
0.122118 0.122103 0.122087
0.225177 0.116793 0.117968
0.367559 0.102464 0.106493
0.501457 0.091020 0.097505
0.607965 0.087984 0.095674
0.696193 0.091615 0.099657
0.796689 0.094636 0.103487
0.909834 0.097856 0.109926
0.018860 0.214374 0.123522
0.110796 0.215152 0.119448
0.213855 0.214054 0.113939
0.360769 0.201831 0.109865
0.508141 0.192920 0.108171
0.629206 0.195087 0.115190
0.728222 0.205417 0.127871
0.831296 0.216175 0.140429
0.948959 0.224521 0.150286
0.000000 0.326024 0.109697
0.081147 0.333394 0.111376
0.183871 0.342504 0.114473
0.338750 0.338979 0.104753
0.511666 0.329549 0.116228
0.653941 0.330220 0.134325
0.765438 0.340948 0.155535
0.867811 0.354757 0.178119
0.988678 0.364477 0.192309
0.000000 0.461997 0.117662
0.074372 0.475654 0.124895
0.173907 0.489799 0.133074
0.301091 0.499123 0.123873
0.489693 0.490776 0.114961
0.657588 0.485725 0.137682
0.785473 0.491844 0.165454
0.897749 0.503105 0.193545
1.000000 0.514504 0.216861
0.000000 0.604929 0.150729
0.092256 0.621500 0.160204
0.192096 0.637964 0.169589
0.300908 0.652705 0.170901
0.462943 0.654856 0.142809
0.645289 0.647684 0.148806
0.791058 0.648554 0.175586
0.909148 0.656672 0.203571
1.000000 0.664271 0.231220
0.040406 0.744564 0.201053
0.136919 0.762325 0.211261
0.234607 0.779736 0.220478
0.334401 0.796139 0.226917
0.464759 0.805234 0.202884
0.638086 0.799588 0.183200
0.791287 0.795087 0.197925
0.910369 0.798993 0.219501
1.000000 0.803296 0.240299
0.091707 0.882261 0.255100
0.189685 0.896819 0.266163
0.284199 0.911467 0.273503
0.377661 0.925002 0.278370
0.488960 0.925628 0.261326
0.642924 0.925628 0.230076
0.800366 0.925628 0.231205
0.919890 0.924712 0.245792
1.000000 0.922072 0.250111
0.117418 1.000000 0.290791
0.212940 1.000000 0.299413
0.308690 1.000000 0.306905
0.403098 1.000000 0.312779
0.507927 1.000000 0.305974
0.637140 1.000000 0.269581
0.788861 1.000000 0.251698
0.913756 1.000000 0.252308
1.000000 1.000000 0.255116
0.024842 0.035401 0.245014
0.119905 0.033509 0.245457
0.235492 0.026398 0.234318
0.377920 0.012268 0.211856
0.504616 0.000702 0.191989
0.604547 0.000000 0.182040
0.688777 0.000000 0.180346
0.785992 0.000000 0.178286
0.891951 0.000000 0.176165
0.023713 0.124788 0.229007
0.115953 0.121340 0.227588
0.222324 0.116045 0.221073
0.367025 0.101884 0.203586
0.503243 0.090486 0.189776
0.611536 0.087648 0.184619
0.700877 0.091753 0.187121
0.798764 0.096819 0.191653
0.912077 0.101122 0.197009
0.019287 0.214328 0.212711
0.113725 0.214237 0.213184
0.214435 0.213825 0.213184
0.362860 0.202472 0.205264
0.512062 0.194644 0.200473
0.634882 0.197513 0.204929
0.734768 0.208148 0.216068
0.834760 0.220325 0.228717
0.952544 0.228916 0.238514
0.000000 0.325917 0.204318
0.088579 0.334203 0.208316
0.189868 0.343893 0.212528
0.342397 0.341924 0.200183
0.517968 0.332601 0.210071
0.661418 0.333471 0.225681
0.773556 0.344244 0.245396
0.876707 0.358373 0.266865
0.993500 0.369070 0.282704
0.000000 0.464668 0.211185
0.078737 0.478584 0.219150
0.180331 0.492973 0.227909
0.304189 0.503471 0.220569
0.494652 0.495094 0.207263
0.665293 0.489143 0.228946
0.794553 0.495277 0.255818
0.907393 0.506539 0.282673
1.000000 0.519036 0.308232
0.000000 0.608942 0.242344
0.097841 0.625788 0.252659
0.197375 0.641993 0.262409
0.304936 0.657176 0.265431
0.463844 0.660746 0.235203
0.650477 0.652247 0.237171
0.798825 0.652384 0.262760
0.917662 0.659800 0.289815
1.000000 0.667414 0.318929
0.044724 0.749310 0.291325
0.141222 0.767254 0.301885
0.238437 0.784436 0.311040
0.337591 0.800702 0.317708
0.464820 0.810239 0.293751
0.639033 0.804623 0.268849
0.795468 0.798810 0.281071
0.916259 0.802335 0.302007
1.000000 0.806195 0.327474
0.099016 0.885435 0.345846
0.193545 0.900999 0.355154
0.286351 0.915541 0.361517
0.379507 0.925628 0.366537
0.488960 0.925628 0.350118
0.641215 0.925628 0.315282
0.801602 0.925628 0.312169
0.922408 0.925628 0.324819
1.000000 0.922164 0.336507
0.123919 1.000000 0.380743
0.219318 1.000000 0.389471
0.314504 1.000000 0.396643
0.408026 1.000000 0.401907
0.510735 1.000000 0.394919
0.631983 1.000000 0.351675
0.787701 1.000000 0.331167
0.916121 1.000000 0.339345
1.000000 1.000000 0.343206
0.010819 0.033692 0.390280
0.102678 0.032471 0.391806
0.215366 0.025376 0.389654
0.366415 0.008728 0.363546
0.500740 0.000000 0.330816
0.607569 0.000000 0.309316
0.694987 0.000000 0.298833
0.782818 0.000000 0.290608
0.889479 0.000000 0.285313
0.009903 0.122057 0.375738
0.100908 0.119158 0.375265
0.203540 0.115038 0.374777
0.357824 0.098482 0.354086
0.501411 0.086641 0.326421
0.615915 0.083741 0.308705
0.708507 0.088533 0.302907
0.798016 0.097810 0.302052
0.912551 0.103136 0.305028
0.006149 0.213153 0.353689
0.100496 0.213077 0.357931
0.200610 0.212955 0.363256
0.357488 0.200519 0.352911
0.514015 0.193301 0.333730
0.642069 0.196353 0.325719
0.744503 0.207507 0.328862
0.840986 0.221820 0.335836
0.955093 0.232288 0.343679
0.000000 0.324681 0.320317
0.094835 0.332799 0.328908
0.198581 0.341970 0.338628
0.344106 0.341360 0.338521
0.524224 0.332494 0.334615
0.670542 0.333959 0.339193
0.784253 0.345312 0.351888
0.888273 0.359838 0.367254
0.997391 0.372961 0.381338
0.000000 0.463493 0.328130
0.089998 0.477684 0.337789
0.191318 0.492622 0.346944
0.309285 0.504677 0.340627
0.498878 0.498177 0.313726
0.674327 0.491310 0.330388
0.804715 0.497520 0.352605
0.917967 0.509209 0.376196
1.000000 0.522683 0.401251
0.006607 0.611521 0.345846
0.104494 0.628321 0.355444
0.204013 0.644999 0.363882
0.309895 0.660731 0.366537
0.462913 0.666163 0.333318
0.655543 0.656718 0.328710
0.807050 0.655634 0.352361
0.925628 0.662654 0.378119
1.000000 0.669688 0.405371
0.049577 0.753704 0.384726
0.145739 0.771496 0.395117
0.242847 0.788815 0.404105
0.341283 0.804913 0.410498
0.465141 0.815015 0.387060
0.638788 0.809445 0.355886
0.799496 0.802472 0.365408
0.922194 0.805432 0.385595
1.000000 0.808743 0.410040
0.104067 0.889403 0.435920
0.196475 0.904952 0.444068
0.289021 0.919417 0.450385
0.381796 0.925628 0.455360
0.489403 0.925628 0.440024
0.638560 0.925628 0.401801
0.802197 0.925628 0.393774
0.924468 0.925628 0.404486
1.000000 0.922408 0.416434
0.130526 1.000000 0.470466
0.225605 1.000000 0.479026
0.320226 1.000000 0.485832
0.412833 1.000000 0.490593
0.508263 1.000000 0.480095
0.627939 1.000000 0.437613
0.785702 1.000000 0.412161
0.917708 1.000000 0.418372
1.000000 1.000000 0.432334
0.001068 0.032731 0.515602
0.089921 0.032120 0.519387
0.193362 0.027085 0.522957
0.342367 0.008637 0.513680
0.485618 0.000000 0.482048
0.600351 0.000000 0.453910
0.692576 0.000000 0.438636
0.779889 0.000000 0.423987
0.884443 0.000000 0.417960
0.000000 0.119631 0.508980
0.088624 0.117601 0.511345
0.185229 0.115282 0.515023
0.334936 0.098512 0.511772
0.488350 0.084138 0.483696
0.611078 0.080263 0.457725
0.709407 0.085054 0.446708
0.804654 0.094545 0.439521
0.909972 0.103532 0.439597
0.000000 0.210269 0.498726
0.090166 0.210956 0.505074
0.187045 0.212268 0.512352
0.335805 0.201755 0.518257
0.504479 0.192203 0.498589
0.641093 0.194247 0.479988
0.749142 0.205066 0.475944
0.850904 0.219120 0.475013
0.953613 0.233646 0.478019
0.000000 0.324498 0.468330
0.085161 0.333257 0.482307
0.187839 0.342550 0.497932
0.327794 0.342077 0.517189
0.519692 0.330098 0.512230
0.674784 0.331167 0.500191
0.793500 0.342290 0.501961
0.901625 0.356603 0.507164
1.000000 0.373327 0.514473
0.000000 0.463401 0.456641
0.095903 0.477073 0.470573
0.198734 0.491127 0.484977
0.319905 0.500954 0.495674
0.499733 0.495048 0.490043
0.683772 0.487541 0.487877
0.818647 0.494118 0.497093
0.925628 0.505806 0.510246
1.000000 0.519493 0.525139
0.019074 0.608988 0.481880
0.117464 0.625360 0.495476
0.217350 0.641459 0.507576
0.322347 0.657099 0.515908
0.460670 0.665949 0.491142
0.658717 0.657359 0.459464
0.819471 0.654093 0.475700
0.925628 0.660517 0.494881
1.000000 0.667491 0.514626
0.057328 0.753704 0.512184
0.153140 0.771496 0.523903
0.249332 0.788540 0.533043
0.346532 0.804730 0.538964
0.463966 0.816190 0.516976
0.630045 0.814221 0.469322
0.802960 0.804517 0.467201
0.925628 0.806439 0.483482
1.000000 0.808713 0.503655
0.107576 0.891112 0.549783
0.199374 0.906523 0.557885
0.291051 0.920745 0.563287
0.383429 0.925628 0.566888
0.487907 0.925628 0.551202
0.629297 0.925628 0.505730
0.799634 0.925628 0.483864
0.925582 0.925628 0.489403
1.000000 0.923140 0.499352
0.140581 1.000000 0.576852
0.235172 1.000000 0.584680
0.328954 1.000000 0.589990
0.416266 1.000000 0.590112
0.504250 1.000000 0.574258
0.622370 1.000000 0.530648
0.781750 1.000000 0.496635
0.918929 1.000000 0.499367
1.000000 1.000000 0.512215
0.000000 0.032898 0.610361
0.084626 0.032639 0.615946
0.181430 0.029114 0.622675
0.319081 0.012253 0.625818
0.464820 0.000000 0.606683
0.584619 0.000000 0.581796
0.680201 0.000000 0.566644
0.773785 0.000000 0.551827
0.880659 0.000000 0.547860
0.000000 0.118517 0.610330
0.083360 0.117418 0.615473
0.175860 0.116304 0.621973
0.312505 0.102480 0.629938
0.467918 0.086427 0.616068
0.596689 0.081178 0.592996
0.699718 0.085786 0.581842
0.799802 0.095201 0.573037
0.908049 0.103685 0.573220
0.000000 0.208774 0.610636
0.086641 0.210361 0.618860
0.180789 0.213092 0.628611
0.316594 0.206806 0.643870
0.485878 0.196216 0.641337
0.629633 0.196567 0.624964
0.742351 0.206592 0.619120
0.848661 0.219974 0.615122
0.952621 0.234989 0.614786
0.000000 0.322774 0.600366
0.087144 0.332158 0.616892
0.187991 0.342245 0.634974
0.318822 0.344549 0.658839
0.502144 0.333776 0.672648
0.666606 0.332158 0.660670
0.790494 0.342443 0.657374
0.903075 0.356191 0.657130
1.000000 0.372000 0.657816
0.000000 0.463996 0.589761
0.094758 0.478172 0.607752
0.196048 0.492607 0.626871
0.312947 0.502419 0.648081
0.483635 0.496193 0.673884
0.680430 0.485100 0.671763
0.822110 0.490761 0.668376
0.925628 0.502342 0.672969
1.000000 0.515343 0.677806
0.024735 0.610162 0.602228
0.122683 0.626276 0.618433
0.222797 0.642283 0.634577
0.328008 0.657038 0.649592
0.471366 0.661280 0.655207
0.659266 0.653193 0.646769
0.828748 0.648478 0.646677
0.925628 0.654704 0.654932
1.000000 0.661097 0.663371
0.068666 0.752651 0.639292
0.164569 0.769757 0.654688
0.261265 0.786114 0.668879
0.358602 0.801068 0.680644
0.475761 0.810086 0.679026
0.620325 0.812818 0.643809
0.804532 0.802915 0.612177
0.925628 0.802487 0.622644
1.000000 0.803342 0.635279
0.117372 0.889220 0.679255
0.208743 0.903975 0.690471
0.299977 0.917586 0.699413
0.391852 0.925628 0.706737
0.493843 0.925628 0.701167
0.621210 0.925628 0.662760
0.788540 0.925628 0.612482
0.925002 0.925628 0.606653
1.000000 0.920699 0.611658
0.154803 1.000000 0.706355
0.246235 1.000000 0.714717
0.332738 1.000000 0.719310
0.417105 1.000000 0.719753
0.501656 1.000000 0.706889
0.613016 1.000000 0.668360
0.763684 1.000000 0.615656
0.914672 1.000000 0.602884
1.000000 1.000000 0.609415
0.000000 0.033387 0.693568
0.083345 0.033494 0.697139
0.175998 0.030823 0.704433
0.305760 0.015503 0.712444
0.450217 0.000000 0.701717
0.572396 0.000000 0.680598
0.669306 0.000000 0.667201
0.772152 0.000000 0.660136
0.879438 0.000000 0.657588
0.000000 0.118379 0.692653
0.082582 0.118120 0.699199
0.172854 0.117678 0.706737
0.301305 0.106142 0.719127
0.453544 0.090562 0.714595
0.585092 0.084718 0.696559
0.690562 0.089601 0.688014
0.794003 0.098939 0.681590
0.909041 0.105425 0.686763
0.000000 0.208911 0.697597
0.087633 0.211292 0.707027
0.180606 0.215228 0.718379
0.309194 0.211933 0.738003
0.472969 0.202579 0.745708
0.619410 0.201877 0.735286
0.734600 0.211566 0.731579
0.843107 0.224659 0.728573
0.954040 0.237278 0.732586
0.000000 0.323308 0.699519
0.093462 0.333364 0.717311
0.193256 0.344289 0.736721
0.318166 0.348531 0.763043
0.490349 0.340352 0.785336
0.657435 0.337484 0.781857
0.783597 0.346944 0.781369
0.897612 0.359930 0.782528
1.000000 0.375372 0.782589
0.004440 0.464683 0.700374
0.102937 0.479042 0.720653
0.203418 0.493492 0.742412
0.317754 0.503914 0.769055
0.478096 0.499687 0.801938
0.669657 0.488746 0.815686
0.817914 0.492561 0.814298
0.925628 0.503395 0.817578
1.000000 0.515801 0.819135
0.031968 0.611719 0.713649
0.128618 0.628016 0.732372
0.227237 0.644083 0.751766
0.330205 0.659175 0.771969
0.466239 0.663767 0.793011
0.645975 0.654429 0.817334
0.826413 0.645945 0.818265
0.925628 0.651560 0.819928
1.000000 0.657084 0.821225
0.076799 0.754498 0.746532
0.171603 0.771588 0.763592
0.266972 0.787625 0.779660
0.363134 0.802365 0.794324
0.478401 0.810391 0.802915
0.629221 0.807568 0.801770
0.804074 0.798138 0.791791
0.925628 0.796704 0.793652
1.000000 0.796841 0.796353
0.126879 0.889235 0.789029
0.217487 0.903548 0.802396
0.308370 0.916793 0.814466
0.400290 0.925628 0.826017
0.502419 0.925628 0.832532
0.632502 0.925628 0.825406
0.776623 0.925628 0.789075
0.922560 0.920821 0.760327
1.000000 0.915022 0.760754
0.160586 1.000000 0.822675
0.255665 1.000000 0.832532
0.341329 1.000000 0.840314
0.424445 1.000000 0.843992
0.509316 1.000000 0.841291
0.620249 1.000000 0.826185
0.753124 1.000000 0.784253
0.905501 1.000000 0.745037
1.000000 1.000000 0.742809
0.000000 0.033143 0.798550
0.078340 0.033188 0.800198
0.169741 0.031205 0.800366
0.293645 0.018708 0.796750
0.433799 0.003662 0.790417
0.559243 0.000000 0.777050
0.664073 0.000000 0.772091
0.770535 0.000000 0.767956
0.878492 0.000000 0.765545
0.000000 0.118013 0.793423
0.079118 0.118364 0.795697
0.169253 0.118639 0.798169
0.291646 0.110185 0.801541
0.438361 0.095903 0.805570
0.571679 0.090074 0.793576
0.680323 0.094972 0.788144
0.794736 0.100603 0.791821
0.910277 0.107439 0.796933
0.000000 0.209201 0.793652
0.087282 0.212299 0.799115
0.180957 0.217594 0.806806
0.304112 0.217380 0.824414
0.460685 0.209964 0.840284
0.608103 0.208865 0.836408
0.725444 0.218235 0.834577
0.837476 0.230213 0.834241
0.956222 0.240360 0.842481
0.004593 0.324529 0.791699
0.101595 0.335210 0.808591
0.200107 0.346731 0.828641
0.319768 0.352880 0.856672
0.481880 0.347662 0.884672
0.647639 0.344366 0.888594
0.776333 0.353216 0.888655
0.892256 0.365835 0.888426
1.000000 0.380636 0.887190
0.016205 0.465415 0.800336
0.114137 0.480247 0.822080
0.213748 0.495048 0.844648
0.324956 0.506172 0.872190
0.477745 0.504250 0.907774
0.661952 0.494850 0.925628
0.813993 0.497200 0.925628
0.925628 0.507912 0.925628
1.000000 0.519554 0.925628
0.042298 0.613581 0.813077
0.138293 0.629969 0.833280
0.236210 0.646235 0.854337
0.337850 0.661250 0.876738
0.470115 0.666285 0.905165
0.642649 0.658213 0.925628
0.821942 0.648798 0.925628
0.925628 0.652888 0.925628
1.000000 0.657938 0.925628
0.085924 0.757153 0.842573
0.179751 0.774151 0.860655
0.274067 0.790173 0.878035
0.368750 0.804517 0.894286
0.479866 0.812940 0.908461
0.624765 0.810300 0.918624
0.796033 0.799435 0.925628
0.925628 0.795377 0.925628
1.000000 0.794675 0.925628
0.129412 0.892622 0.884489
0.224598 0.905180 0.897261
0.314717 0.918654 0.910719
0.405478 0.925628 0.923568
0.504295 0.925628 0.925628
0.631205 0.925628 0.925628
0.781933 0.925628 0.923674
0.920378 0.915618 0.913710
1.000000 0.910811 0.911391
0.159503 1.000000 0.919432
0.254444 1.000000 0.925628
0.347372 1.000000 0.925628
0.428702 1.000000 0.925628
0.514321 1.000000 0.925628
0.625559 1.000000 0.925628
0.763943 1.000000 0.925628
0.899290 1.000000 0.909987
1.000000 1.000000 0.893568
0.000000 0.032853 0.903853
0.074372 0.032715 0.905287
0.162722 0.030701 0.905211
0.285084 0.018906 0.902419
0.425422 0.004486 0.895399
0.554711 0.000000 0.885527
0.661265 0.000000 0.880583
0.768780 0.000000 0.876600
0.877775 0.000000 0.874662
0.000000 0.117708 0.898772
0.074372 0.118303 0.901320
0.163561 0.118837 0.903960
0.284337 0.111437 0.905257
0.427756 0.099504 0.902419
0.564416 0.093065 0.897200
0.679667 0.096483 0.898909
0.795193 0.102388 0.902770
0.911452 0.109545 0.908003
0.000000 0.209598 0.900130
0.083162 0.213275 0.906126
0.177539 0.219532 0.914702
0.300175 0.221378 0.924575
0.450614 0.217121 0.931105
0.597177 0.216129 0.932799
0.719600 0.223575 0.938842
0.838987 0.233082 0.946365
0.958068 0.243366 0.954299
0.002899 0.326863 0.901610
0.101610 0.337850 0.915938
0.202029 0.349905 0.931823
0.321981 0.357412 0.948089
0.475257 0.355138 0.974731
0.636942 0.352712 0.986557
0.766964 0.360769 0.989120
0.883116 0.373083 0.990478
1.000000 0.383688 1.000000
0.020768 0.468071 0.905562
0.122408 0.482399 0.923110
0.224842 0.496910 0.941466
0.334173 0.508721 0.967910
0.478553 0.508843 1.000000
0.653223 0.501915 1.000000
0.806241 0.503410 1.000000
0.925628 0.513542 1.000000
1.000000 0.524773 1.000000
0.047242 0.616419 0.917678
0.148959 0.631617 0.935012
0.248844 0.647379 0.955566
0.349065 0.662638 0.979904
0.476097 0.668208 1.000000
0.639963 0.661906 1.000000
0.813581 0.652979 1.000000
0.925628 0.655955 1.000000
1.000000 0.660151 1.000000
0.084123 0.762127 0.945861
0.184970 0.777096 0.961761
0.284199 0.791226 0.977478
0.377691 0.805585 0.995529
0.484413 0.813977 1.000000
0.624216 0.811856 1.000000
0.789548 0.801678 1.000000
0.925628 0.796475 1.000000
1.000000 0.794064 1.000000
0.125795 0.897307 0.983780
0.223117 0.909026 0.995926
0.321141 0.920226 1.000000
0.412818 0.925628 1.000000
0.508095 0.925628 1.000000
0.628275 0.925628 1.000000
0.772473 0.925628 1.000000
0.910689 0.916335 1.000000
1.000000 0.909880 1.000000
0.156390 1.000000 1.000000
0.250721 1.000000 1.000000
0.343313 1.000000 1.000000
0.432044 1.000000 1.000000
0.518410 1.000000 1.000000
0.625711 1.000000 1.000000
0.762798 1.000000 1.000000
0.906325 1.000000 1.000000
1.000000 1.000000 1.000000
