luts/Summer_Getaway.CUBE
# kravix mobile - LUTs Pack
LUT_3D_SIZE 17
0.035431 0.035706 0.035874
0.084123 0.034546 0.035248
0.128893 0.034455 0.035447
0.179080 0.032853 0.034394
0.241489 0.027848 0.030549
0.311284 0.020783 0.025116
0.380499 0.013672 0.019638
0.445441 0.007797 0.015137
0.503532 0.003235 0.011643
0.554101 0.000305 0.009384
0.599649 0.000000 0.008331
0.640803 0.000000 0.008743
0.681895 0.000031 0.009796
0.733974 0.000000 0.008560
0.786404 0.000000 0.007431
0.838972 0.000000 0.006332
0.891844 0.000000 0.005432
0.030640 0.081712 0.035081
0.080079 0.080568 0.031098
0.125505 0.080110 0.031601
0.174670 0.078431 0.031113
0.233295 0.074174 0.028397
0.301198 0.066545 0.022873
0.371084 0.058274 0.016907
0.437583 0.051103 0.011872
0.498955 0.046037 0.008621
0.552773 0.043488 0.007446
0.600885 0.042680 0.007645
0.643519 0.043519 0.008957
0.685573 0.044663 0.010605
0.735164 0.044022 0.010575
0.788159 0.042710 0.009918
0.841550 0.041672 0.009567
0.895506 0.041108 0.009659
0.029541 0.125780 0.036271
0.077211 0.124895 0.030716
0.122713 0.123339 0.028794
0.170138 0.121309 0.027375
0.225681 0.117357 0.024887
0.294789 0.110369 0.020096
0.367010 0.102800 0.015534
0.436057 0.096178 0.011795
0.499641 0.091264 0.009476
0.555230 0.088655 0.008896
0.604761 0.088075 0.009842
0.648493 0.089342 0.011917
0.691875 0.091279 0.014710
0.740642 0.092134 0.016312
0.795224 0.092348 0.017197
0.850584 0.093248 0.018769
0.906798 0.094881 0.021073
0.022828 0.168917 0.033249
0.069245 0.168231 0.027939
0.117906 0.167376 0.024811
0.165835 0.166613 0.024521
0.220996 0.163943 0.023774
0.290425 0.157336 0.020813
0.364050 0.149798 0.017060
0.435340 0.143267 0.014191
0.501320 0.138415 0.012741
0.559640 0.136309 0.013321
0.611383 0.136492 0.015488
0.657847 0.139284 0.019303
0.703182 0.143160 0.023987
0.752255 0.147204 0.028733
0.808972 0.149798 0.031724
0.866300 0.152712 0.035218
0.924071 0.155886 0.039063
0.014313 0.216068 0.030121
0.061250 0.216144 0.026337
0.108766 0.216175 0.022675
0.157794 0.215930 0.021073
0.213107 0.213962 0.020157
0.282567 0.208301 0.018799
0.358785 0.201251 0.017273
0.433875 0.195254 0.016480
0.504219 0.191592 0.017609
0.567239 0.190738 0.020813
0.623362 0.192966 0.026200
0.673777 0.197299 0.032715
0.721294 0.202914 0.039857
0.769589 0.208713 0.047242
0.827543 0.212131 0.051453
0.886091 0.216037 0.056138
0.944930 0.220157 0.061036
0.000000 0.268742 0.022507
0.044511 0.269413 0.020005
0.091554 0.270817 0.017914
0.139803 0.272190 0.016785
0.196307 0.272282 0.014267
0.268086 0.268711 0.012863
0.350118 0.262852 0.014771
0.432090 0.257847 0.018738
0.508446 0.254826 0.023789
0.577203 0.254231 0.030213
0.637369 0.256626 0.038102
0.691463 0.261143 0.046876
0.740764 0.267353 0.055848
0.789822 0.273976 0.065477
0.846830 0.278904 0.071946
0.906416 0.283436 0.077668
0.966308 0.288228 0.083619
0.000000 0.326040 0.015610
0.037186 0.328771 0.015244
0.075639 0.332265 0.015457
0.125643 0.336477 0.016876
0.179583 0.340322 0.017182
0.248112 0.340810 0.012299
0.334966 0.335836 0.010697
0.422736 0.330434 0.015503
0.505669 0.326650 0.023529
0.580926 0.325246 0.033021
0.646494 0.327108 0.043763
0.705119 0.330999 0.055055
0.756954 0.337392 0.066117
0.808865 0.344045 0.077989
0.862287 0.350408 0.088456
0.923018 0.355093 0.095354
0.983948 0.359930 0.102358
0.000000 0.390600 0.016159
0.037186 0.395666 0.018082
0.074372 0.401221 0.020325
0.118349 0.406760 0.022538
0.170092 0.412345 0.025330
0.230701 0.416419 0.022797
0.315572 0.414237 0.013016
0.408072 0.409232 0.013901
0.496727 0.404837 0.021622
0.579141 0.402106 0.033280
0.650950 0.402640 0.046464
0.714473 0.405753 0.060044
0.769085 0.411704 0.072664
0.823682 0.417762 0.086122
0.876066 0.424323 0.099672
0.934951 0.429221 0.108232
0.996277 0.433936 0.115633
0.000000 0.459403 0.024521
0.037186 0.465568 0.027359
0.074372 0.472496 0.030884
0.117144 0.479240 0.034195
0.168444 0.486229 0.038453
0.224811 0.492287 0.038880
0.298787 0.494423 0.028504
0.392035 0.490929 0.020340
0.484627 0.486259 0.023941
0.571771 0.482826 0.034104
0.649973 0.481804 0.048066
0.718395 0.483436 0.063005
0.776669 0.488182 0.076890
0.833188 0.493492 0.091203
0.888319 0.499352 0.106065
0.944564 0.505150 0.118730
1.000000 0.509941 0.126558
0.000000 0.529671 0.038804
0.037186 0.537224 0.042756
0.074372 0.545037 0.047120
0.123339 0.552743 0.051224
0.174060 0.560632 0.056275
0.227909 0.567803 0.058488
0.292668 0.572580 0.051698
0.376898 0.572580 0.038025
0.471962 0.568231 0.033509
0.562173 0.564279 0.039795
0.644892 0.562264 0.052003
0.717754 0.562676 0.066926
0.781613 0.565957 0.082185
0.839170 0.571313 0.096727
0.896834 0.576303 0.112352
0.952621 0.581613 0.127825
1.000000 0.585931 0.135531
0.000000 0.600412 0.059419
0.038407 0.608743 0.063935
0.087449 0.617121 0.068818
0.137331 0.625345 0.073243
0.187366 0.633478 0.078050
0.238895 0.641230 0.081346
0.297276 0.647745 0.078248
0.371420 0.650904 0.065019
0.461448 0.649134 0.053025
0.553964 0.645243 0.053117
0.639933 0.642695 0.062058
0.715541 0.642557 0.075120
0.783429 0.644388 0.089921
0.841520 0.649027 0.103563
0.900771 0.652842 0.118685
0.957931 0.657069 0.134340
1.000000 0.660471 0.141482
0.010575 0.670512 0.084398
0.059480 0.679118 0.089052
0.107881 0.687510 0.093919
0.157153 0.695994 0.098528
0.207187 0.704570 0.102983
0.257191 0.713024 0.107759
0.311666 0.720638 0.107561
0.378225 0.725643 0.096635
0.459403 0.726619 0.081849
0.549996 0.723827 0.074830
0.638132 0.720546 0.078843
0.715572 0.719203 0.088914
0.785321 0.719844 0.101808
0.843305 0.723507 0.113756
0.902815 0.726314 0.127321
0.960876 0.729091 0.140078
1.000000 0.731670 0.145800
0.036210 0.739330 0.111757
0.084733 0.748302 0.116670
0.133043 0.757183 0.121996
0.181796 0.765972 0.126772
0.230991 0.774609 0.131151
0.279881 0.783093 0.135988
0.331319 0.790997 0.137377
0.391760 0.797101 0.129030
0.464332 0.799786 0.114000
0.548943 0.798260 0.101381
0.636545 0.794553 0.099138
0.716197 0.791806 0.105501
0.786923 0.790997 0.115892
0.845716 0.793347 0.126390
0.904646 0.795377 0.138216
0.962814 0.797742 0.146456
1.000000 0.800000 0.151446
0.065324 0.807813 0.141497
0.113497 0.816785 0.146395
0.161212 0.825376 0.151431
0.209323 0.833890 0.155917
0.257725 0.842161 0.159915
0.305592 0.850111 0.164294
0.354971 0.857466 0.165972
0.410651 0.863508 0.159747
0.476967 0.866758 0.145113
0.555261 0.866194 0.129580
0.639582 0.862577 0.122057
0.719982 0.859220 0.124498
0.791287 0.858045 0.132708
0.853284 0.859174 0.142641
0.909636 0.861936 0.151019
0.962814 0.864088 0.154604
1.000000 0.865553 0.157778
0.084428 0.878614 0.164843
0.134157 0.886168 0.170550
0.182986 0.893675 0.176257
0.232044 0.900633 0.181338
0.281254 0.907195 0.185916
0.328893 0.914092 0.189731
0.376242 0.920851 0.191684
0.427543 0.925628 0.187564
0.488823 0.925628 0.174182
0.561746 0.925628 0.157763
0.643885 0.925628 0.146715
0.725719 0.924636 0.145449
0.798444 0.922011 0.151232
0.863050 0.920974 0.159701
0.917479 0.922591 0.162432
0.962814 0.922545 0.163745
1.000000 0.921706 0.164462
0.099336 0.947738 0.184741
0.148119 0.954345 0.189517
0.195941 0.960845 0.194217
0.244160 0.962814 0.198474
0.292683 0.962814 0.202426
0.341512 0.962814 0.206271
0.389853 0.962814 0.210330
0.442176 0.962814 0.211109
0.502724 0.962814 0.202731
0.568963 0.962814 0.185855
0.645258 0.962814 0.170825
0.725032 0.962814 0.163806
0.797528 0.962814 0.165057
0.861219 0.962814 0.162936
0.912978 0.962814 0.162203
0.962814 0.962814 0.161730
1.000000 0.962814 0.163256
0.111101 1.000000 0.201511
0.159304 1.000000 0.205722
0.206836 1.000000 0.210147
0.254734 1.000000 0.214099
0.302983 1.000000 0.217807
0.351064 1.000000 0.220951
0.398093 1.000000 0.224079
0.447532 1.000000 0.224598
0.504784 1.000000 0.217411
0.569757 1.000000 0.203967
0.640284 1.000000 0.186999
0.714916 1.000000 0.172427
0.787579 1.000000 0.165682
0.854994 1.000000 0.163653
0.911330 1.000000 0.165164
0.962814 1.000000 0.166491
1.000000 1.000000 0.167926
0.033631 0.035767 0.084108
0.083558 0.034211 0.083803
0.128405 0.034150 0.083406
0.178561 0.032563 0.082093
0.240635 0.027573 0.077775
0.310506 0.020539 0.071580
0.380362 0.013443 0.065248
0.445548 0.007523 0.059876
0.503822 0.002716 0.055329
0.554818 0.000000 0.052400
0.600778 0.000000 0.050843
0.642252 0.000000 0.051103
0.683589 0.000000 0.051820
0.733639 0.000000 0.050996
0.786053 0.000000 0.049805
0.838697 0.000000 0.048722
0.891585 0.000000 0.047807
0.031296 0.081117 0.080827
0.079820 0.079927 0.079988
0.125383 0.079484 0.079896
0.174395 0.078004 0.078935
0.232639 0.073808 0.075761
0.300771 0.065965 0.069535
0.370977 0.057679 0.062959
0.437980 0.050599 0.057404
0.499947 0.045609 0.053636
0.554269 0.043046 0.051896
0.602701 0.042191 0.051560
0.645579 0.043107 0.052659
0.687846 0.044251 0.053971
0.735500 0.044251 0.054398
0.788617 0.043030 0.053880
0.842176 0.042145 0.053727
0.896178 0.041596 0.053895
0.031327 0.124804 0.083177
0.076738 0.123980 0.079820
0.122393 0.122667 0.076020
0.169848 0.120668 0.074739
0.225269 0.117006 0.071992
0.294789 0.110124 0.066911
0.367285 0.102541 0.061631
0.436744 0.095979 0.057221
0.500618 0.091035 0.054124
0.556695 0.088456 0.052964
0.606592 0.087907 0.053407
0.650584 0.089235 0.055238
0.694255 0.091264 0.057740
0.741115 0.092851 0.059846
0.795987 0.093370 0.061021
0.851530 0.094438 0.062760
0.908080 0.096391 0.065400
0.024887 0.167636 0.080736
0.070466 0.167315 0.077150
0.117281 0.167163 0.072923
0.165896 0.166339 0.071961
0.221103 0.163638 0.071244
0.290562 0.157137 0.067720
0.364508 0.149722 0.063371
0.436118 0.143160 0.059770
0.502586 0.138430 0.057679
0.561425 0.136431 0.057710
0.613657 0.136812 0.059495
0.660563 0.139818 0.063142
0.706264 0.143908 0.067720
0.753536 0.148775 0.073060
0.810422 0.151537 0.076204
0.867826 0.154467 0.079774
0.925704 0.157748 0.083726
0.016709 0.215015 0.077989
0.063142 0.215228 0.075090
0.109194 0.215732 0.071794
0.157443 0.215885 0.069123
0.213382 0.213901 0.067521
0.283131 0.208423 0.066224
0.359594 0.201495 0.064057
0.435264 0.195682 0.062715
0.506065 0.192157 0.063218
0.569741 0.191577 0.066026
0.626352 0.193973 0.071000
0.677180 0.198398 0.077241
0.724804 0.204028 0.084062
0.772076 0.210269 0.091600
0.829435 0.214206 0.096361
0.887984 0.218112 0.101045
0.946807 0.222263 0.105943
0.000000 0.267994 0.070359
0.046815 0.268833 0.068345
0.093446 0.270436 0.066682
0.141100 0.272190 0.065812
0.196735 0.272984 0.062806
0.269108 0.269459 0.060563
0.351904 0.263783 0.062516
0.434241 0.258854 0.065858
0.511055 0.255909 0.070252
0.580316 0.255467 0.076097
0.640742 0.257847 0.083330
0.695186 0.262455 0.091722
0.744701 0.268772 0.100496
0.794064 0.275593 0.109880
0.848890 0.281071 0.117037
0.908461 0.285618 0.122759
0.968383 0.290471 0.128740
0.000000 0.325917 0.063294
0.037186 0.328847 0.063401
0.078370 0.332799 0.064088
0.128359 0.337194 0.065751
0.181552 0.341360 0.066438
0.248768 0.342351 0.060868
0.336828 0.337285 0.058259
0.425193 0.331792 0.062745
0.508675 0.328008 0.070329
0.584360 0.326665 0.079194
0.650324 0.328573 0.089403
0.709361 0.332647 0.100313
0.761440 0.339147 0.111223
0.813321 0.345632 0.122545
0.864622 0.352605 0.133822
0.925429 0.357366 0.140780
0.986297 0.362142 0.147738
0.000000 0.391363 0.063844
0.037186 0.396490 0.065919
0.074372 0.402274 0.068437
0.121141 0.407980 0.070863
0.172717 0.413657 0.073899
0.232303 0.418021 0.071672
0.316548 0.416297 0.060594
0.410254 0.411078 0.060716
0.499763 0.406561 0.068147
0.582834 0.403891 0.079438
0.655024 0.404440 0.092088
0.718791 0.407385 0.105165
0.773617 0.413382 0.117601
0.828275 0.419409 0.130587
0.880827 0.425940 0.143832
0.937545 0.431586 0.153841
0.998734 0.436225 0.161120
0.000000 0.460609 0.071580
0.037186 0.467094 0.074800
0.074372 0.474052 0.078431
0.119936 0.480873 0.081849
0.171115 0.487892 0.086229
0.227115 0.494087 0.086992
0.299733 0.496788 0.076661
0.393332 0.493309 0.066819
0.487190 0.488533 0.069856
0.575158 0.484810 0.079622
0.653773 0.483635 0.093095
0.722637 0.485145 0.107698
0.781262 0.489891 0.121447
0.837934 0.495369 0.135470
0.893217 0.501122 0.150027
0.947173 0.507378 0.164355
1.000000 0.512169 0.172137
0.000000 0.531518 0.085389
0.037186 0.539071 0.089448
0.075441 0.546899 0.093889
0.126009 0.554726 0.098176
0.176623 0.562585 0.103273
0.230259 0.569863 0.105684
0.294240 0.574990 0.099306
0.377493 0.575296 0.084703
0.473442 0.570703 0.078721
0.564828 0.566567 0.084535
0.648295 0.564355 0.096346
0.721813 0.564782 0.111040
0.786068 0.567803 0.126055
0.843748 0.573098 0.140414
0.901579 0.578042 0.155734
0.957214 0.583444 0.171374
1.000000 0.588129 0.181064
0.000000 0.602609 0.105440
0.040787 0.610864 0.109941
0.089799 0.619272 0.114870
0.139696 0.627604 0.119432
0.189715 0.635737 0.124208
0.240986 0.643442 0.127642
0.298970 0.650217 0.125002
0.372076 0.653590 0.111543
0.462013 0.651987 0.098161
0.555840 0.648081 0.097322
0.642512 0.645090 0.105547
0.718883 0.644724 0.118273
0.787442 0.646448 0.132952
0.845670 0.650980 0.146380
0.905043 0.654612 0.161166
0.962386 0.658656 0.176562
1.000000 0.662348 0.186877
0.012757 0.672908 0.129747
0.061524 0.681392 0.134371
0.110018 0.689967 0.139422
0.159258 0.698482 0.144091
0.209155 0.706966 0.148486
0.259098 0.715434 0.153323
0.313222 0.723186 0.153460
0.379126 0.728420 0.142626
0.459480 0.729534 0.126940
0.550744 0.726757 0.118578
0.639780 0.723079 0.121599
0.718196 0.721645 0.131319
0.788312 0.721843 0.143679
0.846662 0.725444 0.155520
0.906325 0.728008 0.168734
0.962814 0.730724 0.182696
1.000000 0.733196 0.190723
0.038285 0.742031 0.156756
0.086595 0.750820 0.161532
0.134829 0.759716 0.166857
0.183581 0.768551 0.171710
0.232731 0.777218 0.176135
0.281483 0.785641 0.180941
0.332708 0.793576 0.182452
0.392462 0.799649 0.174121
0.464347 0.802609 0.158740
0.548775 0.801053 0.144717
0.637156 0.797101 0.141253
0.717815 0.794125 0.147021
0.789105 0.793057 0.156939
0.848325 0.795132 0.167178
0.907485 0.797101 0.178759
0.962814 0.799298 0.191226
1.000000 0.801587 0.196231
0.067079 0.810407 0.186007
0.115145 0.819303 0.190860
0.162844 0.828000 0.195972
0.210880 0.836454 0.200427
0.259037 0.844572 0.204273
0.306889 0.852537 0.208698
0.356039 0.859861 0.210376
0.411093 0.865812 0.204196
0.476646 0.869276 0.189364
0.554498 0.868879 0.172778
0.639429 0.865232 0.163973
0.720729 0.861677 0.165545
0.792767 0.860258 0.173220
0.855482 0.861219 0.182925
0.911788 0.863722 0.192676
0.962814 0.865354 0.198962
1.000000 0.866728 0.202060
0.088228 0.880461 0.210452
0.137697 0.887755 0.215961
0.186419 0.895171 0.221622
0.235370 0.902068 0.226642
0.283009 0.909224 0.230228
0.329656 0.916228 0.233249
0.376822 0.922942 0.235264
0.427863 0.925628 0.231464
0.488731 0.925628 0.218067
0.560937 0.925628 0.200931
0.643168 0.925628 0.188479
0.725933 0.925628 0.186145
0.799207 0.923903 0.191089
0.864378 0.922576 0.199222
0.918593 0.923522 0.206409
0.962814 0.923354 0.207584
1.000000 0.921904 0.207736
0.102815 0.949218 0.229999
0.151415 0.955688 0.234668
0.199130 0.962127 0.239338
0.247227 0.962814 0.243503
0.295735 0.962814 0.247532
0.344549 0.962814 0.251423
0.392721 0.962814 0.255451
0.444755 0.962814 0.256397
0.502251 0.962814 0.245838
0.567941 0.962814 0.228443
0.643824 0.962814 0.212192
0.723995 0.962814 0.203677
0.797223 0.962814 0.204044
0.861387 0.962814 0.206088
0.913191 0.962814 0.205280
0.962814 0.962814 0.205646
1.000000 0.962814 0.207233
0.114244 1.000000 0.246433
0.162448 1.000000 0.250706
0.209903 1.000000 0.255131
0.257847 1.000000 0.259190
0.305989 1.000000 0.262837
0.353841 1.000000 0.265843
0.400748 1.000000 0.268925
0.449653 1.000000 0.269154
0.506340 1.000000 0.262181
0.570367 1.000000 0.248508
0.639109 1.000000 0.229480
0.714000 1.000000 0.214710
0.788327 1.000000 0.209827
0.855940 1.000000 0.207675
0.912551 1.000000 0.209110
0.962814 1.000000 0.210468
1.000000 1.000000 0.211902
0.032685 0.035996 0.128450
0.082734 0.034333 0.128771
0.128069 0.034134 0.128176
0.178195 0.032593 0.126360
0.240253 0.027619 0.121859
0.310277 0.020554 0.115282
0.380331 0.013397 0.108721
0.445609 0.007355 0.103273
0.504265 0.002243 0.098482
0.555627 0.000000 0.095232
0.601953 0.000000 0.093278
0.643717 0.000000 0.093477
0.685237 0.000000 0.093889
0.733669 0.000000 0.093309
0.786175 0.000000 0.092195
0.838834 0.000000 0.091112
0.891829 0.000000 0.090288
0.030228 0.081483 0.123964
0.078675 0.080079 0.125048
0.125078 0.079347 0.125063
0.174121 0.077867 0.123720
0.231739 0.073472 0.120531
0.300221 0.065614 0.114260
0.370703 0.057313 0.107500
0.438178 0.050385 0.101320
0.500633 0.045502 0.096941
0.555245 0.042939 0.094560
0.603983 0.042161 0.093767
0.646937 0.043030 0.094545
0.689494 0.044266 0.095613
0.735500 0.044816 0.096269
0.788647 0.043641 0.095750
0.842344 0.042908 0.095674
0.896452 0.042496 0.095903
0.030793 0.125063 0.124498
0.077027 0.123491 0.123217
0.122118 0.122103 0.122087
0.169558 0.120241 0.120653
0.225177 0.116793 0.117968
0.294881 0.109941 0.112490
0.367559 0.102464 0.106493
0.437232 0.095903 0.101289
0.501457 0.091020 0.097505
0.557824 0.088518 0.095750
0.607965 0.087984 0.095674
0.652277 0.089464 0.097368
0.696193 0.091615 0.099657
0.741588 0.093889 0.102144
0.796689 0.094636 0.103487
0.852445 0.095949 0.105409
0.909834 0.097856 0.109926
0.025879 0.167163 0.124208
0.072389 0.166476 0.123369
0.117723 0.166659 0.121065
0.165972 0.166125 0.118410
0.221378 0.163455 0.117693
0.290959 0.157015 0.113619
0.365194 0.149676 0.108721
0.437095 0.143221 0.104555
0.504005 0.138643 0.101976
0.563104 0.136645 0.101411
0.615793 0.137301 0.102953
0.663005 0.140459 0.106432
0.709148 0.144839 0.110979
0.754925 0.150347 0.116670
0.811933 0.153231 0.119936
0.869490 0.156268 0.123644
0.927413 0.159594 0.127642
0.018860 0.214374 0.123522
0.065324 0.214466 0.121813
0.110796 0.215152 0.119448
0.157412 0.215930 0.116838
0.213855 0.214054 0.113939
0.283940 0.208637 0.112535
0.360769 0.201831 0.109865
0.436957 0.196323 0.108171
0.508141 0.192920 0.108171
0.572351 0.192645 0.110674
0.629206 0.195087 0.115190
0.680278 0.199619 0.121141
0.728222 0.205417 0.127871
0.775631 0.211643 0.135088
0.831296 0.216175 0.140429
0.889906 0.220157 0.145174
0.948959 0.224521 0.150286
0.002060 0.267384 0.116487
0.049165 0.268360 0.115114
0.095583 0.270146 0.113924
0.142992 0.272282 0.113573
0.197360 0.273777 0.110674
0.270512 0.270542 0.107408
0.354055 0.264988 0.109361
0.436667 0.260075 0.112093
0.513802 0.257206 0.115908
0.583337 0.256840 0.121187
0.643992 0.259251 0.127962
0.698711 0.263951 0.136019
0.748486 0.270436 0.144686
0.797955 0.277226 0.153689
0.851118 0.283360 0.161456
0.910887 0.288090 0.167346
0.970626 0.292775 0.173159
0.000000 0.326024 0.109697
0.037186 0.329122 0.110216
0.081147 0.333394 0.111376
0.131167 0.338079 0.113375
0.183871 0.342504 0.114473
0.249683 0.344015 0.108492
0.338750 0.338979 0.104753
0.427955 0.333440 0.109209
0.511666 0.329549 0.116228
0.587793 0.328359 0.124666
0.653941 0.330220 0.134325
0.713191 0.334371 0.144808
0.765438 0.340948 0.155535
0.817609 0.347570 0.166690
0.867811 0.354757 0.178119
0.927871 0.359731 0.185428
0.988678 0.364477 0.192309
0.000000 0.392248 0.110277
0.037186 0.397574 0.112688
0.074372 0.403449 0.115404
0.123888 0.409247 0.117968
0.175433 0.415244 0.121370
0.234363 0.419852 0.119478
0.317968 0.418662 0.107424
0.412543 0.413062 0.106661
0.502800 0.408408 0.113848
0.586343 0.405753 0.124788
0.658824 0.406271 0.136995
0.722911 0.409354 0.149737
0.777859 0.415412 0.161929
0.832547 0.421241 0.174563
0.885237 0.427726 0.187472
0.940032 0.433967 0.198505
1.000000 0.438666 0.205844
0.000000 0.461997 0.117662
0.037186 0.468620 0.121111
0.074372 0.475654 0.124895
0.122850 0.482734 0.128603
0.173907 0.489799 0.133074
0.229541 0.496025 0.134035
0.301091 0.499123 0.123873
0.394812 0.495766 0.112535
0.489693 0.490776 0.114961
0.578531 0.487053 0.124544
0.657588 0.485725 0.137682
0.726589 0.487037 0.151858
0.785473 0.491844 0.165454
0.842252 0.497276 0.179202
0.897749 0.503105 0.193545
0.951141 0.509529 0.208148
1.000000 0.514504 0.216861
0.000000 0.533455 0.131151
0.037186 0.541085 0.135332
0.078233 0.549035 0.139925
0.128740 0.556893 0.144305
0.179248 0.564675 0.149386
0.232700 0.572015 0.151995
0.296117 0.577417 0.145953
0.378393 0.577981 0.130648
0.475166 0.573297 0.123369
0.567483 0.568994 0.128740
0.651576 0.566567 0.140200
0.725582 0.566888 0.154681
0.790326 0.570077 0.169680
0.847913 0.575113 0.183642
0.905928 0.579965 0.198749
0.961761 0.585412 0.214191
1.000000 0.590341 0.225727
0.000000 0.604929 0.150729
0.043305 0.613092 0.155230
0.092256 0.621500 0.160204
0.142107 0.629862 0.164843
0.192096 0.637964 0.169589
0.243336 0.645869 0.173297
0.300908 0.652705 0.170901
0.373190 0.656260 0.157321
0.462943 0.654856 0.142809
0.557733 0.650782 0.141009
0.645289 0.647684 0.148806
0.722103 0.646983 0.161151
0.791058 0.648554 0.175586
0.849424 0.652964 0.188830
0.909148 0.656672 0.203571
0.962814 0.660380 0.218524
1.000000 0.664271 0.231220
0.015061 0.675273 0.174441
0.063752 0.683742 0.179080
0.112245 0.692363 0.184207
0.161563 0.701060 0.189059
0.211383 0.709499 0.193469
0.261204 0.717906 0.198306
0.315129 0.725750 0.198657
0.380407 0.731106 0.187854
0.460288 0.732494 0.171542
0.551705 0.729549 0.161868
0.641611 0.725612 0.164096
0.720699 0.723964 0.173419
0.791257 0.723995 0.185473
0.849714 0.727352 0.197024
0.909667 0.729824 0.210101
0.962814 0.732418 0.223865
1.000000 0.734905 0.234836
0.040406 0.744564 0.201053
0.088777 0.753491 0.205966
0.136919 0.762325 0.211261
0.185611 0.771145 0.216129
0.234607 0.779736 0.220478
0.283360 0.788205 0.225345
0.334401 0.796139 0.226917
0.393561 0.802136 0.218601
0.464759 0.805234 0.202884
0.549157 0.803830 0.187793
0.638086 0.799588 0.183200
0.719432 0.796307 0.188327
0.791287 0.795087 0.197925
0.850935 0.797116 0.208057
0.910369 0.798993 0.219501
0.962814 0.801068 0.232242
1.000000 0.803296 0.240299
0.069123 0.813046 0.230045
0.117006 0.821866 0.234821
0.164675 0.830533 0.239963
0.212650 0.839002 0.244450
0.260655 0.846998 0.248203
0.308339 0.854841 0.252506
0.357397 0.862196 0.254292
0.412070 0.868147 0.248127
0.476860 0.871611 0.233005
0.554208 0.871336 0.215579
0.639673 0.867689 0.205631
0.721874 0.864027 0.206577
0.794354 0.862333 0.213718
0.857511 0.863127 0.223133
0.914015 0.865553 0.232715
0.962814 0.866682 0.242512
1.000000 0.868009 0.245594
0.091707 0.882261 0.255100
0.141176 0.889601 0.260670
0.189685 0.896819 0.266163
0.237430 0.904158 0.270481
0.284199 0.911467 0.273503
0.330770 0.918425 0.276463
0.377661 0.925002 0.278370
0.428504 0.925628 0.274769
0.488960 0.925628 0.261326
0.560616 0.925628 0.243641
0.642924 0.925628 0.230076
0.726390 0.925628 0.226810
0.800366 0.925628 0.231205
0.865736 0.924178 0.238758
0.919890 0.924712 0.245792
0.962814 0.924041 0.250492
1.000000 0.922072 0.250111
0.105989 0.950744 0.274357
0.154604 0.957244 0.279072
0.202274 0.962814 0.283726
0.250156 0.962814 0.287770
0.298695 0.962814 0.291859
0.347402 0.962814 0.295735
0.395666 0.962814 0.299947
0.446769 0.962814 0.300328
0.502251 0.962814 0.288457
0.567391 0.962814 0.270634
0.642817 0.962814 0.253208
0.723369 0.962814 0.243580
0.796963 0.962814 0.242939
0.861463 0.962814 0.245853
0.913405 0.962814 0.247547
0.962814 0.962814 0.248859
1.000000 0.962814 0.250446
0.117418 1.000000 0.290791
0.165545 1.000000 0.295018
0.212940 1.000000 0.299413
0.260777 1.000000 0.303426
0.308690 1.000000 0.306905
0.356359 1.000000 0.309773
0.403098 1.000000 0.312779
0.451743 1.000000 0.312932
0.507927 1.000000 0.305974
0.570260 1.000000 0.291096
0.637140 1.000000 0.269581
0.713161 1.000000 0.254704
0.788861 1.000000 0.251698
0.856992 1.000000 0.250935
0.913756 1.000000 0.252308
0.962814 1.000000 0.253681
1.000000 1.000000 0.255116
0.030366 0.035981 0.179278
0.080049 0.034379 0.179889
0.126299 0.033860 0.179644
0.176944 0.032166 0.176730
0.238727 0.027466 0.171069
0.309194 0.020340 0.163577
0.379705 0.013153 0.155535
0.445106 0.006928 0.148196
0.504448 0.001801 0.141970
0.556207 0.000000 0.137804
0.603006 0.000000 0.135454
0.645029 0.000000 0.135454
0.686717 0.000000 0.135561
0.733745 0.000000 0.135134
0.786206 0.000000 0.134081
0.838941 0.000000 0.133364
0.891966 0.000000 0.132891
0.028138 0.081498 0.173266
0.076631 0.080079 0.174350
0.122972 0.079255 0.175128
