luts/Summer_Getaway.CUBE
# kravix mobile - LUTs Pack
LUT_3D_SIZE 5
0.035431 0.035706 0.035874
0.241489 0.027848 0.030549
0.503532 0.003235 0.011643
0.681895 0.000031 0.009796
0.891844 0.000000 0.005432
0.014313 0.216068 0.030121
0.213107 0.213962 0.020157
0.504219 0.191592 0.017609
0.721294 0.202914 0.039857
0.944930 0.220157 0.061036
0.000000 0.459403 0.024521
0.168444 0.486229 0.038453
0.484627 0.486259 0.023941
0.776669 0.488182 0.076890
1.000000 0.509941 0.126558
0.036210 0.739330 0.111757
0.230991 0.774609 0.131151
0.464332 0.799786 0.114000
0.786923 0.790997 0.115892
1.000000 0.800000 0.151446
0.111101 1.000000 0.201511
0.302983 1.000000 0.217807
0.504784 1.000000 0.217411
0.787579 1.000000 0.165682
1.000000 1.000000 0.167926
0.024842 0.035401 0.245014
0.235492 0.026398 0.234318
0.504616 0.000702 0.191989
0.688777 0.000000 0.180346
0.891951 0.000000 0.176165
0.019287 0.214328 0.212711
0.214435 0.213825 0.213184
0.512062 0.194644 0.200473
0.734768 0.208148 0.216068
0.952544 0.228916 0.238514
0.000000 0.464668 0.211185
0.180331 0.492973 0.227909
0.494652 0.495094 0.207263
0.794553 0.495277 0.255818
1.000000 0.519036 0.308232
0.044724 0.749310 0.291325
0.238437 0.784436 0.311040
0.464820 0.810239 0.293751
0.795468 0.798810 0.281071
1.000000 0.806195 0.327474
0.123919 1.000000 0.380743
0.314504 1.000000 0.396643
0.510735 1.000000 0.394919
0.787701 1.000000 0.331167
1.000000 1.000000 0.343206
0.001068 0.032731 0.515602
0.193362 0.027085 0.522957
0.485618 0.000000 0.482048
0.692576 0.000000 0.438636
0.884443 0.000000 0.417960
0.000000 0.210269 0.498726
0.187045 0.212268 0.512352
0.504479 0.192203 0.498589
0.749142 0.205066 0.475944
0.953613 0.233646 0.478019
0.000000 0.463401 0.456641
0.198734 0.491127 0.484977
0.499733 0.495048 0.490043
0.818647 0.494118 0.497093
1.000000 0.519493 0.525139
0.057328 0.753704 0.512184
0.249332 0.788540 0.533043
0.463966 0.816190 0.516976
0.802960 0.804517 0.467201
1.000000 0.808713 0.503655
0.140581 1.000000 0.576852
0.328954 1.000000 0.589990
0.504250 1.000000 0.574258
0.781750 1.000000 0.496635
1.000000 1.000000 0.512215
0.000000 0.033387 0.693568
0.175998 0.030823 0.704433
0.450217 0.000000 0.701717
0.669306 0.000000 0.667201
0.879438 0.000000 0.657588
0.000000 0.208911 0.697597
0.180606 0.215228 0.718379
0.472969 0.202579 0.745708
0.734600 0.211566 0.731579
0.954040 0.237278 0.732586
0.004440 0.464683 0.700374
0.203418 0.493492 0.742412
0.478096 0.499687 0.801938
0.817914 0.492561 0.814298
1.000000 0.515801 0.819135
0.076799 0.754498 0.746532
0.266972 0.787625 0.779660
0.478401 0.810391 0.802915
0.804074 0.798138 0.791791
1.000000 0.796841 0.796353
0.160586 1.000000 0.822675
0.341329 1.000000 0.840314
0.509316 1.000000 0.841291
0.753124 1.000000 0.784253
1.000000 1.000000 0.742809
0.000000 0.032853 0.903853
0.162722 0.030701 0.905211
0.425422 0.004486 0.895399
0.661265 0.000000 0.880583
0.877775 0.000000 0.874662
0.000000 0.209598 0.900130
0.177539 0.219532 0.914702
0.450614 0.217121 0.931105
0.719600 0.223575 0.938842
0.958068 0.243366 0.954299
0.020768 0.468071 0.905562
0.224842 0.496910 0.941466
0.478553 0.508843 1.000000
0.806241 0.503410 1.000000
1.000000 0.524773 1.000000
0.084123 0.762127 0.945861
0.284199 0.791226 0.977478
0.484413 0.813977 1.000000
0.789548 0.801678 1.000000
1.000000 0.794064 1.000000
0.156390 1.000000 1.000000
0.343313 1.000000 1.000000
0.518410 1.000000 1.000000
0.762798 1.000000 1.000000
1.000000 1.000000 1.000000
