luts/Terracotta Glow.CUBE
# kravix mobile - LUTs Pack
LUT_3D_SIZE 17
0.000000 0.000000 0.000000
0.039673 0.000000 0.000061
0.093597 0.000000 0.000000
0.156097 0.000000 0.000000
0.225922 0.000000 0.000000
0.299622 0.000000 0.000000
0.374023 0.000000 0.000000
0.448364 0.000000 0.000000
0.522461 0.000000 0.000000
0.596069 0.000000 0.000000
0.669098 0.000000 0.000000
0.741180 0.000000 0.000000
0.811981 0.000000 0.000000
0.881012 0.000000 0.000000
0.947968 0.000000 0.000000
0.999695 0.000000 0.000000
1.000000 0.000000 0.000000
0.000000 0.037842 0.000000
0.038177 0.038239 0.000000
0.094147 0.037445 0.000000
0.157959 0.032471 0.000000
0.228241 0.020569 0.000000
0.301544 0.004211 0.000000
0.375427 0.000061 0.000000
0.449280 0.000000 0.000000
0.523041 0.000000 0.000000
0.596466 0.000000 0.000000
0.669312 0.000000 0.000000
0.741241 0.000000 0.000000
0.811951 0.000000 0.000000
0.880951 0.000000 0.000000
0.947754 0.000000 0.000000
0.999695 0.000000 0.000000
1.000000 0.000000 0.000000
0.000000 0.093536 0.000000
0.032166 0.094482 0.000000
0.093353 0.095551 0.000000
0.158844 0.094849 0.000000
0.229462 0.091278 0.000000
0.302734 0.084015 0.000000
0.376160 0.072937 0.000000
0.449768 0.057587 0.000000
0.523285 0.038879 0.000000
0.596588 0.015411 0.000000
0.669342 0.002747 0.000000
0.741241 0.000000 0.000000
0.811798 0.000000 0.000000
0.880615 0.000000 0.000000
0.947296 0.000000 0.000000
0.999664 0.000000 0.000000
1.000000 0.000000 0.000000
0.000000 0.159485 0.000000
0.015045 0.160095 0.000000
0.087128 0.161926 0.000000
0.158081 0.162903 0.000000
0.229736 0.162354 0.000000
0.302673 0.160309 0.000000
0.375763 0.156830 0.000000
0.449127 0.151764 0.000000
0.522461 0.144897 0.000000
0.595642 0.136230 0.000000
0.668274 0.125549 0.000000
0.740021 0.113007 0.000000
0.810486 0.098877 0.000000
0.879150 0.085541 0.000000
0.945587 0.078094 0.000000
0.999542 0.074646 0.000000
1.000000 0.077026 0.000000
0.000000 0.230103 0.000000
0.000122 0.230408 0.000000
0.074646 0.231781 0.000000
0.154297 0.233643 0.000000
0.228943 0.234009 0.000000
0.301880 0.233521 0.000000
0.374878 0.232330 0.000000
0.448090 0.230103 0.000000
0.521332 0.226776 0.000000
0.594299 0.222687 0.000000
0.666748 0.217743 0.000000
0.738251 0.212311 0.000000
0.808502 0.206848 0.000000
0.876923 0.201935 0.000000
0.943115 0.198486 0.000000
0.999390 0.197479 0.000000
1.000000 0.199615 0.000000
0.000000 0.301453 0.000000
0.000000 0.301636 0.000000
0.058777 0.302368 0.000000
0.149384 0.304230 0.000000
0.226685 0.305511 0.000000
0.300934 0.305725 0.000000
0.373901 0.305237 0.000000
0.446991 0.304291 0.000000
0.519958 0.302795 0.000000
0.592682 0.300568 0.000000
0.664886 0.297852 0.000000
0.736115 0.294861 0.000000
0.806030 0.291901 0.000000
0.874146 0.289429 0.000000
0.939972 0.287903 0.000000
0.999207 0.287933 0.000000
1.000000 0.289917 0.000000
0.000000 0.372620 0.000000
0.000000 0.372742 0.000000
0.040497 0.373108 0.000000
0.142670 0.374847 0.000000
0.223206 0.376495 0.000000
0.298950 0.377411 0.000000
0.372864 0.377380 0.000000
0.445831 0.376862 0.000000
0.518524 0.376160 0.000000
0.590912 0.375061 0.000000
0.662781 0.373566 0.000000
0.733643 0.371826 0.000000
0.803162 0.370178 0.000000
0.870819 0.368866 0.000000
0.936249 0.368195 0.000000
0.997437 0.368683 0.000000
1.000000 0.370514 0.000000
0.000000 0.443665 0.000000
0.000000 0.443726 0.000000
0.018219 0.443909 0.000000
0.134460 0.445404 0.000000
0.219086 0.447052 0.000000
0.296387 0.448334 0.000000
0.371185 0.448975 0.000000
0.444702 0.448792 0.000000
0.517181 0.448273 0.000000
0.589172 0.447693 0.000000
0.660553 0.446899 0.000000
0.730957 0.445953 0.000000
0.799957 0.445007 0.000000
0.867096 0.444305 0.000000
0.931976 0.444183 0.000000
0.993042 0.444794 0.000000
1.000000 0.446381 0.000000
0.000000 0.514069 0.000000
0.000000 0.514130 0.000000
0.003662 0.514221 0.000000
0.125885 0.515442 0.000000
0.214966 0.517029 0.000000
0.293915 0.518402 0.000000
0.369385 0.519318 0.000000
0.443390 0.519714 0.000000
0.516022 0.519440 0.000000
0.587616 0.518890 0.000000
0.658447 0.518372 0.000000
0.728241 0.517822 0.000000
0.796631 0.517303 0.000000
0.863098 0.516968 0.000000
0.927338 0.517059 0.000000
0.988342 0.517731 0.000000
1.000000 0.518982 0.000000
0.000000 0.583496 0.000000
0.000000 0.583496 0.000000
0.001984 0.583527 0.000000
0.119781 0.584473 0.000000
0.212433 0.585938 0.000000
0.292389 0.587311 0.000000
0.368286 0.588379 0.000000
0.442291 0.589050 0.000000
0.515076 0.589142 0.000000
0.586548 0.588684 0.000000
0.656738 0.588135 0.000000
0.725769 0.587708 0.000000
0.793365 0.587341 0.000000
0.859039 0.587189 0.000000
0.922607 0.587341 0.000000
0.983429 0.587830 0.000000
1.000000 0.588837 0.000000
0.000000 0.651215 0.000000
0.000000 0.651245 0.000000
0.002258 0.651245 0.000000
0.120453 0.652039 0.000000
0.213440 0.653351 0.000000
0.293335 0.654602 0.000000
0.368958 0.655701 0.000000
0.442596 0.656403 0.000000
0.514984 0.656708 0.000000
0.586090 0.656586 0.000000
0.655792 0.655975 0.000000
0.723969 0.655396 0.000000
0.790588 0.654999 0.000000
0.855316 0.654785 0.000000
0.918121 0.654846 0.000000
0.978699 0.655151 0.000000
1.000000 0.655731 0.000000
0.000000 0.716705 0.000000
0.000000 0.716675 0.000000
0.010895 0.716644 0.000000
0.132599 0.717438 0.000000
0.220825 0.718567 0.000000
0.298645 0.719696 0.000000
0.372894 0.720642 0.000000
0.445435 0.721375 0.000000
0.516724 0.721710 0.000000
0.586975 0.721680 0.000000
0.655914 0.721313 0.000000
0.723206 0.720581 0.000000
0.788696 0.719910 0.000000
0.852356 0.719513 0.000000
0.914307 0.719391 0.000000
0.974518 0.719391 0.000000
1.000000 0.719574 0.000000
0.000000 0.779175 0.000000
0.000153 0.779114 0.000000
0.061432 0.779297 0.000000
0.157990 0.780090 0.000000
0.236603 0.781006 0.000000
0.310181 0.781952 0.000000
0.381531 0.782745 0.000000
0.451874 0.783386 0.000000
0.521454 0.783691 0.000000
0.590118 0.783722 0.000000
0.657684 0.783417 0.000000
0.723755 0.782837 0.000000
0.788025 0.782043 0.000000
0.850433 0.781403 0.000000
0.911469 0.780975 0.000000
0.971100 0.780823 0.000000
1.000000 0.780670 0.000000
0.008698 0.838776 0.000000
0.051941 0.838806 0.000000
0.125061 0.839264 0.000000
0.193420 0.839905 0.000000
0.260590 0.840668 0.000000
0.327850 0.841400 0.000000
0.394989 0.842102 0.000000
0.462219 0.842621 0.000000
0.529144 0.842926 0.000000
0.595673 0.842957 0.000000
0.661255 0.842712 0.000000
0.725586 0.842285 0.000000
0.788422 0.841614 0.000000
0.849670 0.840881 0.000000
0.909668 0.840240 0.000000
0.968475 0.839844 0.000000
1.000000 0.839508 0.000000
0.110291 0.896362 0.000000
0.140381 0.896576 0.000000
0.181396 0.896942 0.000000
0.232788 0.897461 0.000000
0.289948 0.898071 0.000000
0.350220 0.898682 0.000000
0.412415 0.899261 0.000000
0.475739 0.899689 0.000000
0.539459 0.899963 0.000000
0.603149 0.900024 0.000000
0.666260 0.899902 0.000000
0.728516 0.899597 0.000000
0.789703 0.899078 0.000000
0.849792 0.898468 0.000000
0.908722 0.897705 0.000000
0.966644 0.897125 0.000000
1.000000 0.896667 0.000000
0.183807 0.952393 0.000000
0.202576 0.952576 0.000000
0.232330 0.952850 0.000000
0.273041 0.953247 0.000000
0.321625 0.953705 0.000000
0.375336 0.954224 0.000000
0.432312 0.954712 0.000000
0.491333 0.955139 0.000000
0.551361 0.955383 0.000000
0.611877 0.955536 0.000000
0.672272 0.955505 0.000000
0.732300 0.955292 0.000000
0.791718 0.954987 0.000000
0.850464 0.954498 0.000000
0.908447 0.953918 0.000000
0.965546 0.953247 0.000000
1.000000 0.952637 0.000000
0.240631 1.000000 0.000000
0.254700 1.000000 0.000000
0.277893 1.000000 0.000000
0.311554 1.000000 0.000000
0.353271 1.000000 0.000000
0.400909 1.000000 0.000000
0.452820 1.000000 0.000000
0.507477 1.000000 0.000000
0.563751 1.000000 0.000000
0.620941 1.000000 0.000000
0.678711 1.000000 0.000000
0.736511 1.000000 0.000000
0.794128 1.000000 0.000000
0.851440 1.000000 0.000000
0.908325 1.000000 0.000000
0.964813 1.000000 0.000000
1.000000 1.000000 0.000000
0.000000 0.000000 0.038208
0.037445 0.000000 0.038544
0.093109 0.000000 0.037842
0.156281 0.000000 0.035950
0.226379 0.000000 0.033875
0.300201 0.000000 0.030243
0.374512 0.000000 0.025970
0.448730 0.000000 0.020111
0.522705 0.000000 0.012909
0.596313 0.000000 0.004059
0.669250 0.000000 0.000397
0.741241 0.000000 0.000000
0.812012 0.000000 0.000000
0.881012 0.000000 0.000000
0.947876 0.000000 0.000000
0.999695 0.000000 0.000000
1.000000 0.000000 0.000000
0.000000 0.037811 0.037842
0.037811 0.037811 0.037811
0.095093 0.035614 0.036713
0.159210 0.030212 0.035034
0.229218 0.018951 0.032104
0.302338 0.002930 0.028351
0.375916 0.000000 0.023163
0.449707 0.000000 0.016785
0.523315 0.000000 0.009216
0.596710 0.000000 0.001556
0.669464 0.000000 0.000122
0.741333 0.000000 0.000000
0.811951 0.000000 0.000000
0.880920 0.000000 0.000000
0.947632 0.000000 0.000000
0.999695 0.000000 0.000000
1.000000 0.000000 0.000000
0.000000 0.093750 0.036743
0.034027 0.094299 0.036713
0.094177 0.095276 0.034698
0.160492 0.094116 0.031677
0.231171 0.090027 0.028168
0.304077 0.082397 0.023376
0.377228 0.071198 0.017700
0.450562 0.055511 0.010651
0.523865 0.036438 0.002960
0.596954 0.013458 0.000244
0.669586 0.002380 0.000000
0.741364 0.000000 0.000000
0.811859 0.000000 0.000000
0.880585 0.000000 0.000000
0.947205 0.000000 0.000000
0.999634 0.000000 0.000000
1.000000 0.000000 0.000000
0.000000 0.159637 0.031342
0.017059 0.160095 0.031067
0.089020 0.161499 0.028931
0.159485 0.162628 0.024597
0.231079 0.161896 0.020386
0.303864 0.159760 0.014740
0.376770 0.156097 0.008240
0.449921 0.150818 0.002167
0.523071 0.143860 0.000244
0.596039 0.135101 0.000000
0.668518 0.124512 0.000000
0.740143 0.111938 0.000000
0.810516 0.097504 0.000000
0.879120 0.084320 0.000000
0.945496 0.076691 0.000000
0.999542 0.073273 0.000000
1.000000 0.075806 0.000000
0.000000 0.230225 0.019775
0.000519 0.230499 0.019714
0.077667 0.231537 0.017303
0.156097 0.233276 0.012177
0.230164 0.233673 0.007172
0.302826 0.233185 0.002991
0.375641 0.231873 0.001007
0.448669 0.229584 0.000092
0.521759 0.226318 0.000000
0.594604 0.222076 0.000000
0.666931 0.217163 0.000000
0.738373 0.211670 0.000000
0.808533 0.206177 0.000000
0.876892 0.201324 0.000000
0.943024 0.197815 0.000000
0.999390 0.196869 0.000000
1.000000 0.199066 0.000000
0.000000 0.301514 0.004974
0.000000 0.301727 0.004944
0.061890 0.302368 0.003235
0.151031 0.304108 0.001434
0.227692 0.305328 0.000183
0.301727 0.305450 0.000092
0.374573 0.304962 0.000000
0.447449 0.303986 0.000000
0.520325 0.302399 0.000000
0.592957 0.300201 0.000000
0.665039 0.297455 0.000000
0.736176 0.294464 0.000000
0.806030 0.291504 0.000000
0.874084 0.289001 0.000000
0.939880 0.287476 0.000000
0.999207 0.287537 0.000000
1.000000 0.289520 0.000000
0.000000 0.372681 0.000153
0.000000 0.372803 0.000153
0.043762 0.373169 0.000092
0.144196 0.374847 0.000000
0.224152 0.376312 0.000000
0.299744 0.377197 0.000000
0.373383 0.377167 0.000000
0.446228 0.376648 0.000000
0.518829 0.375916 0.000000
0.591156 0.374786 0.000000
0.662903 0.373230 0.000000
0.733704 0.371552 0.000000
0.803162 0.369843 0.000000
0.870789 0.368500 0.000000
0.936127 0.367920 0.000000
0.997284 0.368347 0.000000
1.000000 0.370178 0.000000
0.000000 0.443665 0.000000
0.000000 0.443726 0.000000
0.021515 0.443909 0.000000
0.135864 0.445404 0.000000
0.219879 0.446991 0.000000
0.296906 0.448181 0.000000
0.371613 0.448792 0.000000
0.445038 0.448608 0.000000
0.517395 0.448090 0.000000
0.589355 0.447479 0.000000
0.660675 0.446655 0.000000
0.730988 0.445679 0.000000
0.799927 0.444733 0.000000
0.867035 0.444061 0.000000
0.931854 0.443909 0.000000
0.992920 0.444519 0.000000
1.000000 0.446136 0.000000
0.000000 0.514099 0.000000
0.000000 0.514160 0.000000
0.004456 0.514221 0.000000
0.127228 0.515411 0.000000
0.215668 0.516998 0.000000
0.294312 0.518311 0.000000
0.369751 0.519226 0.000000
0.443604 0.519562 0.000000
0.516205 0.519226 0.000000
0.587738 0.518707 0.000000
0.658539 0.518219 0.000000
0.728241 0.517639 0.000000
0.796570 0.517120 0.000000
0.863007 0.516754 0.000000
0.927246 0.516846 0.000000
0.988159 0.517517 0.000000
1.000000 0.518799 0.000000
0.000000 0.583466 0.000000
0.000000 0.583496 0.000000
0.002319 0.583496 0.000000
0.120941 0.584473 0.000000
0.212891 0.585938 0.000000
0.292786 0.587250 0.000000
0.368469 0.588287 0.000000
0.442505 0.588898 0.000000
0.515228 0.588959 0.000000
0.586639 0.588531 0.000000
0.656799 0.587982 0.000000
0.725769 0.587524 0.000000
0.793335 0.587158 0.000000
0.858978 0.586975 0.000000
0.922485 0.587128 0.000000
0.983276 0.587677 0.000000
1.000000 0.588654 0.000000
0.000000 0.651215 0.000000
0.000000 0.651215 0.000000
0.002594 0.651215 0.000000
0.121277 0.652039 0.000000
0.213959 0.653290 0.000000
0.293762 0.654572 0.000000
0.369202 0.655579 0.000000
0.442810 0.656281 0.000000
0.515045 0.656586 0.000000
0.586151 0.656403 0.000000
0.655823 0.655853 0.000000
0.723938 0.655243 0.000000
0.790497 0.654877 0.000000
0.855194 0.654633 0.000000
0.917969 0.654694 0.000000
0.978546 0.655029 0.000000
1.000000 0.655609 0.000000
0.000000 0.716675 0.000000
0.000000 0.716644 0.000000
0.011688 0.716614 0.000000
0.133240 0.717438 0.000000
0.221161 0.718567 0.000000
0.298981 0.719635 0.000000
0.373108 0.720581 0.000000
0.445557 0.721252 0.000000
0.516846 0.721619 0.000000
0.587036 0.721558 0.000000
0.655914 0.721161 0.000000
0.723175 0.720459 0.000000
0.788605 0.719788 0.000000
0.852234 0.719391 0.000000
0.914124 0.719238 0.000000
0.974396 0.719269 0.000000
1.000000 0.719452 0.000000
0.000000 0.779175 0.000000
0.000183 0.779144 0.000000
0.062286 0.779297 0.000000
0.158600 0.780060 0.000000
0.236938 0.780975 0.000000
0.310303 0.781891 0.000000
0.381683 0.782684 0.000000
0.451996 0.783295 0.000000
0.521454 0.783600 0.000000
0.590088 0.783630 0.000000
0.657654 0.783295 0.000000
0.723694 0.782715 0.000000
0.787903 0.781921 0.000000
0.850342 0.781281 0.000000
0.911285 0.780884 0.000000
0.970978 0.780670 0.000000
1.000000 0.780579 0.000000
0.009186 0.838745 0.000000
0.052917 0.838837 0.000000
0.125458 0.839233 0.000000
0.193542 0.839874 0.000000
0.260773 0.840607 0.000000
0.327972 0.841370 0.000000
0.395081 0.842010 0.000000
0.462280 0.842529 0.000000
0.529175 0.842834 0.000000
0.595551 0.842865 0.000000
0.661133 0.842621 0.000000
0.725464 0.842194 0.000000
0.788300 0.841522 0.000000
0.849518 0.840759 0.000000
0.909454 0.840149 0.000000
0.968292 0.839752 0.000000
1.000000 0.839417 0.000000
0.110382 0.896362 0.000000
0.140289 0.896606 0.000000
0.181671 0.896942 0.000000
0.233063 0.897430 0.000000
0.289948 0.898010 0.000000
0.350281 0.898621 0.000000
0.412476 0.899170 0.000000
0.475739 0.899597 0.000000
0.539429 0.899872 0.000000
0.603027 0.899963 0.000000
0.666168 0.899811 0.000000
0.728333 0.899475 0.000000
0.789551 0.899017 0.000000
0.849609 0.898346 0.000000
0.908539 0.897644 0.000000
0.966461 0.897064 0.000000
1.000000 0.896545 0.000000
0.183960 0.952332 0.000061
0.202698 0.952545 0.000061
0.232422 0.952789 0.000031
0.273163 0.953186 0.000000
0.321655 0.953674 0.000000
0.375366 0.954163 0.000000
0.432281 0.954651 0.000000
0.491241 0.955048 0.000000
0.551270 0.955292 0.000000
0.611755 0.955414 0.000000
0.672119 0.955414 0.000000
0.732117 0.955200 0.000000
0.791534 0.954865 0.000000
0.850220 0.954437 0.000000
0.908234 0.953827 0.000000
0.965363 0.953156 0.000000
1.000000 0.952576 0.000000
0.241730 1.000000 0.016327
0.255981 1.000000 0.014069
0.279022 1.000000 0.009949
0.312469 1.000000 0.003540
0.354004 1.000000 0.001373
0.401611 1.000000 0.000732
0.453247 1.000000 0.000061
0.507751 1.000000 0.000000
0.563873 1.000000 0.000000
0.620972 1.000000 0.000000
0.678589 1.000000 0.000000
0.736328 1.000000 0.000000
0.793945 1.000000 0.000000
0.851227 1.000000 0.000000
0.908142 1.000000 0.000000
0.964569 1.000000 0.000000
1.000000 1.000000 0.000000
0.000000 0.000000 0.094177
0.033600 0.000000 0.094391
0.091309 0.000000 0.094940
0.155884 0.000000 0.094482
0.226501 0.000000 0.093445
0.300385 0.000000 0.091614
0.374573 0.000000 0.089172
0.448669 0.000000 0.085876
0.522552 0.000000 0.081726
0.596039 0.000000 0.076294
0.668976 0.000000 0.069519
0.740936 0.000000 0.061340
0.811584 0.000000 0.051544
0.880554 0.000000 0.040894
0.947327 0.000000 0.028595
0.999664 0.000000 0.015472
1.000000 0.000000 0.003876
0.000000 0.037476 0.094482
0.035461 0.037140 0.094513
0.093872 0.034790 0.095093
0.159119 0.028748 0.094513
0.229584 0.016724 0.093140
0.302521 0.002289 0.091003
0.376007 0.000000 0.088440
0.449585 0.000000 0.084808
0.523193 0.000000 0.080170
0.596405 0.000000 0.074463
0.669159 0.000000 0.067383
0.740997 0.000000 0.058990
0.811584 0.000000 0.048767
0.880432 0.000000 0.037720
0.947174 0.000000 0.025360
0.999634 0.000000 0.012085
1.000000 0.000000 0.003418
0.000000 0.093964 0.094696
0.032745 0.094330 0.094727
0.094513 0.094513 0.094513
0.162201 0.092529 0.093475
0.233063 0.087921 0.091339
0.305573 0.080017 0.088928
0.378235 0.068604 0.085663
0.451355 0.052551 0.081573
0.524384 0.032990 0.076599
0.597290 0.010590 0.070496
0.669678 0.001740 0.063080
0.741272 0.000000 0.053986
0.811615 0.000000 0.043518
0.880280 0.000000 0.032227
0.946808 0.000000 0.019531
0.999634 0.000000 0.006378
1.000000 0.000000 0.002502
0.000000 0.160217 0.093719
0.016937 0.160492 0.093689
0.091400 0.160858 0.093567
0.160889 0.162079 0.091278
0.233002 0.161102 0.088379
0.305847 0.158630 0.084961
0.378571 0.154510 0.081238
0.451538 0.149017 0.076477
0.524536 0.141846 0.070709
0.597321 0.132690 0.063873
0.669617 0.121643 0.055573
0.741058 0.108551 0.045746
0.811249 0.093811 0.035156
0.879700 0.081116 0.023438
0.945953 0.073120 0.010712
0.999573 0.069611 0.003143
1.000000 0.072083 0.001434
0.000000 0.230652 0.090149
0.000702 0.230927 0.089996
0.081085 0.230988 0.090088
0.157959 0.232513 0.087585
0.231354 0.233307 0.083832
0.304169 0.232727 0.080078
0.377167 0.231201 0.075317
0.450287 0.228668 0.069580
0.523285 0.225098 0.063080
0.596039 0.220703 0.055298
0.668213 0.215576 0.046082
0.739502 0.209930 0.036072
0.809479 0.204285 0.024933
0.877686 0.199371 0.012939
0.943695 0.195740 0.003754
0.999420 0.194855 0.001801
1.000000 0.196930 0.000183
0.000000 0.301849 0.084290
0.000000 0.301910 0.084076
0.066254 0.302002 0.084137
0.153656 0.303101 0.081909
0.228973 0.304718 0.076599
0.302643 0.305054 0.071960
0.375397 0.304596 0.067474
0.448456 0.303589 0.060699
0.521454 0.301788 0.053040
0.594086 0.299438 0.044037
0.666138 0.296539 0.034576
0.737213 0.293396 0.023834
0.806946 0.290314 0.012665
0.874847 0.287750 0.004089
0.940521 0.286194 0.001862
0.999237 0.286194 0.000336
1.000000 0.288177 0.000000
0.000000 0.372894 0.076172
0.000000 0.372986 0.076019
0.048065 0.372986 0.075958
0.147278 0.373871 0.073608
0.225677 0.375549 0.067719
0.300507 0.376678 0.060547
0.373993 0.376831 0.054749
0.446808 0.376312 0.048859
0.519501 0.375580 0.041016
0.591888 0.374329 0.031616
0.663666 0.372711 0.021179
0.734406 0.370911 0.010468
0.803802 0.369141 0.003723
0.871338 0.367737 0.001740
0.936615 0.367096 0.000244
0.997589 0.367523 0.000000
1.000000 0.369293 0.000000
0.000000 0.443817 0.065979
0.000000 0.443878 0.065826
0.024963 0.443939 0.065704
0.138885 0.444641 0.063354
0.221527 0.446198 0.056427
0.297729 0.447601 0.048218
0.372162 0.448364 0.039673
0.445374 0.448273 0.033142
0.517792 0.447784 0.026672
0.589722 0.447174 0.017090
0.661102 0.446320 0.008057
0.731415 0.445282 0.003143
0.800323 0.444275 0.001373
0.867371 0.443573 0.000244
0.932159 0.443390 0.000000
0.993134 0.444000 0.000000
1.000000 0.445557 0.000000
0.000000 0.514160 0.054382
0.000000 0.514191 0.054352
0.005737 0.514282 0.054138
0.130096 0.514862 0.051880
0.217285 0.516296 0.044800
0.295227 0.517731 0.035187
0.370209 0.518768 0.024658
0.443939 0.519196 0.014740
0.516449 0.518921 0.009186
0.587952 0.518433 0.005341
0.658691 0.517944 0.002563
0.728424 0.517365 0.001099
0.796722 0.516785 0.000153
0.863159 0.516418 0.000000
0.927338 0.516510 0.000000
0.988281 0.517120 0.000000
1.000000 0.518402 0.000000
0.000000 0.583496 0.043732
0.000000 0.583527 0.043762
0.002686 0.583588 0.043488
0.123657 0.584045 0.040558
0.214600 0.585358 0.032196
0.293671 0.586731 0.021576
0.369019 0.587860 0.010498
0.442810 0.588531 0.004456
0.515381 0.588684 0.002411
0.586731 0.588287 0.001434
0.656830 0.587738 0.000702
0.725830 0.587280 0.000000
0.793335 0.586914 0.000000
0.858948 0.586761 0.000000
0.922424 0.586884 0.000000
0.983246 0.587402 0.000000
1.000000 0.588318 0.000000
0.000000 0.651245 0.033722
0.000000 0.651245 0.033600
0.002960 0.651245 0.033478
0.123962 0.651703 0.029785
0.215393 0.652893 0.020752
0.294556 0.654144 0.009918
0.369690 0.655212 0.004150
0.443054 0.655975 0.002289
0.515228 0.656311 0.000702
0.586182 0.656158 0.000031
0.655823 0.655609 0.000000
0.723907 0.655029 0.000000
0.790436 0.654633 0.000000
0.855103 0.654449 0.000000
0.917847 0.654480 0.000000
0.978424 0.654785 0.000000
1.000000 0.655365 0.000000
0.000000 0.716675 0.028198
0.000000 0.716644 0.028076
0.013092 0.716583 0.028168
0.135529 0.717133 0.023041
0.222504 0.718170 0.013763
0.299835 0.719238 0.005341
0.373596 0.720215 0.003235
0.445831 0.720917 0.001495
0.516937 0.721313 0.000153
0.587036 0.721313 0.000000
0.655884 0.720947 0.000000
0.723083 0.720215 0.000000
0.788452 0.719604 0.000000
0.852051 0.719208 0.000000
0.913940 0.719055 0.000000
0.974213 0.719086 0.000000
1.000000 0.719269 0.000000
0.000000 0.779175 0.030792
0.000244 0.779144 0.030853
0.065308 0.779114 0.030365
0.160553 0.779724 0.023895
0.238281 0.780548 0.014954
0.311249 0.781464 0.005859
0.382172 0.782288 0.003632
0.452301 0.782898 0.001892
0.521576 0.783264 0.000244
0.590057 0.783325 0.000000
0.657562 0.783051 0.000000
0.723541 0.782501 0.000000
0.787659 0.781738 0.000000
0.850098 0.781097 0.000000
0.911041 0.780731 0.000000
0.970734 0.780518 0.000000
1.000000 0.780426 0.000000
0.009552 0.838715 0.043640
0.056000 0.838654 0.043732
0.128235 0.838867 0.041260
0.195648 0.839355 0.035126
0.262329 0.840057 0.026917
0.328979 0.840790 0.016174
0.395721 0.841492 0.006653
0.462585 0.842041 0.003662
0.529297 0.842407 0.001923
0.595551 0.842499 0.000336
0.660980 0.842346 0.000000
0.725281 0.841949 0.000000
0.788055 0.841339 0.000000
0.849243 0.840576 0.000000
0.909149 0.839996 0.000000
0.968048 0.839569 0.000000
1.000000 0.839294 0.000000
0.114136 0.895966 0.062897
0.143494 0.896088 0.061829
0.184662 0.896301 0.059326
0.235443 0.896698 0.055054
0.291809 0.897247 0.048584
0.351593 0.897858 0.039246
0.413300 0.898438 0.028046
0.476227 0.898926 0.015686
0.539612 0.899292 0.006348
0.602997 0.899475 0.003387
0.665955 0.899445 0.001831
0.728119 0.899200 0.000427
0.789276 0.898743 0.000092
0.849304 0.898193 0.000000
0.908203 0.897491 0.000000
0.966156 0.896912 0.000000
1.000000 0.896454 0.000000
0.187592 0.951569 0.086700
0.206482 0.951660 0.085663
0.235748 0.951843 0.083588
0.276062 0.952148 0.079956
0.323944 0.952606 0.074432
0.377045 0.953094 0.067383
0.433472 0.953613 0.059387
0.491974 0.954102 0.049774
0.551636 0.954468 0.037872
0.611786 0.954742 0.025330
0.671967 0.954865 0.012848
0.731842 0.954773 0.005829
0.791199 0.954559 0.003876
0.849915 0.954193 0.002808
0.907898 0.953644 0.002258
0.964996 0.953003 0.002319
1.000000 0.952423 0.002380
0.244507 1.000000 0.113770
0.258698 1.000000 0.113037
0.281586 1.000000 0.111359
0.314697 1.000000 0.108948
0.355896 1.000000 0.104828
0.403076 1.000000 0.099701
0.454285 1.000000 0.092743
0.508362 1.000000 0.084839
0.564117 1.000000 0.075562
0.620972 1.000000 0.065582
0.678467 1.000000 0.056213
0.736084 1.000000 0.046143
0.793610 1.000000 0.036591
0.850861 1.000000 0.028046
0.907745 1.000000 0.022034
0.964172 1.000000 0.019623
1.000000 1.000000 0.020569
0.000000 0.000000 0.159760
0.020844 0.000000 0.160004
0.086151 0.000000 0.161041
0.154144 0.000000 0.161438
0.225708 0.000000 0.161102
0.299744 0.000000 0.160339
0.373840 0.000000 0.159119
0.447968 0.000000 0.157349
0.521759 0.000000 0.155121
0.595184 0.000000 0.152466
0.668030 0.000000 0.149200
0.739929 0.000000 0.145477
0.810516 0.000000 0.141174
0.879425 0.000000 0.136536
0.946167 0.000000 0.131195
0.999603 0.000000 0.125336
1.000000 0.000000 0.119049
0.000000 0.036774 0.160492
0.023834 0.036346 0.160583
0.089172 0.033905 0.161255
