luts/Ultra Soft Skin 400.CUBE
# kravix mobile - LUTs Pack
LUT_3D_SIZE 17
0.000000 0.000000 0.000000
0.009804 0.000000 0.000000
0.047059 0.000000 0.000000
0.115686 0.013725 0.000000
0.203922 0.023529 0.000000
0.296079 0.025490 0.000000
0.384314 0.015686 0.000000
0.494117 0.001961 0.000000
0.592157 0.000000 0.000000
0.680392 0.000000 0.000000
0.772549 0.000000 0.000000
0.845098 0.000000 0.000000
0.905882 0.000000 0.000000
0.954902 0.005882 0.000000
1.000000 0.066667 0.000000
1.000000 0.125490 0.000000
1.000000 0.192157 0.000000
0.000000 0.007843 0.000000
0.009804 0.012745 0.000000
0.052942 0.023529 0.000000
0.126471 0.043137 0.000000
0.203922 0.054902 0.000000
0.300980 0.062745 0.000000
0.392157 0.062745 0.000000
0.500000 0.042157 0.000000
0.592157 0.015686 0.000000
0.683333 0.003922 0.000000
0.766666 0.000000 0.000000
0.841176 0.000000 0.000000
0.900000 0.015686 0.000000
0.953922 0.049020 0.000000
1.000000 0.101961 0.000000
1.000000 0.153922 0.000000
1.000000 0.209804 0.000000
0.000000 0.043137 0.003922
0.001961 0.052941 0.001961
0.039216 0.054902 0.000000
0.121569 0.080392 0.000000
0.211765 0.101961 0.000000
0.309804 0.109803 0.000000
0.403922 0.113725 0.000000
0.507843 0.107843 0.000000
0.607843 0.086275 0.000000
0.703922 0.082353 0.000000
0.784314 0.062745 0.000000
0.845098 0.074510 0.000000
0.898039 0.094118 0.000000
0.952941 0.119608 0.000000
1.000000 0.149020 0.000000
1.000000 0.182353 0.000000
1.000000 0.231373 0.000000
0.000000 0.119608 0.005882
0.000000 0.116667 0.006863
0.009804 0.129412 0.003921
0.091176 0.139216 0.000000
0.188236 0.160784 0.000000
0.306863 0.180392 0.000000
0.415686 0.172549 0.000000
0.519608 0.176471 0.000000
0.617647 0.168627 0.000000
0.712745 0.163725 0.000000
0.780392 0.162745 0.000000
0.845098 0.159804 0.000000
0.903922 0.174509 0.000000
0.950980 0.182353 0.000000
1.000000 0.203921 0.000000
1.000000 0.235294 0.000000
1.000000 0.270589 0.000000
0.000000 0.184314 0.007843
0.000000 0.205882 0.013725
0.000000 0.192157 0.011765
0.039216 0.203922 0.001961
0.145098 0.219608 0.000000
0.274510 0.247059 0.000000
0.407843 0.274510 0.000000
0.537255 0.252941 0.000000
0.639216 0.239216 0.000000
0.717647 0.241177 0.000000
0.784314 0.235294 0.000000
0.843137 0.231373 0.000000
0.898039 0.235294 0.000000
0.954902 0.250980 0.000000
0.996078 0.266667 0.000000
1.000000 0.286275 0.000000
1.000000 0.301961 0.000000
0.000000 0.272549 0.025490
0.000000 0.292157 0.037255
0.000000 0.280392 0.039216
0.000000 0.289216 0.029412
0.049020 0.301960 0.011765
0.230392 0.331372 0.000000
0.382353 0.358823 0.000000
0.524510 0.358824 0.000000
0.627451 0.350981 0.000000
0.720588 0.330392 0.000000
0.790196 0.311765 0.000000
0.848039 0.314706 0.000000
0.903922 0.319607 0.000000
0.951960 0.318628 0.000000
0.994117 0.327451 0.000000
1.000000 0.343137 0.000000
1.000000 0.368627 0.000000
0.000000 0.364706 0.062745
0.000000 0.384313 0.076470
0.000000 0.388235 0.086275
0.000000 0.380393 0.082353
0.000000 0.384314 0.062745
0.168627 0.403922 0.029412
0.305882 0.423529 0.000000
0.490196 0.439215 0.000000
0.603922 0.447059 0.000000
0.694118 0.433334 0.000000
0.780392 0.411765 0.000000
0.843137 0.388235 0.000000
0.901961 0.392157 0.000000
0.950981 0.386274 0.000000
0.992157 0.388235 0.000000
1.000000 0.400000 0.000000
1.000000 0.423529 0.000000
0.000000 0.443137 0.105882
0.000000 0.461765 0.120588
0.000000 0.458823 0.123529
0.000000 0.458824 0.131373
0.000000 0.462746 0.125490
0.061765 0.473529 0.108824
0.250980 0.484314 0.084313
0.399019 0.496078 0.046079
0.552941 0.513726 0.001961
0.671569 0.523529 0.000000
0.749019 0.511765 0.000000
0.824510 0.497059 0.000000
0.886274 0.472549 0.000000
0.944117 0.459804 0.000000
0.988235 0.460784 0.000000
1.000000 0.463726 0.000000
1.000000 0.474510 0.000000
0.000000 0.529412 0.156863
0.000000 0.523529 0.158824
0.000000 0.525490 0.160784
0.000000 0.519608 0.166666
0.000000 0.521569 0.172549
0.021569 0.531373 0.162745
0.196078 0.541176 0.145098
0.341176 0.547059 0.123529
0.474510 0.556863 0.090196
0.609804 0.572549 0.029412
0.721569 0.600000 0.000000
0.798039 0.586275 0.000000
0.862745 0.564706 0.000000
0.925490 0.547059 0.000000
0.980392 0.525490 0.000000
1.000000 0.521568 0.000000
1.000000 0.541176 0.000000
0.000000 0.568627 0.186275
0.000000 0.588235 0.200980
0.000000 0.586275 0.201960
0.000000 0.582353 0.205882
0.000000 0.576470 0.207843
0.000000 0.582353 0.207843
0.137255 0.592157 0.198039
0.306862 0.599020 0.181372
0.425490 0.611765 0.166666
0.546078 0.617647 0.134314
0.664706 0.633333 0.092157
0.769608 0.651961 0.037255
0.841176 0.647058 0.000000
0.902941 0.642157 0.000000
0.958824 0.621568 0.000000
0.997059 0.603921 0.000000
1.000000 0.596078 0.000000
0.000000 0.627451 0.223529
0.000000 0.639216 0.235294
0.000000 0.639216 0.235294
0.000000 0.639216 0.241177
0.000000 0.643137 0.247059
0.000000 0.635294 0.249020
0.101961 0.650980 0.250980
0.276471 0.650980 0.233333
0.392157 0.658824 0.219608
0.507844 0.670588 0.207843
0.607843 0.674510 0.184314
0.719608 0.692157 0.156863
0.827451 0.717647 0.113725
0.886275 0.711765 0.023529
0.937255 0.701961 0.000000
0.986274 0.694117 0.000000
1.000000 0.682353 0.000000
0.000000 0.701961 0.278431
0.000000 0.700000 0.278431
0.000000 0.700000 0.278431
0.000000 0.699020 0.284314
0.000000 0.694118 0.286274
0.000000 0.697059 0.294118
0.119608 0.700000 0.294118
0.273529 0.706863 0.287255
0.378432 0.715686 0.282353
0.485294 0.721569 0.268628
0.586275 0.729412 0.254902
0.671569 0.735294 0.237255
0.766667 0.747059 0.219608
0.851961 0.763726 0.199020
0.913725 0.768628 0.147058
0.969608 0.765686 0.077451
1.000000 0.756863 0.054902
0.000000 0.749020 0.317647
0.000000 0.752941 0.323530
0.000000 0.752941 0.325490
0.000000 0.749020 0.325490
0.000000 0.749020 0.329412
0.000000 0.749020 0.335294
0.168627 0.749020 0.341176
0.276471 0.752941 0.335294
0.380392 0.760784 0.333333
0.474510 0.766666 0.323530
0.556863 0.772549 0.317647
0.639216 0.776471 0.303921
0.721569 0.784314 0.290196
0.805883 0.790196 0.274509
0.894118 0.815686 0.278431
0.950981 0.815686 0.243138
1.000000 0.815686 0.207843
0.000000 0.809804 0.388235
0.000000 0.808823 0.383333
0.000000 0.807843 0.384314
0.036275 0.807843 0.390196
0.090196 0.809804 0.398039
0.168628 0.805883 0.399020
0.245098 0.801961 0.400000
0.339216 0.808823 0.407843
0.409804 0.809803 0.400000
0.492157 0.814706 0.396079
0.572549 0.823530 0.401960
0.640196 0.829412 0.395098
0.711765 0.833333 0.384314
0.780392 0.835294 0.368627
0.849020 0.841176 0.364706
0.927451 0.855882 0.359804
0.986274 0.874510 0.366667
0.137255 0.858824 0.454902
0.172549 0.856863 0.456863
0.192157 0.854902 0.458824
0.229411 0.858824 0.460785
0.262745 0.854902 0.462745
0.317647 0.856863 0.472549
0.360784 0.854902 0.478431
0.407843 0.854902 0.480392
0.462745 0.854902 0.482353
0.527451 0.860785 0.478431
0.588235 0.866667 0.478431
0.647058 0.868627 0.472549
0.709804 0.874510 0.470588
0.774510 0.878431 0.464706
0.831373 0.882353 0.458824
0.894118 0.884314 0.447059
0.956863 0.901961 0.458824
0.405882 0.911765 0.572549
0.386274 0.906863 0.561764
0.386274 0.901961 0.554901
0.405882 0.904902 0.561765
0.431372 0.905883 0.566667
0.458824 0.904902 0.572549
0.486274 0.903922 0.578431
0.521569 0.904902 0.588235
0.556863 0.903922 0.590196
0.600980 0.906863 0.589216
0.641177 0.909804 0.588236
0.686275 0.911765 0.581372
0.735294 0.919608 0.584314
0.784314 0.919608 0.576470
0.831373 0.925490 0.580392
0.882353 0.929412 0.570588
0.931372 0.933333 0.562745
0.541176 0.952941 0.666667
0.547059 0.950981 0.668627
0.552941 0.949020 0.670588
0.558823 0.949020 0.670588
0.572549 0.952941 0.678431
0.590196 0.950981 0.680392
0.611765 0.949020 0.686275
0.631373 0.949020 0.692157
0.650980 0.949020 0.701961
0.682353 0.954902 0.700000
0.705882 0.952941 0.698039
0.739216 0.958824 0.698039
0.772549 0.964706 0.698039
0.809803 0.964706 0.694118
0.850980 0.972549 0.694118
0.892157 0.974510 0.694118
0.933333 0.980392 0.694118
0.000000 0.000000 0.011765
0.014706 0.000981 0.015686
0.045098 0.000000 0.013726
0.116667 0.000981 0.014706
0.192157 0.005882 0.007843
0.292157 0.004902 0.011765
0.388235 0.000000 0.007843
0.493137 0.000000 0.002941
0.590196 0.000000 0.000000
0.679412 0.000000 0.000000
0.760784 0.000000 0.000000
0.829412 0.000000 0.000000
0.888235 0.000000 0.000000
0.942157 0.000981 0.000000
0.992157 0.056862 0.000000
1.000000 0.119608 0.000000
1.000000 0.180393 0.000000
0.000000 0.016667 0.017647
0.012745 0.015686 0.017157
0.055882 0.021568 0.013726
0.127451 0.027451 0.015196
0.204902 0.038235 0.013725
0.301961 0.043137 0.009804
0.393137 0.039216 0.005882
0.499510 0.020098 0.001961
0.594118 0.005882 0.000000
0.686765 0.000000 0.000000
0.769607 0.000000 0.000000
0.835784 0.000490 0.000000
0.890196 0.010784 0.000000
0.943628 0.042647 0.000000
0.992157 0.096078 0.000000
0.999510 0.146078 0.000000
1.000000 0.198040 0.000000
0.000000 0.052941 0.025490
0.008824 0.059804 0.026471
0.050980 0.060784 0.021569
0.131373 0.079411 0.013725
0.213726 0.088235 0.009804
0.309804 0.100000 0.006863
0.403921 0.094117 0.001961
0.503922 0.087255 0.000000
0.598039 0.076471 0.000000
0.696078 0.059804 0.000000
0.774509 0.060784 0.000000
0.833333 0.069608 0.000000
0.892157 0.082353 0.000000
0.947059 0.112745 0.000000
0.994117 0.149019 0.000000
1.000000 0.181372 0.000000
1.000000 0.221569 0.000000
0.000000 0.121569 0.045098
0.000490 0.129902 0.042157
0.012745 0.132353 0.039216
0.097549 0.143627 0.028431
0.201961 0.170588 0.012745
0.316176 0.175000 0.001471
0.417647 0.169608 0.000000
0.526961 0.166176 0.000000
0.616667 0.160784 0.000000
0.706373 0.154412 0.000000
0.777451 0.155882 0.000000
0.841177 0.158333 0.000000
0.898039 0.171569 0.000000
0.947549 0.182353 0.000000
0.994117 0.204902 0.000000
1.000000 0.230392 0.000000
1.000000 0.270589 0.000000
0.000000 0.207843 0.056862
0.000000 0.201961 0.054902
0.000000 0.205882 0.054902
0.039216 0.212745 0.042157
0.158824 0.229412 0.027451
0.289215 0.254902 0.005882
0.419608 0.272549 0.000000
0.543137 0.252941 0.000000
0.637255 0.237255 0.000000
0.715687 0.238235 0.000000
0.782353 0.237255 0.000000
0.841177 0.231373 0.000000
0.894118 0.233333 0.000000
0.950980 0.253922 0.000000
0.992157 0.258824 0.000000
1.000000 0.276471 0.000000
1.000000 0.300000 0.000000
0.000000 0.296079 0.080392
0.000000 0.300490 0.080392
0.000000 0.300000 0.084314
0.003922 0.299510 0.079412
0.065686 0.316667 0.070588
0.243137 0.337745 0.040196
0.390196 0.354902 0.011765
0.525000 0.367157 0.000000
0.629412 0.345098 0.000000
0.717157 0.325981 0.000000
0.788235 0.315686 0.000000
0.844608 0.316176 0.000000
0.899020 0.314706 0.000000
0.948529 0.322059 0.000000
0.994117 0.330392 0.000000
1.000000 0.342157 0.000000
1.000000 0.362745 0.000000
0.000000 0.368627 0.103922
0.000000 0.387255 0.110784
0.000000 0.386274 0.117647
0.000000 0.385294 0.119608
0.000000 0.390196 0.109804
0.181373 0.404902 0.089216
0.329411 0.417647 0.054902
0.490196 0.444118 0.016667
0.605882 0.458824 0.000000
0.700980 0.429412 0.000000
0.778431 0.409804 0.000000
0.842157 0.384314 0.000000
0.896079 0.384313 0.000000
0.946079 0.385294 0.000000
0.990196 0.392157 0.000000
1.000000 0.402941 0.000000
1.000000 0.423529 0.000000
0.000000 0.452941 0.139216
0.000000 0.459804 0.146569
0.000000 0.462745 0.151961
0.000000 0.462255 0.157843
0.000000 0.461765 0.154902
0.094118 0.473039 0.142647
0.264706 0.483333 0.125491
0.407843 0.494608 0.092157
0.555882 0.512745 0.046078
0.670098 0.521079 0.008333
0.749019 0.509804 0.000000
0.825490 0.492157 0.000000
0.887255 0.469608 0.000000
0.943627 0.456863 0.000000
0.988235 0.458824 0.000000
1.000000 0.461765 0.000000
1.000000 0.474510 0.000000
0.000000 0.521568 0.176471
0.000000 0.527451 0.182353
0.000000 0.525490 0.186275
0.000000 0.525490 0.189216
0.000000 0.525490 0.194117
0.050980 0.532353 0.187255
0.211765 0.537255 0.172549
0.358824 0.549020 0.154902
0.482353 0.556863 0.131373
0.620588 0.576470 0.086275
0.721569 0.588235 0.011765
0.798039 0.579412 0.000000
0.862745 0.574510 0.000000
0.924509 0.545098 0.000000
0.980392 0.525490 0.000000
1.000000 0.523529 0.000000
1.000000 0.527451 0.000000
0.000000 0.583333 0.211765
0.000000 0.587255 0.217647
0.000000 0.587255 0.220588
0.000000 0.584804 0.225490
0.000000 0.583333 0.230392
0.014706 0.585784 0.229412
0.175490 0.595098 0.220588
0.315196 0.602941 0.208824
0.440196 0.612745 0.192157
0.553432 0.619608 0.166667
0.663725 0.639216 0.145098
0.774510 0.654412 0.074510
0.844117 0.648039 0.016667
0.904412 0.638726 0.001471
0.957843 0.626471 0.000000
0.996078 0.605392 0.000000
1.000000 0.603921 0.000000
0.000000 0.629412 0.239215
0.000000 0.644117 0.252941
0.000000 0.641177 0.252941
0.000000 0.642157 0.257843
0.000000 0.639216 0.262745
0.000000 0.638235 0.266667
0.150981 0.643137 0.260784
0.293137 0.652941 0.252941
0.409804 0.662745 0.241177
0.514706 0.668627 0.225490
0.617647 0.678431 0.207843
0.718627 0.692157 0.183333
0.819608 0.717647 0.156863
0.885294 0.711765 0.066667
0.937255 0.701961 0.000000
0.984314 0.690196 0.000000
1.000000 0.682353 0.000000
0.000000 0.698039 0.285295
0.000000 0.700490 0.290196
0.000000 0.700000 0.293137
0.000000 0.699510 0.295588
0.000000 0.700981 0.302941
0.004412 0.698530 0.308333
0.142157 0.699020 0.306863
0.284804 0.708333 0.301471
0.389216 0.711765 0.293137
0.491177 0.723529 0.285294
0.581372 0.730392 0.273529
0.678432 0.736274 0.254902
0.760784 0.747059 0.243138
0.854412 0.767157 0.223039
0.916667 0.771568 0.184314
0.968627 0.764706 0.104902
1.000000 0.761764 0.070588
0.000000 0.749020 0.327451
0.000000 0.755883 0.336274
0.000000 0.760784 0.341176
0.000000 0.752941 0.336274
0.000000 0.752941 0.343137
0.054902 0.755882 0.352941
0.188236 0.750981 0.354902
0.294118 0.754902 0.350000
0.392157 0.760784 0.345098
0.481372 0.767647 0.337255
0.560784 0.772549 0.329411
0.650980 0.778431 0.318628
0.729411 0.784314 0.307843
0.809804 0.793137 0.297059
0.894118 0.813725 0.292157
0.951961 0.819608 0.265686
1.000000 0.815686 0.227451
0.000000 0.809804 0.391176
0.000980 0.811765 0.398039
0.000000 0.807843 0.392157
0.053431 0.810294 0.400980
0.074510 0.805882 0.398039
0.196078 0.806373 0.406863
0.287255 0.809804 0.421569
0.349019 0.808333 0.417647
0.422549 0.812745 0.413725
0.496569 0.817157 0.409314
0.564706 0.817648 0.400981
0.645588 0.828431 0.402451
0.715686 0.834313 0.398039
0.782843 0.836275 0.381863
0.848040 0.840196 0.374510
0.925980 0.856372 0.371569
0.983333 0.869608 0.367647
0.158824 0.856863 0.458823
0.195098 0.859804 0.466667
0.213726 0.858824 0.468627
0.246078 0.857843 0.469608
0.284313 0.856863 0.472549
0.327451 0.855883 0.477451
0.370588 0.856863 0.484314
0.421569 0.855883 0.490196
0.474510 0.860785 0.496078
0.532353 0.861765 0.487255
0.588235 0.862745 0.482353
0.650980 0.868627 0.480392
0.709804 0.870588 0.474510
0.773529 0.876470 0.471569
0.831373 0.880392 0.466666
0.897058 0.885295 0.455882
0.956863 0.901961 0.468627
0.381373 0.905883 0.561765
0.400490 0.907353 0.568628
0.400980 0.905883 0.566667
0.415686 0.904412 0.567157
0.431373 0.902942 0.567647
0.466667 0.905883 0.578921
0.499020 0.905883 0.588235
0.528431 0.905392 0.595098
0.558824 0.903922 0.595098
0.600490 0.906863 0.594608
0.650980 0.913725 0.603921
0.689706 0.913235 0.588235
0.733334 0.915686 0.586274
0.784314 0.921078 0.585294
0.831373 0.924510 0.580392
0.882843 0.929412 0.576961
0.933334 0.936275 0.572549
0.545098 0.950981 0.670588
0.550000 0.950000 0.673530
0.556863 0.950981 0.676470
0.564706 0.950981 0.676470
0.576471 0.952941 0.680392
0.592157 0.950000 0.683334
0.609804 0.950981 0.688236
0.632353 0.950981 0.696079
0.654902 0.950981 0.703921
0.681372 0.952941 0.703921
0.709804 0.956863 0.703921
0.741176 0.958824 0.700000
0.774510 0.962745 0.700000
0.811764 0.966666 0.700000
0.847059 0.968627 0.696079
0.891177 0.975491 0.697059
0.933333 0.980392 0.696079
0.000000 0.000000 0.050980
0.023529 0.000000 0.056863
0.058824 0.000000 0.054902
0.107843 0.000000 0.060784
0.184314 0.000000 0.062745
0.284313 0.000000 0.052941
0.388235 0.000000 0.054902
0.496078 0.000000 0.062745
0.600000 0.000000 0.047059
0.692157 0.000000 0.043137
0.764706 0.000000 0.019608
0.827451 0.000000 0.005882
0.886275 0.000000 0.003922
0.943137 0.015686 0.000000
0.996078 0.082353 0.000000
1.000000 0.135294 0.000000
1.000000 0.192157 0.000000
0.000000 0.027451 0.060785
0.015686 0.024510 0.066667
0.062745 0.021568 0.068628
0.122549 0.020589 0.067647
0.203922 0.011765 0.062746
0.300980 0.023529 0.062745
0.394118 0.023530 0.060784
0.501961 0.009804 0.056863
0.603921 0.000000 0.049020
0.691177 0.000000 0.032353
0.766667 0.000000 0.023529
0.834314 0.003921 0.004902
0.890197 0.021569 0.000000
0.946079 0.065686 0.000000
0.992157 0.115686 0.000000
1.000000 0.158824 0.000000
1.000000 0.201961 0.000000
0.000000 0.066667 0.070588
0.011765 0.068628 0.076470
0.062745 0.078431 0.082353
0.139215 0.076470 0.080392
0.215686 0.082353 0.066667
0.317647 0.086275 0.062745
0.407843 0.094118 0.058824
0.509804 0.086275 0.043137
0.603922 0.062745 0.035294
0.700000 0.062746 0.021568
0.768627 0.054902 0.007843
0.837255 0.082353 0.000000
0.894118 0.094118 0.000000
0.950980 0.127450 0.000000
0.992157 0.156863 0.000000
1.000000 0.192157 0.000000
1.000000 0.235294 0.000000
0.000000 0.143138 0.094118
0.004902 0.146079 0.100000
0.037255 0.143137 0.094117
0.119608 0.149020 0.082353
0.219608 0.158824 0.068628
0.329412 0.163725 0.056863
0.429412 0.162745 0.035294
0.528431 0.165686 0.035294
0.619608 0.160784 0.015686
0.701961 0.153922 0.008823
0.786274 0.164706 0.000000
0.839216 0.163725 0.000000
0.894118 0.172549 0.000000
0.948039 0.193137 0.000000
0.996078 0.217647 0.000000
1.000000 0.240196 0.000000
1.000000 0.276471 0.000000
0.000000 0.211765 0.117647
0.000000 0.219608 0.117647
0.000000 0.215686 0.105882
0.050980 0.229412 0.107843
0.184314 0.235294 0.090196
0.301961 0.260784 0.076470
0.427451 0.270588 0.035294
0.549019 0.249020 0.001961
0.635294 0.250980 0.000000
0.719607 0.241177 0.000000
0.772549 0.231373 0.000000
0.843138 0.243137 0.000000
0.894118 0.239216 0.000000
0.945098 0.254902 0.000000
0.988235 0.262745 0.000000
1.000000 0.290196 0.000000
1.000000 0.305882 0.000000
0.000000 0.309804 0.143138
0.000000 0.310784 0.133333
0.000000 0.313725 0.133333
0.014706 0.313725 0.136275
0.119608 0.323530 0.131373
0.257843 0.340196 0.112745
0.403921 0.362745 0.084314
0.536274 0.361765 0.031372
0.637255 0.343137 0.000000
0.718628 0.327451 0.000000
0.782353 0.311765 0.000000
0.844118 0.317647 0.000000
0.900000 0.317647 0.000000
0.947059 0.325490 0.000000
0.994117 0.333334 0.000000
1.000000 0.347058 0.000000
1.000000 0.372549 0.000000
0.000000 0.384314 0.156863
0.000000 0.392157 0.162745
0.000000 0.392157 0.164706
0.000000 0.388235 0.166666
0.000000 0.403922 0.172549
0.205882 0.409804 0.150981
0.341176 0.423529 0.141176
0.492157 0.445098 0.094118
0.611765 0.443137 0.023529
0.703921 0.429412 0.000000
0.780392 0.403922 0.000000
0.847059 0.392157 0.000000
0.898039 0.384314 0.000000
0.943137 0.394118 0.000000
0.992157 0.392157 0.000000
0.998039 0.403921 0.000000
1.000000 0.423529 0.000000
0.000000 0.450981 0.184314
0.000000 0.467647 0.185294
0.000000 0.474510 0.192157
0.000000 0.469608 0.195098
0.000000 0.464706 0.198039
0.122549 0.478432 0.188235
0.292157 0.488235 0.176471
0.427451 0.500981 0.154902
0.564706 0.515686 0.119608
0.672549 0.520588 0.063725
0.750980 0.509804 0.005882
0.827451 0.493137 0.000000
0.892157 0.472549 0.000000
0.942157 0.453921 0.000000
0.986274 0.456863 0.000000
1.000000 0.462745 0.000000
1.000000 0.486275 0.000000
0.000000 0.517647 0.203922
0.000000 0.531373 0.213726
0.000000 0.533333 0.215686
0.000000 0.529412 0.221569
0.000000 0.533333 0.231373
0.068627 0.535294 0.223529
0.243137 0.541176 0.215686
0.374509 0.552941 0.194117
0.494118 0.560784 0.180392
0.621569 0.578431 0.152942
0.725490 0.588235 0.101961
0.796079 0.576470 0.013725
0.866667 0.564706 0.000000
0.929412 0.549019 0.000000
0.980392 0.537255 0.000000
0.998039 0.523529 0.000000
1.000000 0.529412 0.000000
0.000000 0.584313 0.241177
0.000000 0.595098 0.247059
0.000000 0.590196 0.245098
0.000000 0.586275 0.250000
0.000000 0.588236 0.258823
0.054902 0.587255 0.256863
0.211764 0.596078 0.252941
0.344117 0.603921 0.238235
0.447059 0.613726 0.229411
0.563725 0.619608 0.205882
0.670588 0.635294 0.182353
0.778431 0.655882 0.139216
0.839216 0.656863 0.076470
0.903922 0.638235 0.016667
0.956863 0.631373 0.000000
0.997059 0.607843 0.000000
1.000000 0.605882 0.000000
0.000000 0.639216 0.270588
0.000000 0.647059 0.274510
0.000000 0.643137 0.278431
0.000000 0.647059 0.282353
0.000000 0.643137 0.286275
0.039216 0.643137 0.290196
0.184314 0.647059 0.286275
0.309804 0.654902 0.282353
0.419608 0.662745 0.270588
0.519608 0.670589 0.256863
0.619608 0.682353 0.243137
0.733334 0.696079 0.221569
0.823529 0.717647 0.196078
0.880392 0.715686 0.152941
0.937255 0.705882 0.070588
0.986274 0.690196 0.000000
1.000000 0.682353 0.000000
0.000000 0.707844 0.309804
0.000000 0.704902 0.312745
0.000000 0.701961 0.311765
0.000000 0.701961 0.315686
0.000000 0.701960 0.319608
0.041176 0.702941 0.326470
0.194117 0.700000 0.329411
0.309804 0.709804 0.325490
0.401961 0.719608 0.321569
0.501961 0.726470 0.311765
0.588235 0.729412 0.300000
0.677451 0.737255 0.284314
0.760784 0.749019 0.274510
0.855882 0.764706 0.247059
0.917647 0.766667 0.209804
0.968627 0.759804 0.153921
1.000000 0.752941 0.082353
0.000000 0.752941 0.341176
0.000000 0.760784 0.354902
0.000000 0.752941 0.352941
0.000000 0.754902 0.354902
0.000000 0.752941 0.360784
0.096079 0.752941 0.366667
0.215686 0.752941 0.372549
0.317647 0.756862 0.368627
0.396078 0.760784 0.360784
0.490196 0.768628 0.356862
0.584314 0.784314 0.364706
0.654902 0.784313 0.347058
0.729412 0.784314 0.329412
0.811764 0.796078 0.323530
0.894118 0.815686 0.313725
0.950980 0.821569 0.294118
0.996078 0.815686 0.250980
0.000000 0.809803 0.400000
0.023529 0.810784 0.410784
0.072549 0.813725 0.415686
0.093137 0.813725 0.418627
0.170589 0.817647 0.423530
0.230392 0.807843 0.420588
0.305883 0.809804 0.431373
0.361764 0.807843 0.431373
0.441176 0.815686 0.435294
0.509804 0.819608 0.427451
0.572549 0.819608 0.417647
0.650980 0.827451 0.414706
0.719608 0.833333 0.411764
0.785294 0.833333 0.394118
0.849020 0.845098 0.400000
0.927451 0.859804 0.396079
0.984314 0.868628 0.380392
0.188235 0.854902 0.470588
0.223529 0.858824 0.474510
0.243137 0.862745 0.478431
0.266667 0.856863 0.478431
0.301961 0.858824 0.486275
0.343137 0.858824 0.490197
0.384314 0.854902 0.494118
0.433333 0.854902 0.501961
0.478431 0.858824 0.501961
0.541176 0.858824 0.500000
0.592157 0.862745 0.494118
0.656863 0.868627 0.494118
0.713725 0.874510 0.490196
0.776471 0.876470 0.484314
0.835294 0.882353 0.482353
0.900000 0.888235 0.470588
0.956863 0.901961 0.482353
0.390196 0.905883 0.566667
0.411765 0.906863 0.576471
0.405883 0.903922 0.568628
0.437255 0.907843 0.581373
0.460785 0.907843 0.586275
0.468627 0.902942 0.581373
0.498039 0.901961 0.586275
0.535294 0.905883 0.601961
0.566666 0.905883 0.607843
0.602941 0.905882 0.599020
0.654902 0.909804 0.607843
0.688236 0.912745 0.597059
0.737255 0.919608 0.598039
0.787255 0.923529 0.600981
0.833333 0.927450 0.596078
0.883333 0.928431 0.581372
0.931372 0.933334 0.572549
0.549020 0.952941 0.674510
0.556863 0.950981 0.678431
0.560784 0.952941 0.682353
0.570588 0.952941 0.682353
0.584314 0.952941 0.686275
0.596078 0.949020 0.688236
0.615686 0.952941 0.694118
0.633333 0.949020 0.700000
0.658824 0.952941 0.709804
0.684314 0.952941 0.707843
0.709804 0.956863 0.709804
0.745098 0.958824 0.705882
0.780392 0.964706 0.705882
0.811764 0.966666 0.705882
0.850980 0.972549 0.705882
0.892157 0.974510 0.701961
0.933333 0.980392 0.701961
0.000000 0.000000 0.131373
0.028431 0.000000 0.132353
0.076470 0.000000 0.137255
0.132353 0.000000 0.137255
0.186275 0.000000 0.137255
0.279412 0.000000 0.137255
0.384313 0.000000 0.125490
0.496078 0.000000 0.123529
0.588235 0.000000 0.121568
0.690196 0.000000 0.135294
0.764706 0.000000 0.143137
0.826471 0.010784 0.139216
0.884314 0.023529 0.117647
0.940196 0.076470 0.120588
0.986274 0.121568 0.111765
1.000000 0.167647 0.100981
1.000000 0.217647 0.100000
0.000000 0.029412 0.132353
0.010784 0.024020 0.142647
0.074510 0.026471 0.144118
