luts/Ultra Soft Skin 400.CUBE
# kravix mobile - LUTs Pack
LUT_3D_SIZE 9
0.000000 0.000000 0.000000
0.047059 0.000000 0.000000
0.203922 0.023529 0.000000
0.384314 0.015686 0.000000
0.592157 0.000000 0.000000
0.772549 0.000000 0.000000
0.905882 0.000000 0.000000
1.000000 0.066667 0.000000
1.000000 0.192157 0.000000
0.000000 0.043137 0.003922
0.039216 0.054902 0.000000
0.211765 0.101961 0.000000
0.403922 0.113725 0.000000
0.607843 0.086275 0.000000
0.784314 0.062745 0.000000
0.898039 0.094118 0.000000
1.000000 0.149020 0.000000
1.000000 0.231373 0.000000
0.000000 0.184314 0.007843
0.000000 0.192157 0.011765
0.145098 0.219608 0.000000
0.407843 0.274510 0.000000
0.639216 0.239216 0.000000
0.784314 0.235294 0.000000
0.898039 0.235294 0.000000
0.996078 0.266667 0.000000
1.000000 0.301961 0.000000
0.000000 0.364706 0.062745
0.000000 0.388235 0.086275
0.000000 0.384314 0.062745
0.305882 0.423529 0.000000
0.603922 0.447059 0.000000
0.780392 0.411765 0.000000
0.901961 0.392157 0.000000
0.992157 0.388235 0.000000
1.000000 0.423529 0.000000
0.000000 0.529412 0.156863
0.000000 0.525490 0.160784
0.000000 0.521569 0.172549
0.196078 0.541176 0.145098
0.474510 0.556863 0.090196
0.721569 0.600000 0.000000
0.862745 0.564706 0.000000
0.980392 0.525490 0.000000
1.000000 0.541176 0.000000
0.000000 0.627451 0.223529
0.000000 0.639216 0.235294
0.000000 0.643137 0.247059
0.101961 0.650980 0.250980
0.392157 0.658824 0.219608
0.607843 0.674510 0.184314
0.827451 0.717647 0.113725
0.937255 0.701961 0.000000
1.000000 0.682353 0.000000
0.000000 0.749020 0.317647
0.000000 0.752941 0.325490
0.000000 0.749020 0.329412
0.168627 0.749020 0.341176
0.380392 0.760784 0.333333
0.556863 0.772549 0.317647
0.721569 0.784314 0.290196
0.894118 0.815686 0.278431
1.000000 0.815686 0.207843
0.137255 0.858824 0.454902
0.192157 0.854902 0.458824
0.262745 0.854902 0.462745
0.360784 0.854902 0.478431
0.462745 0.854902 0.482353
0.588235 0.866667 0.478431
0.709804 0.874510 0.470588
0.831373 0.882353 0.458824
0.956863 0.901961 0.458824
0.541176 0.952941 0.666667
0.552941 0.949020 0.670588
0.572549 0.952941 0.678431
0.611765 0.949020 0.686275
0.650980 0.949020 0.701961
0.705882 0.952941 0.698039
0.772549 0.964706 0.698039
0.850980 0.972549 0.694118
0.933333 0.980392 0.694118
0.000000 0.000000 0.050980
0.058824 0.000000 0.054902
0.184314 0.000000 0.062745
0.388235 0.000000 0.054902
0.600000 0.000000 0.047059
0.764706 0.000000 0.019608
0.886275 0.000000 0.003922
0.996078 0.082353 0.000000
1.000000 0.192157 0.000000
0.000000 0.066667 0.070588
0.062745 0.078431 0.082353
0.215686 0.082353 0.066667
0.407843 0.094118 0.058824
0.603922 0.062745 0.035294
0.768627 0.054902 0.007843
0.894118 0.094118 0.000000
0.992157 0.156863 0.000000
1.000000 0.235294 0.000000
0.000000 0.211765 0.117647
0.000000 0.215686 0.105882
0.184314 0.235294 0.090196
0.427451 0.270588 0.035294
0.635294 0.250980 0.000000
0.772549 0.231373 0.000000
0.894118 0.239216 0.000000
0.988235 0.262745 0.000000
1.000000 0.305882 0.000000
0.000000 0.384314 0.156863
0.000000 0.392157 0.164706
0.000000 0.403922 0.172549
0.341176 0.423529 0.141176
0.611765 0.443137 0.023529
0.780392 0.403922 0.000000
0.898039 0.384314 0.000000
0.992157 0.392157 0.000000
1.000000 0.423529 0.000000
0.000000 0.517647 0.203922
0.000000 0.533333 0.215686
0.000000 0.533333 0.231373
0.243137 0.541176 0.215686
0.494118 0.560784 0.180392
0.725490 0.588235 0.101961
0.866667 0.564706 0.000000
0.980392 0.537255 0.000000
1.000000 0.529412 0.000000
0.000000 0.639216 0.270588
0.000000 0.643137 0.278431
0.000000 0.643137 0.286275
0.184314 0.647059 0.286275
0.419608 0.662745 0.270588
0.619608 0.682353 0.243137
0.823529 0.717647 0.196078
0.937255 0.705882 0.070588
1.000000 0.682353 0.000000
0.000000 0.752941 0.341176
0.000000 0.752941 0.352941
0.000000 0.752941 0.360784
0.215686 0.752941 0.372549
0.396078 0.760784 0.360784
0.584314 0.784314 0.364706
0.729412 0.784314 0.329412
0.894118 0.815686 0.313725
0.996078 0.815686 0.250980
0.188235 0.854902 0.470588
0.243137 0.862745 0.478431
0.301961 0.858824 0.486275
0.384314 0.854902 0.494118
0.478431 0.858824 0.501961
0.592157 0.862745 0.494118
0.713725 0.874510 0.490196
0.835294 0.882353 0.482353
0.956863 0.901961 0.482353
0.549020 0.952941 0.674510
0.560784 0.952941 0.682353
0.584314 0.952941 0.686275
0.615686 0.952941 0.694118
0.658824 0.952941 0.709804
0.709804 0.956863 0.709804
0.780392 0.964706 0.705882
0.850980 0.972549 0.705882
0.933333 0.980392 0.701961
0.000000 0.000000 0.211765
0.070588 0.000000 0.215686
0.215686 0.000000 0.231373
0.364706 0.000000 0.215686
0.584314 0.000000 0.196078
0.764706 0.000000 0.188235
0.878431 0.109804 0.219608
0.984314 0.176471 0.219608
1.000000 0.247059 0.200000
0.000000 0.098039 0.223529
0.023529 0.090196 0.227451
0.235294 0.090196 0.235294
0.388235 0.094118 0.219608
0.611765 0.000000 0.207843
0.760784 0.105882 0.223529
0.878431 0.176471 0.227451
0.984314 0.219608 0.203922
1.000000 0.282353 0.200000
0.000000 0.231373 0.235294
0.000000 0.243137 0.239216
0.235294 0.262745 0.254902
0.447059 0.282353 0.262745
0.635294 0.266667 0.239216
0.772549 0.274510 0.223529
0.886275 0.286275 0.219608
0.992157 0.313725 0.196078
1.000000 0.360784 0.200000
0.000000 0.411765 0.282353
0.109804 0.419608 0.301961
0.207843 0.419608 0.294118
0.392157 0.447059 0.290196
0.631373 0.443137 0.243137
0.784314 0.411765 0.196078
0.886275 0.403922 0.196078
0.984314 0.419608 0.184314
1.000000 0.447059 0.176471
0.023529 0.537255 0.337255
0.074510 0.552941 0.337255
0.160784 0.545098 0.325490
0.329412 0.552941 0.325490
0.529412 0.568627 0.309804
0.741176 0.592157 0.258824
0.866667 0.556863 0.188235
0.976471 0.533333 0.129412
1.000000 0.541176 0.113725
0.000000 0.647059 0.368627
0.000000 0.658824 0.368627
0.137255 0.654902 0.360784
0.301961 0.654902 0.372549
0.462745 0.666667 0.364706
0.639216 0.686275 0.345098
0.823529 0.717647 0.313725
0.937255 0.701961 0.239216
1.000000 0.690196 0.145098
0.000000 0.756863 0.415686
0.101961 0.760784 0.419608
0.211765 0.768627 0.423529
0.317647 0.756863 0.431373
0.443137 0.760784 0.427451
0.592157 0.776471 0.419608
0.741176 0.788235 0.403922
0.898039 0.815686 0.400000
0.996078 0.811765 0.337255
0.294118 0.858824 0.517647
0.313725 0.858824 0.517647
0.364706 0.862745 0.525490
0.431373 0.858824 0.533333
0.509804 0.854902 0.545098
0.611765 0.866667 0.545098
0.729412 0.870588 0.537255
0.839216 0.882353 0.529412
0.960784 0.901961 0.537255
0.564706 0.949020 0.694118
0.576471 0.952941 0.698039
0.592157 0.952941 0.701961
0.623529 0.949020 0.709804
0.666667 0.949020 0.721569
0.717647 0.952941 0.725490
0.780392 0.960784 0.725490
0.850980 0.968627 0.721569
0.933333 0.980392 0.721569
0.000000 0.007843 0.372549
0.000000 0.003922 0.376471
0.227451 0.003922 0.396078
0.419608 0.000000 0.403922
0.568627 0.000000 0.372549
0.729412 0.000000 0.352941
0.870588 0.000000 0.329412
0.980392 0.000000 0.313725
1.000000 0.282353 0.356863
0.000000 0.094118 0.384314
0.000000 0.105882 0.388235
0.235294 0.117647 0.407843
0.431373 0.129412 0.419608
0.584314 0.117647 0.384314
0.737255 0.098039 0.360784
0.878431 0.066667 0.337255
0.980392 0.192157 0.337255
1.000000 0.345098 0.380392
0.000000 0.243137 0.368627
0.000000 0.258824 0.400000
0.239216 0.278431 0.423529
0.470588 0.294118 0.435294
0.607843 0.286275 0.407843
0.756863 0.278431 0.388235
0.878431 0.290196 0.368627
0.968627 0.364706 0.380392
1.000000 0.392157 0.368627
0.000000 0.411765 0.396078
0.000000 0.431373 0.415686
0.282353 0.454902 0.431373
0.478431 0.462745 0.450980
0.635294 0.450980 0.431373
0.760784 0.443137 0.407843
0.870588 0.447059 0.400000
0.964706 0.450980 0.372549
1.000000 0.482353 0.368627
0.105882 0.549020 0.419608
0.231373 0.568627 0.443137
0.364706 0.568627 0.458824
0.447059 0.568627 0.454902
0.576471 0.580392 0.450980
0.745098 0.588235 0.411765
0.874510 0.556863 0.368627
0.964706 0.556863 0.352941
1.000000 0.564706 0.337255
0.313725 0.658824 0.478431
0.368627 0.670588 0.498039
0.388235 0.670588 0.490196
0.423529 0.666667 0.474510
0.533333 0.674510 0.482353
0.666667 0.694118 0.466667
0.827451 0.717647 0.443137
0.941176 0.698039 0.380392
1.000000 0.674510 0.317647
0.345098 0.764706 0.521569
0.368627 0.768627 0.529412
0.376471 0.768627 0.513725
0.415686 0.768627 0.509804
0.501961 0.760784 0.521569
0.623529 0.776471 0.517647
0.756863 0.800000 0.517647
0.901961 0.819608 0.498039
1.000000 0.811765 0.443137
0.427451 0.858824 0.592157
0.439216 0.858824 0.596078
0.450980 0.858824 0.592157
0.490196 0.862745 0.592157
0.552941 0.854902 0.603922
0.639216 0.866667 0.611765
0.737255 0.870588 0.603922
0.843137 0.882353 0.603922
0.964706 0.909804 0.615686
0.600000 0.949020 0.729412
0.607843 0.952941 0.733333
0.615686 0.952941 0.729412
0.643137 0.952941 0.733333
0.682353 0.952941 0.745098
0.729412 0.952941 0.752941
0.788235 0.964706 0.752941
0.858824 0.972549 0.752941
0.937255 0.980392 0.749020
0.000000 0.043137 0.521569
0.000000 0.047059 0.525490
0.176471 0.054902 0.537255
0.423529 0.070588 0.556863
0.623529 0.074510 0.568627
0.721569 0.078431 0.525490
0.835294 0.137255 0.498039
0.956863 0.164706 0.486275
1.000000 0.223529 0.470588
0.000000 0.129412 0.525490
0.000000 0.133333 0.529412
0.188235 0.145098 0.549020
0.450980 0.172549 0.564706
0.627451 0.188235 0.572549
0.729412 0.180392 0.525490
0.839216 0.207843 0.498039
0.956863 0.223529 0.490196
1.000000 0.270588 0.474510
0.000000 0.266667 0.521569
0.000000 0.270588 0.537255
0.227451 0.290196 0.552941
0.450980 0.305882 0.568627
0.635294 0.325490 0.584314
0.737255 0.317647 0.533333
0.847059 0.321569 0.513725
0.960784 0.317647 0.494118
1.000000 0.337255 0.478431
0.000000 0.400000 0.513725
0.000000 0.423529 0.529412
0.219608 0.423529 0.541176
0.450980 0.443137 0.568627
0.639216 0.474510 0.588235
0.733333 0.458824 0.560784
0.858824 0.447059 0.533333
0.956863 0.443137 0.505882
1.000000 0.517647 0.529412
0.000000 0.549020 0.529412
0.145098 0.568627 0.549020
0.317647 0.576471 0.552941
0.474510 0.580392 0.568627
0.631373 0.600000 0.592157
0.749020 0.596078 0.572549
0.850980 0.588235 0.560784
0.945098 0.584314 0.529412
1.000000 0.592157 0.513725
0.282353 0.674510 0.556863
0.333333 0.682353 0.572549
0.423529 0.686275 0.580392
0.529412 0.690196 0.596078
0.592157 0.694118 0.596078
0.701961 0.701961 0.600000
0.835294 0.713725 0.564706
0.945098 0.682353 0.509804
1.000000 0.690196 0.509804
0.411765 0.772549 0.607843
0.443137 0.776471 0.615686
0.494118 0.772549 0.623529
0.549020 0.776471 0.627451
0.580392 0.776471 0.615686
0.654902 0.780392 0.615686
0.780392 0.796078 0.615686
0.901961 0.819608 0.603922
1.000000 0.807843 0.552941
0.545098 0.866667 0.690196
0.552941 0.862745 0.686275
0.556863 0.862745 0.682353
0.572549 0.862745 0.670588
0.603922 0.862745 0.670588
0.666667 0.862745 0.678431
0.752941 0.874510 0.682353
0.850980 0.882353 0.682353
0.968627 0.913725 0.694118
0.647059 0.949020 0.776471
0.650980 0.952941 0.776471
0.658824 0.952941 0.772549
0.670588 0.952941 0.768627
0.694118 0.952941 0.772549
0.741176 0.956863 0.784314
0.796078 0.960784 0.784314
0.862745 0.972549 0.788235
0.941176 0.980392 0.784314
0.000000 0.098039 0.654902
0.000000 0.105882 0.666667
0.160784 0.113725 0.666667
0.407843 0.137255 0.686275
0.619608 0.176471 0.701961
0.772549 0.196078 0.701961
0.839216 0.200000 0.654902
0.933333 0.254902 0.631373
1.000000 0.333333 0.631373
0.000000 0.168627 0.658824
0.000000 0.172549 0.670588
0.176471 0.184314 0.674510
0.431373 0.203922 0.686275
0.623529 0.239216 0.701961
0.764706 0.262745 0.701961
0.843137 0.262745 0.658824
0.933333 0.301961 0.635294
1.000000 0.364706 0.635294
0.000000 0.266667 0.650980
0.000000 0.282353 0.666667
0.223529 0.301961 0.678431
0.435294 0.321569 0.686275
0.627451 0.349020 0.701961
0.764706 0.380392 0.709804
0.843137 0.372549 0.666667
0.933333 0.384314 0.639216
1.000000 0.435294 0.643137
0.000000 0.400000 0.639216
0.000000 0.415686 0.647059
0.247059 0.435294 0.662745
0.439216 0.439216 0.678431
0.623529 0.470588 0.698039
0.764706 0.498039 0.717647
0.831373 0.482353 0.674510
0.921569 0.490196 0.658824
1.000000 0.505882 0.647059
0.000000 0.521569 0.627451
0.000000 0.533333 0.639216
0.223529 0.541176 0.647059
0.400000 0.552941 0.658824
0.596078 0.572549 0.690196
0.745098 0.611765 0.709804
0.827451 0.600000 0.682353
0.925490 0.596078 0.662745
1.000000 0.584314 0.639216
0.168627 0.666667 0.650980
0.243137 0.674510 0.658824
0.349020 0.678431 0.662745
0.466667 0.686275 0.678431
0.619608 0.705882 0.694118
0.741176 0.729412 0.721569
0.835294 0.713725 0.701961
0.921569 0.713725 0.682353
1.000000 0.713725 0.670588
0.368627 0.780392 0.674510
0.407843 0.780392 0.678431
0.466667 0.784314 0.686275
0.549020 0.784314 0.694118
0.647059 0.788235 0.713725
0.713725 0.792157 0.721569
0.803922 0.807843 0.733333
0.905882 0.823529 0.713725
1.000000 0.792157 0.662745
0.521569 0.862745 0.729412
0.541176 0.866667 0.733333
0.576471 0.866667 0.745098
0.631373 0.866667 0.749020
0.686275 0.866667 0.756863
0.713725 0.866667 0.749020
0.776471 0.874510 0.756863
0.866667 0.890196 0.764706
0.968627 0.909804 0.756863
0.674510 0.956863 0.819608
0.682353 0.952941 0.819608
0.698039 0.956863 0.827451
0.721569 0.956863 0.827451
0.729412 0.956863 0.815686
0.756863 0.960784 0.815686
0.807843 0.964706 0.827451
0.870588 0.972549 0.827451
0.949020 0.984314 0.827451
0.000000 0.172549 0.788235
0.000000 0.176471 0.788235
0.196078 0.188235 0.792157
0.427451 0.203922 0.800000
0.607843 0.235294 0.803922
0.764706 0.301961 0.819608
0.874510 0.321569 0.811765
0.933333 0.317647 0.772549
1.000000 0.396078 0.764706
0.000000 0.219608 0.780392
0.000000 0.231373 0.792157
0.215686 0.231373 0.792157
0.439216 0.254902 0.796078
0.607843 0.286275 0.807843
0.768627 0.345098 0.819608
0.874510 0.364706 0.815686
0.929412 0.356863 0.784314
1.000000 0.423529 0.764706
0.000000 0.298039 0.776471
0.000000 0.309804 0.784314
0.239216 0.321569 0.792157
0.447059 0.337255 0.792157
0.615686 0.376471 0.803922
0.764706 0.427451 0.815686
0.862745 0.439216 0.811765
0.921569 0.427451 0.776471
1.000000 0.470588 0.764706
0.000000 0.423529 0.760784
0.101961 0.439216 0.768627
0.231373 0.415686 0.776471
0.431373 0.435294 0.784314
0.603922 0.474510 0.800000
0.752941 0.517647 0.811765
0.858824 0.549020 0.815686
0.917647 0.529412 0.784314
0.992157 0.564706 0.776471
0.000000 0.513725 0.725490
0.000000 0.525490 0.745098
0.184314 0.529412 0.749020
0.407843 0.545098 0.764706
0.576471 0.556863 0.784314
0.737255 0.611765 0.803922
0.843137 0.639216 0.811765
0.901961 0.627451 0.788235
0.980392 0.639216 0.776471
0.000000 0.643137 0.737255
0.000000 0.647059 0.745098
0.223529 0.650980 0.749020
0.368627 0.650980 0.752941
0.509804 0.650980 0.764706
0.709804 0.694118 0.796078
0.835294 0.737255 0.815686
0.894118 0.721569 0.792157
0.980392 0.721569 0.792157
0.231373 0.768627 0.756863
0.286275 0.772549 0.760784
0.368627 0.776471 0.764706
0.474510 0.776471 0.768627
0.588235 0.780392 0.780392
0.721569 0.796078 0.796078
0.831373 0.827451 0.827451
0.901961 0.811765 0.803922
0.984314 0.811765 0.796078
0.482353 0.870588 0.788235
0.505882 0.870588 0.788235
0.545098 0.874510 0.796078
0.607843 0.874510 0.803922
0.678431 0.874510 0.807843
0.756863 0.874510 0.823529
0.811765 0.878431 0.827451
0.882353 0.894118 0.835294
0.980392 0.905882 0.819608
0.643137 0.960784 0.854902
0.654902 0.960784 0.854902
0.674510 0.956863 0.854902
0.709804 0.960784 0.858824
0.749020 0.960784 0.862745
0.800000 0.964706 0.870588
0.819608 0.968627 0.862745
0.878431 0.976471 0.870588
0.960784 0.988235 0.874510
0.113725 0.274510 0.890196
0.203922 0.278431 0.890196
0.337255 0.286275 0.890196
0.494118 0.301961 0.890196
0.627451 0.329412 0.890196
0.760784 0.376471 0.894118
0.874510 0.447059 0.898039
0.952941 0.466667 0.894118
1.000000 0.466667 0.882353
0.121569 0.298039 0.882353
0.231373 0.309804 0.890196
0.349020 0.317647 0.890196
0.490196 0.333333 0.890196
0.631373 0.356863 0.890196
0.760784 0.407843 0.894118
0.874510 0.474510 0.898039
0.952941 0.490196 0.898039
1.000000 0.494118 0.878431
0.133333 0.360784 0.878431
0.243137 0.376471 0.886275
0.360784 0.380392 0.886275
0.501961 0.396078 0.886275
0.631373 0.419608 0.886275
0.764706 0.462745 0.890196
0.866667 0.521569 0.894118
0.941176 0.541176 0.894118
0.996078 0.525490 0.870588
0.109804 0.447059 0.874510
0.203922 0.458824 0.878431
0.329412 0.462745 0.878431
0.482353 0.474510 0.882353
0.623529 0.505882 0.886275
0.752941 0.545098 0.890196
0.858824 0.600000 0.890196
0.933333 0.615686 0.894118
0.984314 0.611765 0.874510
0.000000 0.549020 0.858824
0.152941 0.556863 0.862745
0.305882 0.564706 0.862745
0.427451 0.549020 0.870588
0.588235 0.572549 0.874510
0.733333 0.611765 0.882353
0.847059 0.674510 0.890196
0.925490 0.686275 0.890196
0.972549 0.674510 0.870588
0.000000 0.643137 0.839216
0.000000 0.647059 0.843137
0.000000 0.643137 0.843137
0.313725 0.639216 0.847059
0.525490 0.654902 0.858824
0.690196 0.686275 0.874510
0.827451 0.733333 0.886275
0.913725 0.764706 0.894118
0.968627 0.756863 0.878431
0.000000 0.760784 0.843137
0.082353 0.764706 0.847059
0.250980 0.772549 0.850980
0.368627 0.760784 0.850980
0.490196 0.760784 0.850980
0.615686 0.752941 0.850980
0.796078 0.788235 0.874510
0.905882 0.831373 0.898039
0.968627 0.823529 0.886275
0.372549 0.870588 0.862745
0.400000 0.870588 0.862745
0.447059 0.870588 0.862745
0.525490 0.870588 0.862745
0.615686 0.870588 0.866667
0.709804 0.874510 0.874510
0.811765 0.882353 0.886275
0.909804 0.905882 0.909804
0.988235 0.905882 0.898039
0.607843 0.968627 0.898039
0.611765 0.968627 0.898039
0.639216 0.968627 0.898039
0.678431 0.968627 0.901961
0.725490 0.968627 0.905882
0.780392 0.972549 0.913725
0.847059 0.976471 0.921569
0.898039 0.976471 0.921569
0.976471 0.992157 0.929412
0.474510 0.454902 0.980392
0.498039 0.458824 0.980392
0.549020 0.462745 0.980392
0.623529 0.474510 0.976471
0.713725 0.498039 0.976471
0.807843 0.533333 0.976471
0.886275 0.580392 0.972549
0.960784 0.639216 0.972549
1.000000 0.650980 0.972549
0.470588 0.466667 0.976471
0.501961 0.478431 0.980392
0.549020 0.482353 0.980392
0.623529 0.494118 0.976471
0.713725 0.517647 0.976471
0.803922 0.549020 0.972549
0.886275 0.596078 0.972549
0.956863 0.647059 0.968627
1.000000 0.658824 0.972549
0.466667 0.505882 0.976471
0.498039 0.517647 0.980392
0.552941 0.529412 0.980392
0.623529 0.533333 0.976471
0.709804 0.552941 0.972549
0.807843 0.592157 0.972549
0.886275 0.631373 0.972549
0.956863 0.678431 0.968627
1.000000 0.690196 0.972549
0.447059 0.560784 0.972549
0.482353 0.572549 0.976471
0.537255 0.580392 0.976471
0.611765 0.592157 0.976471
0.709804 0.607843 0.972549
0.796078 0.635294 0.972549
0.874510 0.670588 0.968627
0.949020 0.713725 0.972549
1.000000 0.725490 0.972549
0.443137 0.650980 0.968627
0.470588 0.654902 0.972549
0.501961 0.643137 0.968627
0.572549 0.643137 0.972549
0.678431 0.658824 0.972549
0.780392 0.686275 0.968627
0.866667 0.717647 0.968627
0.945098 0.760784 0.972549
1.000000 0.768627 0.976471
0.278431 0.725490 0.964706
0.333333 0.729412 0.964706
0.423529 0.725490 0.968627
0.521569 0.721569 0.964706
0.631373 0.721569 0.972549
0.745098 0.733333 0.972549
0.850980 0.768627 0.972549
0.933333 0.800000 0.972549
1.000000 0.815686 0.976471
0.278431 0.811765 0.960784
0.305882 0.815686 0.964706
0.352941 0.811765 0.964706
0.423529 0.807843 0.964706
0.525490 0.800000 0.968627
0.682353 0.807843 0.972549
0.815686 0.811765 0.976471
0.925490 0.850980 0.980392
0.996078 0.862745 0.980392
0.454902 0.909804 0.972549
0.466667 0.913725 0.972549
0.494118 0.913725 0.976471
0.545098 0.913725 0.972549
0.600000 0.901961 0.972549
0.674510 0.901961 0.980392
0.749020 0.890196 0.976471
0.894118 0.894118 0.988235
0.996078 0.925490 0.988235
0.572549 0.992157 0.980392
0.580392 0.992157 0.980392
0.600000 0.992157 0.980392
0.635294 0.992157 0.980392
0.678431 0.992157 0.984314
0.733333 0.992157 0.984314
0.803922 0.992157 0.988235
0.894118 0.996078 0.992157
1.000000 1.000000 1.000000
