luts/Ultra Soft Skin 400.CUBE
# kravix mobile - LUTs Pack
LUT_3D_SIZE 5
0.000000 0.000000 0.000000
0.203922 0.023529 0.000000
0.592157 0.000000 0.000000
0.905882 0.000000 0.000000
1.000000 0.192157 0.000000
0.000000 0.184314 0.007843
0.145098 0.219608 0.000000
0.639216 0.239216 0.000000
0.898039 0.235294 0.000000
1.000000 0.301961 0.000000
0.000000 0.529412 0.156863
0.000000 0.521569 0.172549
0.474510 0.556863 0.090196
0.862745 0.564706 0.000000
1.000000 0.541176 0.000000
0.000000 0.749020 0.317647
0.000000 0.749020 0.329412
0.380392 0.760784 0.333333
0.721569 0.784314 0.290196
1.000000 0.815686 0.207843
0.541176 0.952941 0.666667
0.572549 0.952941 0.678431
0.650980 0.949020 0.701961
0.772549 0.964706 0.698039
0.933333 0.980392 0.694118
0.000000 0.000000 0.211765
0.215686 0.000000 0.231373
0.584314 0.000000 0.196078
0.878431 0.109804 0.219608
1.000000 0.247059 0.200000
0.000000 0.231373 0.235294
0.235294 0.262745 0.254902
0.635294 0.266667 0.239216
0.886275 0.286275 0.219608
1.000000 0.360784 0.200000
0.023529 0.537255 0.337255
0.160784 0.545098 0.325490
0.529412 0.568627 0.309804
0.866667 0.556863 0.188235
1.000000 0.541176 0.113725
0.000000 0.756863 0.415686
0.211765 0.768627 0.423529
0.443137 0.760784 0.427451
0.741176 0.788235 0.403922
0.996078 0.811765 0.337255
0.564706 0.949020 0.694118
0.592157 0.952941 0.701961
0.666667 0.949020 0.721569
0.780392 0.960784 0.725490
0.933333 0.980392 0.721569
0.000000 0.043137 0.521569
0.176471 0.054902 0.537255
0.623529 0.074510 0.568627
0.835294 0.137255 0.498039
1.000000 0.223529 0.470588
0.000000 0.266667 0.521569
0.227451 0.290196 0.552941
0.635294 0.325490 0.584314
0.847059 0.321569 0.513725
1.000000 0.337255 0.478431
0.000000 0.549020 0.529412
0.317647 0.576471 0.552941
0.631373 0.600000 0.592157
0.850980 0.588235 0.560784
1.000000 0.592157 0.513725
0.411765 0.772549 0.607843
0.494118 0.772549 0.623529
0.580392 0.776471 0.615686
0.780392 0.796078 0.615686
1.000000 0.807843 0.552941
0.647059 0.949020 0.776471
0.658824 0.952941 0.772549
0.694118 0.952941 0.772549
0.796078 0.960784 0.784314
0.941176 0.980392 0.784314
0.000000 0.172549 0.788235
0.196078 0.188235 0.792157
0.607843 0.235294 0.803922
0.874510 0.321569 0.811765
1.000000 0.396078 0.764706
0.000000 0.298039 0.776471
0.239216 0.321569 0.792157
0.615686 0.376471 0.803922
0.862745 0.439216 0.811765
1.000000 0.470588 0.764706
0.000000 0.513725 0.725490
0.184314 0.529412 0.749020
0.576471 0.556863 0.784314
0.843137 0.639216 0.811765
0.980392 0.639216 0.776471
0.231373 0.768627 0.756863
0.368627 0.776471 0.764706
0.588235 0.780392 0.780392
0.831373 0.827451 0.827451
0.984314 0.811765 0.796078
0.643137 0.960784 0.854902
0.674510 0.956863 0.854902
0.749020 0.960784 0.862745
0.819608 0.968627 0.862745
0.960784 0.988235 0.874510
0.474510 0.454902 0.980392
0.549020 0.462745 0.980392
0.713725 0.498039 0.976471
0.886275 0.580392 0.972549
1.000000 0.650980 0.972549
0.466667 0.505882 0.976471
0.552941 0.529412 0.980392
0.709804 0.552941 0.972549
0.886275 0.631373 0.972549
1.000000 0.690196 0.972549
0.443137 0.650980 0.968627
0.501961 0.643137 0.968627
0.678431 0.658824 0.972549
0.866667 0.717647 0.968627
1.000000 0.768627 0.976471
0.278431 0.811765 0.960784
0.352941 0.811765 0.964706
0.525490 0.800000 0.968627
0.815686 0.811765 0.976471
0.996078 0.862745 0.980392
0.572549 0.992157 0.980392
0.600000 0.992157 0.980392
0.678431 0.992157 0.984314
0.803922 0.992157 0.988235
1.000000 1.000000 1.000000
