luts/Vintage Ochre.CUBE
# kravix mobile - LUTs Pack
LUT_3D_SIZE 17
0.000000 0.000000 0.000000
0.029083 0.000000 0.000061
0.072479 0.000000 0.000000
0.120361 0.000000 0.000000
0.171844 0.000000 0.000000
0.228668 0.000000 0.000000
0.293182 0.000000 0.000000
0.368164 0.000000 0.000000
0.452576 0.000000 0.000000
0.543579 0.000000 0.000000
0.637177 0.000000 0.000000
0.720795 0.000000 0.000000
0.791077 0.000000 0.000000
0.854431 0.000000 0.007263
0.919495 0.000000 0.024353
0.987183 0.000000 0.024445
1.000000 0.000000 0.022095
0.000031 0.027618 0.000000
0.033020 0.024506 0.000000
0.075836 0.021912 0.000000
0.122833 0.019073 0.000000
0.174286 0.013519 0.000000
0.231140 0.003540 0.000000
0.295868 0.000031 0.000000
0.371094 0.000000 0.000000
0.455566 0.000000 0.000000
0.546448 0.000000 0.000000
0.639587 0.000000 0.000000
0.722626 0.000000 0.000000
0.792542 0.000000 0.000000
0.855682 0.000000 0.006439
0.920624 0.000000 0.023102
0.987915 0.000000 0.022797
1.000000 0.000000 0.019043
0.000000 0.072662 0.000000
0.033020 0.069366 0.000000
0.079773 0.066223 0.000000
0.128174 0.062866 0.000000
0.179413 0.058411 0.000000
0.236481 0.050446 0.000000
0.301147 0.033722 0.000000
0.376282 0.005432 0.000000
0.460632 0.000000 0.000000
0.551178 0.000000 0.000000
0.643677 0.000000 0.000000
0.725647 0.000000 0.000000
0.794891 0.000000 0.000000
0.857758 0.000000 0.004425
0.922424 0.000000 0.020081
0.989105 0.000000 0.018250
1.000000 0.000000 0.013275
0.000000 0.124512 0.000000
0.023529 0.122589 0.000000
0.077911 0.119110 0.000000
0.131256 0.116516 0.000000
0.185730 0.112976 0.000000
0.244263 0.108124 0.000000
0.310516 0.099457 0.000000
0.386078 0.082581 0.000000
0.469299 0.047821 0.000000
0.558441 0.004486 0.000000
0.649628 0.000000 0.000000
0.730103 0.000000 0.000000
0.798431 0.000000 0.000000
0.860809 0.000000 0.001099
0.925018 0.000000 0.013092
0.990662 0.000000 0.009338
1.000000 0.004944 0.003021
0.000000 0.184784 0.000000
0.001556 0.184052 0.000000
0.059998 0.181274 0.000000
0.125793 0.177887 0.000000
0.187042 0.175598 0.000000
0.250916 0.172058 0.000000
0.320984 0.166504 0.000000
0.398438 0.157440 0.000000
0.482208 0.143250 0.000000
0.570465 0.121307 0.000000
0.658722 0.087982 0.000000
0.736267 0.072876 0.000000
0.802856 0.078552 0.000000
0.864410 0.095428 0.000000
0.927887 0.116516 0.001434
0.992279 0.137695 0.000366
1.000000 0.169861 0.000000
0.000000 0.258514 0.000000
0.000000 0.258423 0.000000
0.005096 0.257690 0.000000
0.094971 0.254517 0.000000
0.174652 0.251495 0.000000
0.249023 0.249634 0.000000
0.326843 0.246521 0.000000
0.408661 0.241455 0.000000
0.494293 0.234589 0.000000
0.583130 0.225250 0.000000
0.670471 0.214874 0.000000
0.746582 0.210602 0.000000
0.812042 0.216858 0.000000
0.872498 0.230865 0.000000
0.934723 0.246155 0.000000
0.997711 0.260590 0.000000
1.000000 0.281189 0.000000
0.000000 0.350250 0.000000
0.000000 0.350494 0.000000
0.000000 0.350830 0.000000
0.005554 0.350525 0.000000
0.123688 0.346802 0.000000
0.228760 0.343262 0.000000
0.319885 0.340912 0.000000
0.410431 0.338562 0.000000
0.501099 0.334503 0.000000
0.592072 0.329651 0.000000
0.679840 0.324554 0.000000
0.755737 0.322815 0.000000
0.820984 0.327423 0.000000
0.881012 0.337494 0.000000
0.942047 0.349854 0.000000
0.999603 0.362915 0.000000
1.000000 0.380127 0.000000
0.000000 0.455902 0.000000
0.000000 0.456146 0.000000
0.000000 0.456573 0.000000
0.000000 0.457092 0.000000
0.006500 0.456299 0.000000
0.169830 0.451080 0.000000
0.294983 0.446716 0.000000
0.398804 0.443848 0.000000
0.497955 0.441956 0.000000
0.593933 0.438812 0.000000
0.684052 0.434967 0.000000
0.761414 0.432159 0.000000
0.827423 0.433624 0.000000
0.887421 0.439880 0.000000
0.947144 0.449554 0.000000
0.999756 0.460968 0.000000
1.000000 0.475525 0.000000
0.000000 0.568024 0.000000
0.000000 0.568207 0.000000
0.000000 0.568451 0.000000
0.000000 0.568787 0.000000
0.000000 0.569000 0.000000
0.019623 0.565735 0.000000
0.240845 0.559326 0.000000
0.373352 0.554321 0.000000
0.483673 0.550995 0.000000
0.586517 0.549133 0.000000
0.681366 0.545410 0.000000
0.761993 0.540192 0.000000
0.830139 0.537720 0.000000
0.890747 0.539856 0.000000
0.949371 0.546295 0.000000
0.999786 0.555756 0.000000
1.000000 0.567841 0.000000
0.000000 0.678802 0.000000
0.000000 0.678833 0.000000
0.000000 0.678864 0.000000
0.000000 0.678802 0.000000
0.000000 0.678589 0.000000
0.000000 0.677734 0.000000
0.123810 0.670532 0.000000
0.332977 0.663574 0.000000
0.462006 0.658081 0.000000
0.571899 0.654358 0.000000
0.672119 0.651611 0.000000
0.757568 0.644318 0.000000
0.828888 0.638031 0.000000
0.890747 0.635986 0.000000
0.948578 0.639008 0.000000
0.999695 0.646179 0.000000
1.000000 0.655945 0.000000
0.000000 0.773560 0.000000
0.000000 0.773499 0.000000
0.000000 0.773346 0.000000
0.000000 0.773010 0.000000
0.000000 0.772491 0.000000
0.000000 0.771637 0.000000
0.031525 0.766388 0.000000
0.292633 0.758423 0.000000
0.440369 0.751862 0.000000
0.555969 0.746887 0.000000
0.657501 0.743591 0.000000
0.749573 0.740601 0.000000
0.824463 0.731628 0.000000
0.888031 0.726013 0.000000
0.945312 0.725647 0.000000
0.998505 0.730255 0.000000
1.000000 0.737701 0.000000
0.000000 0.849030 0.000000
0.000000 0.848938 0.000000
0.000000 0.848694 0.000000
0.000000 0.848328 0.000000
0.000000 0.847717 0.000000
0.000000 0.846863 0.000000
0.024078 0.843048 0.000000
0.280334 0.835236 0.000000
0.433105 0.828644 0.000000
0.548676 0.823334 0.000000
0.648224 0.819427 0.000000
0.737915 0.816925 0.000000
0.819214 0.814850 0.000000
0.884186 0.806885 0.000000
0.940918 0.803619 0.000000
0.992188 0.805573 0.000000
1.000000 0.810577 0.000000
0.000000 0.911285 0.000000
0.000000 0.911194 0.000000
0.000000 0.910919 0.000000
0.000000 0.910492 0.000000
0.000000 0.909851 0.000000
0.000000 0.908966 0.000000
0.076050 0.904968 0.000000
0.307617 0.897705 0.000000
0.447296 0.891418 0.000000
0.556549 0.886078 0.000000
0.651031 0.881775 0.000000
0.735870 0.878632 0.000000
0.812927 0.876709 0.000000
0.881958 0.874969 0.000000
0.937653 0.869690 0.000000
0.987061 0.869080 0.000000
1.000000 0.871643 0.000000
0.000000 0.963959 0.000000
0.000000 0.963745 0.000000
0.000000 0.963379 0.000000
0.000000 0.962799 0.000000
0.000000 0.961945 0.000000
0.003510 0.960419 0.000000
0.177307 0.954681 0.000000
0.365295 0.948059 0.000000
0.483002 0.941986 0.000000
0.581207 0.936493 0.000000
0.668182 0.931763 0.000000
0.746765 0.927917 0.000000
0.818237 0.924988 0.000000
0.882568 0.923065 0.000000
0.938690 0.920746 0.000000
0.985962 0.918304 0.000000
1.000000 0.918640 0.000000
0.000000 0.999695 0.000000
0.000000 0.999695 0.000000
0.000000 0.999664 0.000000
0.000000 0.999603 0.000000
0.015350 0.999512 0.000000
0.149841 0.996918 0.000000
0.328857 0.991394 0.000000
0.441711 0.985809 0.000000
0.536743 0.979889 0.000000
0.621643 0.974304 0.000000
0.699066 0.969208 0.000000
0.770081 0.964722 0.000000
0.834747 0.961060 0.000000
0.893036 0.958191 0.000000
0.945190 0.956146 0.000000
0.990143 0.953644 0.000000
1.000000 0.952576 0.000000
0.007690 1.000000 0.000000
0.010376 1.000000 0.000000
0.014038 1.000000 0.000000
0.129028 1.000000 0.000000
0.261169 1.000000 0.000000
0.358917 1.000000 0.000000
0.445526 1.000000 0.000000
0.525848 1.000000 0.000000
0.601349 1.000000 0.000000
0.672577 0.999420 0.000000
0.739410 0.995392 0.000000
0.801636 0.990997 0.000000
0.858612 0.987000 0.000000
0.910400 0.983704 0.000000
0.957489 0.981049 0.000000
0.999146 0.978760 0.000000
1.000000 0.976929 0.000000
0.296844 1.000000 0.000000
0.314728 1.000000 0.000000
0.343475 1.000000 0.000000
0.384552 1.000000 0.000000
0.434357 1.000000 0.000000
0.489838 1.000000 0.000000
0.548523 1.000000 0.000000
0.608521 1.000000 0.000000
0.668396 1.000000 0.000000
0.726929 1.000000 0.000000
0.783203 1.000000 0.000000
0.836243 1.000000 0.000000
0.885559 1.000000 0.000000
0.931122 1.000000 0.000000
0.973297 0.999878 0.000000
1.000000 0.997864 0.000000
1.000000 0.995758 0.000000
0.000000 0.000763 0.031097
0.031067 0.000000 0.026825
0.074951 0.000000 0.024902
0.121979 0.000000 0.023834
0.173309 0.000000 0.023346
0.230316 0.000000 0.022217
0.294708 0.000000 0.020416
0.369873 0.000000 0.017822
0.454163 0.000000 0.013641
0.545074 0.000000 0.007690
0.638397 0.000000 0.001282
0.721771 0.000000 0.002716
0.792023 0.000000 0.017548
0.855408 0.000000 0.042206
0.920532 0.000000 0.058807
0.988007 0.000000 0.060272
1.000000 0.000000 0.059052
0.000000 0.024506 0.026489
0.031921 0.022644 0.024902
0.075470 0.021454 0.024475
0.123138 0.018738 0.024200
0.174927 0.012878 0.023010
0.232361 0.002502 0.021820
0.297455 0.000000 0.019745
0.372772 0.000000 0.016785
0.457092 0.000000 0.012268
0.547913 0.000000 0.006287
0.640808 0.000000 0.000366
0.723633 0.000000 0.001526
0.793457 0.000000 0.016510
0.856628 0.000000 0.041718
0.921600 0.000000 0.058105
0.988770 0.000000 0.058777
1.000000 0.000000 0.056885
0.000000 0.069885 0.021423
0.031921 0.068024 0.020691
0.079956 0.064728 0.021454
0.127441 0.062042 0.021820
0.179108 0.057831 0.021118
0.236481 0.050049 0.020111
0.301788 0.033020 0.018097
0.377594 0.005035 0.014801
0.462128 0.000000 0.009644
0.552582 0.000000 0.002930
0.644867 0.000000 0.000153
0.726685 0.000000 0.000671
0.795837 0.000000 0.014221
0.858704 0.000000 0.039917
0.923431 0.000000 0.055847
0.989929 0.000000 0.055450
1.000000 0.000000 0.052826
0.000000 0.122437 0.012665
0.023102 0.121307 0.011505
0.078186 0.118103 0.013062
0.131622 0.115295 0.012878
0.185883 0.111969 0.013092
0.244476 0.107330 0.012695
0.310883 0.098969 0.010712
0.386810 0.081879 0.007324
0.470276 0.046783 0.002655
0.559753 0.004028 0.000275
0.650726 0.000000 0.000000
0.731049 0.000000 0.000061
0.799316 0.000000 0.007935
0.861694 0.000000 0.034058
0.925934 0.000000 0.050385
0.991455 0.000000 0.048981
1.000000 0.005402 0.043823
0.000000 0.183319 0.000824
0.001556 0.182892 0.000671
0.060577 0.180450 0.000793
0.126587 0.177094 0.001099
0.187805 0.174713 0.000977
0.251678 0.171356 0.000854
0.321777 0.165741 0.000610
0.399384 0.156830 0.000122
0.483368 0.142578 0.000031
0.571686 0.120392 0.000000
0.659790 0.086945 0.000000
0.737152 0.072784 0.000000
0.803680 0.079254 0.000824
0.865295 0.096313 0.021545
0.928802 0.117920 0.038574
0.993011 0.139130 0.034393
1.000000 0.171112 0.026886
0.000000 0.257385 0.000000
0.000000 0.257416 0.000000
0.005219 0.256714 0.000000
0.096344 0.253632 0.000000
0.175781 0.250793 0.000000
0.250183 0.248962 0.000000
0.328064 0.245880 0.000000
0.409851 0.240906 0.000000
0.495575 0.234009 0.000000
0.584259 0.224762 0.000000
0.671448 0.214447 0.000000
0.747406 0.210632 0.000000
0.812805 0.217316 0.000000
0.873322 0.231537 0.000702
0.935577 0.246857 0.005249
0.998291 0.261383 0.003418
1.000000 0.281982 0.000732
0.000000 0.349457 0.000000
0.000000 0.349670 0.000000
0.000000 0.349976 0.000000
0.006134 0.349640 0.000000
0.126007 0.346008 0.000000
0.230408 0.342621 0.000000
0.321259 0.340424 0.000000
0.411774 0.338043 0.000000
0.502258 0.334045 0.000000
0.593231 0.329163 0.000000
0.680725 0.324219 0.000000
0.756470 0.322784 0.000000
0.821686 0.327667 0.000000
0.881714 0.337921 0.000000
0.942749 0.350464 0.000000
0.999634 0.363434 0.000000
1.000000 0.380676 0.000000
0.000000 0.455170 0.000000
0.000000 0.455414 0.000000
0.000000 0.455841 0.000000
0.000000 0.456390 0.000000
0.007355 0.455475 0.000000
0.172760 0.450348 0.000000
0.296753 0.446136 0.000000
0.400299 0.443390 0.000000
0.499176 0.441498 0.000000
0.595001 0.438354 0.000000
0.684906 0.434601 0.000000
0.762024 0.432007 0.000000
0.828064 0.433746 0.000000
0.888000 0.440247 0.000000
0.947784 0.449982 0.000000
0.999786 0.461426 0.000000
1.000000 0.475983 0.000000
0.000000 0.567383 0.000000
0.000000 0.567535 0.000000
0.000000 0.567810 0.000000
0.000000 0.568085 0.000000
0.000000 0.568329 0.000000
0.021545 0.564941 0.000000
0.243561 0.558716 0.000000
0.375061 0.553802 0.000000
0.484985 0.550537 0.000000
0.587585 0.548706 0.000000
0.682159 0.545074 0.000000
0.762634 0.539978 0.000000
0.830688 0.537781 0.000000
0.891296 0.540070 0.000000
0.949890 0.546600 0.000000
0.999786 0.556091 0.000000
1.000000 0.568268 0.000000
0.000000 0.678192 0.000000
0.000000 0.678223 0.000000
0.000000 0.678223 0.000000
0.000000 0.678162 0.000000
0.000000 0.677979 0.000000
0.000000 0.677032 0.000000
0.128998 0.669861 0.000000
0.335114 0.662994 0.000000
0.463440 0.657623 0.000000
0.572968 0.653992 0.000000
0.672943 0.651184 0.000000
0.758209 0.644012 0.000000
0.829376 0.637939 0.000000
0.891205 0.636139 0.000000
0.949005 0.639252 0.000000
0.999695 0.646515 0.000000
1.000000 0.656219 0.000000
0.000000 0.773071 0.000000
0.000000 0.772949 0.000000
0.000000 0.772797 0.000000
0.000000 0.772461 0.000000
0.000000 0.771942 0.000000
0.000000 0.771118 0.000000
0.035431 0.765778 0.000000
0.295441 0.757904 0.000000
0.441803 0.751465 0.000000
0.557068 0.746521 0.000000
0.658325 0.743317 0.000000
0.750122 0.740326 0.000000
0.824921 0.731506 0.000000
0.888397 0.726074 0.000000
0.945618 0.725861 0.000000
0.998688 0.730530 0.000000
1.000000 0.737946 0.000000
0.000000 0.848663 0.000000
0.000000 0.848541 0.000000
0.000000 0.848328 0.000000
0.000000 0.847961 0.000000
0.000000 0.847351 0.000000
0.000000 0.846497 0.000000
0.025482 0.842621 0.000000
0.282928 0.834869 0.000000
0.434479 0.828369 0.000000
0.549713 0.823090 0.000000
0.649017 0.819244 0.000000
0.738434 0.816803 0.000000
0.819489 0.814728 0.000000
0.884460 0.806915 0.000000
0.941101 0.803772 0.000000
0.992371 0.805725 0.000000
1.000000 0.810760 0.000000
0.000000 0.911072 0.000000
0.000000 0.910919 0.000000
0.000000 0.910675 0.000000
0.000000 0.910248 0.000000
0.000000 0.909607 0.000000
0.000000 0.908691 0.000000
0.080597 0.904663 0.000000
0.309601 0.897461 0.000000
0.448517 0.891235 0.000000
0.557312 0.885956 0.000000
0.651642 0.881714 0.000000
0.736298 0.878601 0.000000
0.813293 0.876709 0.000000
0.882111 0.874969 0.000000
0.937775 0.869781 0.000000
0.987091 0.869232 0.000000
1.000000 0.871796 0.000000
0.000000 0.963745 0.000000
0.000000 0.963593 0.000000
0.000000 0.963196 0.000000
0.000000 0.962616 0.000000
0.000000 0.961761 0.000000
0.003693 0.960205 0.000000
0.182037 0.954468 0.000000
0.366608 0.947906 0.000000
0.483795 0.941895 0.000000
0.581818 0.936462 0.000000
0.668579 0.931763 0.000000
0.747101 0.927917 0.000000
0.818390 0.925049 0.000000
0.882660 0.923157 0.000000
0.938690 0.920868 0.000000
0.985870 0.918427 0.000000
1.000000 0.918762 0.000000
0.000000 0.999695 0.000000
0.000000 0.999695 0.000000
0.000000 0.999634 0.000000
0.000000 0.999573 0.000000
0.015717 0.999512 0.000000
0.151642 0.996765 0.000000
0.330017 0.991272 0.000000
0.442535 0.985718 0.000000
0.537262 0.979858 0.000000
0.622009 0.974274 0.000000
0.699341 0.969238 0.000000
0.770142 0.964783 0.000000
0.834778 0.961121 0.000000
0.892944 0.958282 0.000000
0.945038 0.956268 0.000000
0.989960 0.953766 0.000000
1.000000 0.952667 0.000000
0.007782 1.000000 0.000000
0.010437 1.000000 0.000000
0.014069 1.000000 0.000000
0.132111 1.000000 0.000000
0.262329 1.000000 0.000000
0.359558 1.000000 0.000000
0.446014 1.000000 0.000000
0.526184 1.000000 0.000000
0.601593 1.000000 0.000000
0.672668 0.999420 0.000000
0.739441 0.995392 0.000000
0.801575 0.991028 0.000000
0.858521 0.987091 0.000000
0.910248 0.983795 0.000000
0.957245 0.981140 0.000000
0.998840 0.978851 0.000000
1.000000 0.977020 0.000000
0.297180 1.000000 0.000000
0.315277 1.000000 0.000000
0.343994 1.000000 0.000000
0.384888 1.000000 0.000000
0.434570 1.000000 0.000000
0.490112 1.000000 0.000000
0.548584 1.000000 0.000000
0.608582 1.000000 0.000000
0.668365 1.000000 0.000000
0.726898 1.000000 0.000000
0.783112 1.000000 0.000000
0.836090 1.000000 0.000000
0.885284 1.000000 0.000000
0.930786 1.000000 0.000000
0.972931 0.999908 0.000610
1.000000 0.997986 0.021301
1.000000 0.995850 0.058197
0.000000 0.000000 0.078949
0.028107 0.000000 0.074829
0.076599 0.000000 0.070892
0.125275 0.000000 0.068359
0.176819 0.000000 0.066437
0.233826 0.000000 0.065277
0.298431 0.000000 0.063629
0.373535 0.000000 0.061646
0.457764 0.000000 0.058380
0.548309 0.000000 0.053833
0.641296 0.000000 0.048645
0.724121 0.000000 0.052429
0.794006 0.000000 0.068146
0.857269 0.000000 0.087341
0.922272 0.000000 0.100281
0.989471 0.000000 0.102448
1.000000 0.000000 0.102905
0.000000 0.020752 0.075104
0.029938 0.019470 0.073181
0.078491 0.018036 0.069397
0.126434 0.015381 0.067596
0.178284 0.009308 0.066406
0.235809 0.001160 0.064850
0.301086 0.000000 0.063324
0.376434 0.000000 0.061188
0.460663 0.000000 0.057709
0.551117 0.000000 0.052795
0.643616 0.000000 0.047424
0.725861 0.000000 0.051758
0.795410 0.000000 0.067871
0.858459 0.000000 0.087250
0.923370 0.000000 0.099762
0.990173 0.000000 0.101654
1.000000 0.000000 0.101929
0.000000 0.066223 0.071167
0.029816 0.064850 0.069611
0.078888 0.063354 0.067627
0.127075 0.061432 0.067017
0.179382 0.057404 0.066193
0.237793 0.048889 0.065063
0.304108 0.030518 0.063293
0.381042 0.003479 0.060211
0.465607 0.000000 0.056122
0.555847 0.000000 0.050690
0.647552 0.000000 0.045135
0.728821 0.000000 0.049805
0.797699 0.000000 0.066956
0.860413 0.000000 0.086792
0.925049 0.000000 0.098816
0.991302 0.000000 0.100128
1.000000 0.000000 0.099731
0.000000 0.119720 0.063995
0.020508 0.118927 0.062958
0.077637 0.117096 0.061279
0.131927 0.113525 0.062164
0.185333 0.110840 0.062653
0.243958 0.106934 0.061890
0.311005 0.098511 0.060425
0.387482 0.081635 0.057556
0.471924 0.044891 0.052856
0.562408 0.003265 0.045532
0.653259 0.000000 0.038391
0.733032 0.000000 0.044678
0.801025 0.000000 0.063477
0.863312 0.000000 0.084595
0.927521 0.000000 0.096344
0.992767 0.000061 0.096710
1.000000 0.006134 0.095734
0.000000 0.181152 0.050323
0.001404 0.180817 0.048767
0.058411 0.179810 0.046722
0.127106 0.176239 0.048462
0.188782 0.173370 0.048462
0.252167 0.169983 0.048218
0.321991 0.164886 0.047119
0.399475 0.156403 0.043762
0.483398 0.142578 0.038055
0.571991 0.120697 0.029297
0.660461 0.086945 0.022064
0.738190 0.073608 0.030823
0.805054 0.080505 0.054749
0.866760 0.097931 0.078552
0.930267 0.120575 0.090790
0.994263 0.141724 0.089966
1.000000 0.173462 0.087372
0.000000 0.255676 0.016571
0.000000 0.255646 0.014832
0.004852 0.255615 0.012024
0.095612 0.253632 0.011993
0.177368 0.250183 0.014587
0.252045 0.247833 0.012543
0.329529 0.244720 0.009369
0.410889 0.239929 0.006287
0.496460 0.233246 0.004364
0.585297 0.224182 0.002350
0.672607 0.214020 0.000519
0.748657 0.210663 0.001617
0.814148 0.217957 0.020172
0.874664 0.232635 0.054871
0.936920 0.248169 0.070465
0.998779 0.262604 0.066162
1.000000 0.283356 0.057129
0.000000 0.348022 0.000031
0.000000 0.348236 0.000031
0.000000 0.348602 0.000000
0.006104 0.348633 0.000000
0.128662 0.345154 0.000000
0.232849 0.341705 0.000000
0.323669 0.339508 0.000000
0.413818 0.337128 0.000000
0.504150 0.333160 0.000000
0.594910 0.328430 0.000000
0.682220 0.323700 0.000000
0.757721 0.322723 0.000000
0.822845 0.328064 0.000031
0.882904 0.338776 0.007172
0.943939 0.351440 0.020447
0.999695 0.364471 0.013245
1.000000 0.381714 0.006165
0.000000 0.453949 0.000000
0.000000 0.454224 0.000000
0.000000 0.454620 0.000000
0.000000 0.455139 0.000000
0.008728 0.454071 0.000000
0.177063 0.449158 0.000000
0.299683 0.445190 0.000000
0.402649 0.442596 0.000000
0.501251 0.440735 0.000000
0.596741 0.437622 0.000000
0.686310 0.433990 0.000000
0.763184 0.431763 0.000000
0.829071 0.433990 0.000000
0.889069 0.440857 0.000000
0.948792 0.450775 0.000061
0.999817 0.462250 0.000000
1.000000 0.476837 0.000000
0.000000 0.566254 0.000000
0.000000 0.566406 0.000000
0.000000 0.566681 0.000000
0.000000 0.566925 0.000000
0.000000 0.567139 0.000000
0.024261 0.563629 0.000000
0.247711 0.557648 0.000000
0.377808 0.552917 0.000000
0.487152 0.549805 0.000000
0.589386 0.547974 0.000000
0.683502 0.544373 0.000000
0.763672 0.539642 0.000000
0.831604 0.537842 0.000000
0.892181 0.540466 0.000000
0.950745 0.547211 0.000000
0.999817 0.556763 0.000000
1.000000 0.568909 0.000000
0.000000 0.677094 0.000000
0.000000 0.677094 0.000000
0.000000 0.677094 0.000000
0.000000 0.677063 0.000000
0.000000 0.676819 0.000000
0.000000 0.675751 0.000000
0.137329 0.668671 0.000000
0.338470 0.662018 0.000000
0.465729 0.656830 0.000000
0.574707 0.653290 0.000000
0.674194 0.650513 0.000000
0.759155 0.643585 0.000000
0.830170 0.637848 0.000000
0.891937 0.636414 0.000000
0.949677 0.639709 0.000000
0.999725 0.647003 0.000000
1.000000 0.656769 0.000000
0.000000 0.772125 0.000000
0.000000 0.772034 0.000000
0.000000 0.771851 0.000000
0.000000 0.771515 0.000000
0.000000 0.770996 0.000000
0.000000 0.770172 0.000000
0.041870 0.764648 0.000000
0.299286 0.757019 0.000000
0.444183 0.750763 0.000000
0.558685 0.745972 0.000000
0.659607 0.742798 0.000000
0.751038 0.739838 0.000000
0.825592 0.731323 0.000000
0.888947 0.726227 0.000000
0.946106 0.726196 0.000000
0.998779 0.730957 0.000000
1.000000 0.738373 0.000000
0.000000 0.847992 0.000000
0.000000 0.847900 0.000000
0.000000 0.847656 0.000000
0.000000 0.847260 0.000000
0.000000 0.846680 0.000000
0.000000 0.845825 0.000000
0.027374 0.841827 0.000000
0.286774 0.834229 0.000000
0.436676 0.827881 0.000000
0.551147 0.822723 0.000000
0.650085 0.818939 0.000000
0.739288 0.816559 0.000000
0.820038 0.814514 0.000000
0.884857 0.806946 0.000000
0.941376 0.804016 0.000000
0.992493 0.806122 0.000000
1.000000 0.811127 0.000000
0.000000 0.910645 0.000000
0.000000 0.910492 0.000000
0.000000 0.910248 0.000000
0.000000 0.909790 0.000000
0.000000 0.909149 0.000000
0.000000 0.908264 0.000000
0.086945 0.904144 0.000000
0.312653 0.897064 0.000000
0.450226 0.890961 0.000000
0.558563 0.885773 0.000000
0.652557 0.881592 0.000000
0.736938 0.878540 0.000000
0.813690 0.876678 0.000000
0.882355 0.875000 0.000000
0.937836 0.869995 0.000000
0.987061 0.869537 0.000000
1.000000 0.872101 0.000000
0.000000 0.963440 0.000000
0.000000 0.963257 0.000000
0.000000 0.962891 0.000000
0.000000 0.962280 0.000000
0.000000 0.961426 0.000000
0.003967 0.959869 0.000000
0.188232 0.954132 0.000000
0.368469 0.947693 0.000000
0.485107 0.941742 0.000000
0.582672 0.936401 0.000000
0.669189 0.931763 0.000000
0.747559 0.927979 0.000000
0.818634 0.925140 0.000000
0.882690 0.923248 0.000000
0.938568 0.921051 0.000000
0.985687 0.918671 0.000000
1.000000 0.919037 0.000000
0.000000 0.999695 0.000000
0.000000 0.999664 0.000000
0.000000 0.999634 0.000000
0.000000 0.999573 0.000000
0.016235 0.999512 0.000000
0.156189 0.996429 0.000000
0.331726 0.991058 0.000000
0.443604 0.985565 0.000000
0.537994 0.979736 0.000000
0.622498 0.974274 0.000000
0.699677 0.969269 0.000000
0.770355 0.964874 0.000000
0.834839 0.961243 0.000000
0.892822 0.958405 0.000000
0.944763 0.956390 0.000000
0.989624 0.953949 0.000000
1.000000 0.952850 0.000000
0.007996 1.000000 0.000000
0.010620 1.000000 0.000000
0.014191 1.000000 0.000000
0.135864 1.000000 0.000000
0.263947 1.000000 0.000000
0.360596 1.000000 0.000000
0.446686 1.000000 0.000000
0.526672 1.000000 0.000000
0.601929 0.999969 0.000000
0.672882 0.999420 0.000000
0.739502 0.995453 0.000000
0.801453 0.991119 0.000000
0.858276 0.987213 0.000031
0.909912 0.983917 0.000214
0.956818 0.981293 0.002411
0.998322 0.979034 0.004486
1.000000 0.977142 0.005676
0.297913 1.000000 0.000000
0.315735 1.000000 0.000000
0.344513 1.000000 0.000000
0.385345 1.000000 0.000000
0.435028 1.000000 0.000000
0.490295 1.000000 0.000000
0.548798 1.000000 0.000000
0.608582 1.000000 0.000000
0.668304 1.000000 0.000000
0.726685 1.000000 0.000946
0.782837 1.000000 0.009003
0.835724 1.000000 0.043549
0.884857 1.000000 0.071960
0.930237 1.000000 0.093536
0.972290 0.999939 0.114075
1.000000 0.998138 0.130981
1.000000 0.996002 0.146851
0.000000 0.000000 0.133484
0.017029 0.000000 0.130859
0.072144 0.000000 0.126038
0.125671 0.000000 0.122467
0.180328 0.000000 0.119690
0.238495 0.000000 0.117401
0.303955 0.000000 0.115723
0.379517 0.000000 0.114014
0.463684 0.000000 0.111969
0.553986 0.000000 0.109375
0.646271 0.000000 0.106903
0.728424 0.000000 0.110809
0.797943 0.000000 0.122559
0.861084 0.000000 0.137634
0.926056 0.000000 0.148224
0.992706 0.000000 0.151428
1.000000 0.000000 0.153503
0.000000 0.016479 0.130707
0.019867 0.014557 0.129333
0.074280 0.013031 0.125122
