luts/Vivid Marine.CUBE
# kravix mobile - LUTs Pack
LUT_3D_SIZE 9
0.000000 0.000000 0.000000
0.170242 0.000000 0.000000
0.314323 0.000000 0.000000
0.451027 0.000000 0.000000
0.580750 0.000000 0.000000
0.703900 0.000000 0.000000
0.822334 0.000000 0.000000
0.937775 0.000000 0.000000
1.000000 0.000000 0.000000
0.000000 0.138225 0.000000
0.158247 0.133632 0.000000
0.309212 0.121119 0.000000
0.448004 0.094924 0.000000
0.578770 0.043205 0.000027
0.702489 0.000000 0.000000
0.821242 0.000000 0.000000
0.936905 0.000000 0.000000
1.000000 0.000000 0.000000
0.000000 0.274422 0.000000
0.120694 0.272281 0.000000
0.295672 0.266739 0.000000
0.440298 0.256537 0.000000
0.573711 0.240135 0.000004
0.698876 0.215361 0.000031
0.818485 0.177084 0.000044
0.934708 0.107724 0.000059
1.000000 0.000000 0.000000
0.000000 0.408245 0.000000
0.014890 0.406951 0.000000
0.269074 0.403670 0.000000
0.426002 0.397702 0.000000
0.564535 0.388481 0.000000
0.692392 0.375356 0.000019
0.813558 0.357481 0.000031
0.930746 0.333407 0.000061
1.000000 0.301037 0.000061
0.000000 0.538071 0.000000
0.000000 0.537226 0.000000
0.220276 0.534992 0.000000
0.402977 0.531014 0.000000
0.550186 0.524971 0.000000
0.682394 0.516439 0.000000
0.806026 0.505192 0.000019
0.924778 0.490643 0.000033
1.000000 0.472137 0.000061
0.000000 0.663178 0.000000
0.000000 0.662546 0.000000
0.107839 0.660935 0.000000
0.367760 0.658083 0.000000
0.529438 0.653725 0.000000
0.668238 0.647671 0.000000
0.795505 0.639737 0.000000
0.916474 0.629624 0.000021
1.000000 0.617134 0.000031
0.000000 0.784760 0.000000
0.000000 0.784267 0.000000
0.000000 0.783005 0.000000
0.312965 0.780806 0.000000
0.500465 0.777481 0.000000
0.649151 0.772848 0.000000
0.781529 0.766827 0.000000
0.905527 0.759229 0.000000
1.000000 0.750023 0.000000
0.000000 0.904255 0.000000
0.000000 0.903847 0.000000
0.000000 0.902871 0.000000
0.213199 0.901074 0.000000
0.460125 0.898374 0.000000
0.624064 0.894689 0.000000
0.763520 0.889837 0.000000
0.891650 0.883839 0.000000
1.000000 0.876442 0.000000
0.000000 1.000000 0.000000
0.000000 1.000000 0.000000
0.000000 1.000000 0.000000
0.000000 1.000000 0.000000
0.402436 1.000000 0.000000
0.591144 1.000000 0.000000
0.740822 1.000000 0.000000
0.874485 1.000000 0.000000
1.000000 1.000000 0.000000
0.000000 0.000000 0.129543
0.170242 0.000000 0.126590
0.314323 0.000000 0.116313
0.451027 0.000000 0.095469
0.580750 0.000000 0.055101
0.703900 0.000000 0.000000
0.822334 0.000000 0.000000
0.937775 0.000000 0.000000
1.000000 0.000000 0.000000
0.000000 0.135250 0.117959
0.158128 0.133636 0.116603
0.309212 0.121134 0.105383
0.448004 0.094920 0.081926
0.578770 0.043205 0.038103
0.702489 0.000000 0.000000
0.821242 0.000000 0.000000
0.936905 0.000000 0.000000
1.000000 0.000000 0.000000
0.000000 0.274422 0.091847
0.120683 0.272281 0.086357
0.295666 0.266739 0.071235
0.440298 0.256544 0.042048
0.573711 0.240139 0.000948
0.698876 0.215361 0.000031
0.818485 0.177084 0.000044
0.934708 0.107724 0.000059
1.000000 0.000000 0.000000
0.000000 0.408245 0.016623
0.014899 0.406951 0.010148
0.269074 0.403670 0.001935
0.426002 0.397702 0.000000
0.564535 0.388481 0.000000
0.692392 0.375356 0.000019
0.813558 0.357481 0.000031
0.930746 0.333407 0.000061
1.000000 0.301037 0.000061
0.000000 0.538071 0.000000
0.000000 0.537226 0.000000
0.220276 0.534992 0.000000
0.402977 0.531014 0.000000
0.550186 0.524971 0.000000
0.682394 0.516439 0.000000
0.806026 0.505192 0.000019
0.924778 0.490643 0.000033
1.000000 0.472137 0.000061
0.000000 0.663178 0.000000
0.000000 0.662546 0.000000
0.107839 0.660935 0.000000
0.367760 0.658083 0.000000
0.529438 0.653725 0.000000
0.668238 0.647671 0.000000
0.795505 0.639737 0.000000
0.916474 0.629624 0.000021
1.000000 0.617134 0.000031
0.000000 0.784760 0.000000
0.000000 0.784267 0.000000
0.000000 0.783005 0.000000
0.312965 0.780806 0.000000
0.500465 0.777481 0.000000
0.649151 0.772848 0.000000
0.781529 0.766827 0.000000
0.905527 0.759229 0.000000
1.000000 0.750023 0.000000
0.000000 0.904255 0.000000
0.000000 0.903847 0.000000
0.000000 0.902871 0.000000
0.213199 0.901074 0.000000
0.460125 0.898374 0.000000
0.624064 0.894689 0.000000
0.763520 0.889837 0.000000
0.891650 0.883839 0.000000
1.000000 0.876442 0.000000
0.000000 1.000000 0.000000
0.000000 1.000000 0.000000
0.000000 1.000000 0.000000
0.000000 1.000000 0.000000
0.402436 1.000000 0.000000
0.591144 1.000000 0.000000
0.740822 1.000000 0.000000
0.874485 1.000000 0.000000
1.000000 1.000000 0.000000
0.000000 0.000000 0.260505
0.170262 0.000000 0.260422
0.314329 0.000000 0.255625
0.451027 0.000000 0.246793
0.580750 0.000000 0.232884
0.703900 0.000000 0.212115
0.822334 0.000000 0.181509
0.937775 0.000000 0.133077
1.000000 0.000000 0.056648
0.000000 0.134162 0.249740
0.156809 0.132407 0.255891
0.309212 0.121135 0.250831
0.448004 0.094922 0.241843
0.578770 0.043205 0.227578
0.702489 0.000000 0.206242
0.821242 0.000000 0.174600
0.936905 0.000000 0.122698
1.000000 0.000000 0.044426
0.000000 0.268221 0.239527
0.115950 0.272237 0.243515
0.295501 0.266733 0.238248
0.440298 0.256540 0.228700
0.573711 0.240165 0.213489
0.698876 0.215307 0.190486
0.818485 0.177045 0.155280
0.934708 0.107709 0.092166
1.000000 0.000000 0.003227
0.000000 0.407782 0.221535
0.014682 0.406864 0.219493
0.269089 0.403670 0.213806
0.425987 0.397709 0.203011
0.564535 0.388510 0.185534
0.692392 0.375379 0.158124
0.813558 0.357448 0.110921
0.930746 0.333390 0.046801
1.000000 0.301037 0.000061
0.000000 0.538071 0.180119
0.000000 0.537226 0.177273
0.220247 0.534992 0.169910
0.402979 0.531014 0.155797
0.550190 0.524971 0.131149
0.682394 0.516493 0.089582
0.806026 0.505215 0.035507
0.924778 0.490643 0.000033
1.000000 0.472137 0.000061
0.000000 0.663178 0.095264
0.000000 0.662546 0.090641
0.107843 0.660935 0.079200
0.367741 0.658083 0.061592
0.529455 0.653725 0.027141
0.668238 0.647671 0.000000
0.795505 0.639737 0.000000
0.916474 0.629624 0.000021
1.000000 0.617134 0.000031
0.000000 0.784760 0.000000
0.000000 0.784267 0.000000
0.000000 0.783005 0.000000
0.312965 0.780806 0.000000
0.500465 0.777481 0.000000
0.649151 0.772848 0.000000
0.781529 0.766827 0.000000
0.905527 0.759229 0.000000
1.000000 0.750023 0.000000
0.000000 0.904255 0.000000
0.000000 0.903847 0.000000
0.000000 0.902871 0.000000
0.213199 0.901074 0.000000
0.460125 0.898374 0.000000
0.624064 0.894689 0.000000
0.763520 0.889837 0.000000
0.891650 0.883839 0.000000
1.000000 0.876442 0.000000
0.000000 1.000000 0.000000
0.000000 1.000000 0.000000
0.000000 1.000000 0.000000
0.000000 1.000000 0.000000
0.402436 1.000000 0.000000
0.591144 1.000000 0.000000
0.740822 1.000000 0.000000
0.874485 1.000000 0.000000
1.000000 1.000000 0.000000
0.000000 0.000000 0.394707
0.170243 0.000000 0.396272
0.314309 0.000000 0.393284
0.451020 0.000000 0.387924
0.580750 0.000000 0.379675
0.703900 0.000000 0.367976
0.822334 0.000000 0.352182
0.937775 0.000000 0.331293
1.000000 0.000000 0.304058
0.000000 0.134706 0.384118
0.155699 0.131370 0.393587
0.309193 0.121135 0.390348
0.448005 0.094922 0.384929
0.578770 0.043205 0.376610
0.702489 0.000000 0.364770
0.821242 0.000000 0.348823
0.936905 0.000000 0.327715
1.000000 0.000000 0.300067
0.000000 0.266330 0.375110
0.109441 0.267779 0.386047
0.294213 0.265469 0.382931
0.440301 0.256537 0.377253
0.573711 0.240162 0.368692
0.698876 0.215309 0.356602
0.818485 0.177036 0.340226
0.934708 0.107708 0.318447
1.000000 0.000000 0.289746
0.000000 0.398999 0.364272
0.010492 0.400957 0.366601
0.265047 0.403574 0.368973
0.425820 0.397691 0.363088
0.564535 0.388512 0.354140
0.692392 0.375382 0.341433
0.813558 0.357471 0.324159
0.930746 0.333420 0.301078
1.000000 0.301021 0.270308
0.000000 0.534988 0.349295
0.000000 0.534187 0.347961
0.220134 0.535002 0.346700
0.402990 0.531014 0.340483
0.550194 0.524981 0.330813
0.682394 0.516481 0.317036
0.806026 0.505199 0.298140
0.924778 0.490594 0.272565
1.000000 0.472139 0.237549
0.000000 0.663178 0.318754
0.000000 0.662546 0.317232
0.107844 0.660935 0.313367
0.367747 0.658083 0.306316
0.529469 0.653725 0.295406
0.668243 0.647661 0.279613
0.795505 0.639721 0.257577
0.916474 0.629611 0.226812
1.000000 0.617053 0.181577
0.000000 0.784760 0.269587
0.000000 0.784267 0.267717
0.000000 0.783005 0.262997
0.313005 0.780806 0.254420
0.500498 0.777481 0.240794
0.649177 0.772848 0.220538
0.781531 0.766820 0.190562
0.905527 0.759192 0.141420
1.000000 0.749999 0.079641
0.000000 0.904255 0.188428
0.000000 0.903847 0.185607
0.000000 0.902871 0.178312
0.213248 0.901074 0.164064
0.460174 0.898374 0.139511
0.624033 0.894689 0.098967
0.763537 0.889837 0.069150
0.891653 0.883839 0.014545
1.000000 0.876442 0.000000
0.000000 1.000000 0.042629
0.000000 1.000000 0.038283
0.000000 1.000000 0.025601
0.000000 1.000000 0.001252
0.402436 1.000000 0.000000
0.591144 1.000000 0.000000
0.740822 1.000000 0.000000
0.874485 1.000000 0.000000
1.000000 1.000000 0.000000
0.000000 0.000000 0.529831
0.170295 0.000000 0.532650
0.314289 0.000000 0.530564
0.451012 0.000000 0.526853
0.580765 0.000000 0.521202
0.703900 0.000000 0.513277
0.822334 0.000000 0.502865
0.937775 0.000000 0.489519
1.000000 0.000000 0.472839
0.000000 0.135345 0.520088
0.154566 0.130283 0.530979
0.309239 0.121135 0.528533
0.448029 0.094922 0.524802
0.578782 0.043205 0.519099
0.702489 0.000000 0.511167
0.821242 0.000000 0.500680
0.936905 0.000000 0.487219
1.000000 0.000000 0.470368
0.000000 0.266323 0.510151
0.105418 0.263980 0.525584
0.293295 0.264519 0.523556
0.440296 0.256537 0.519552
0.573713 0.240162 0.513794
0.698876 0.215309 0.505752
0.818485 0.177036 0.495094
0.934708 0.107708 0.481490
1.000000 0.000000 0.464360
0.000000 0.396353 0.501047
0.008271 0.397151 0.505521
0.259279 0.399214 0.514041
0.424537 0.396446 0.510166
0.564535 0.388512 0.504139
0.692392 0.375377 0.495888
0.813558 0.357468 0.484997
0.930746 0.333412 0.471021
1.000000 0.301021 0.453396
0.000000 0.526161 0.490295
0.000000 0.525330 0.489453
0.211107 0.535080 0.499510
0.399212 0.530870 0.495332
0.550041 0.524948 0.489197
0.682394 0.516493 0.480623
0.806026 0.505201 0.469278
0.924778 0.490629 0.454660
1.000000 0.472145 0.436226
0.000000 0.657271 0.476848
0.000000 0.656661 0.475944
0.104277 0.659888 0.476714
0.367665 0.658062 0.474105
0.529472 0.653725 0.467670
0.668245 0.647657 0.458613
0.795505 0.639714 0.446575
0.916474 0.629647 0.431023
1.000000 0.617092 0.411299
0.000000 0.784199 0.452648
0.000000 0.783718 0.451701
0.000000 0.782524 0.449156
0.312992 0.780806 0.444893
0.500477 0.777481 0.437904
0.649158 0.772848 0.428079
0.781534 0.766818 0.414932
0.905527 0.759221 0.397896
1.000000 0.749912 0.376049
0.000000 0.904255 0.414074
0.000000 0.903847 0.412918
0.000000 0.902871 0.410114
0.213253 0.901074 0.404978
0.460117 0.898374 0.397078
0.623972 0.894689 0.385977
0.763553 0.889837 0.371044
0.891665 0.883834 0.351437
1.000000 0.876396 0.325909
0.000000 1.000000 0.360214
0.000000 1.000000 0.358934
0.000000 1.000000 0.355484
0.000000 1.000000 0.349340
0.402435 1.000000 0.339958
0.591122 1.000000 0.326555
0.740838 1.000000 0.308231
0.874390 1.000000 0.283489
1.000000 1.000000 0.249833
0.000000 0.000000 0.664845
0.170216 0.000000 0.668757
0.314340 0.000000 0.667203
0.451041 0.000000 0.664420
0.580698 0.000000 0.660190
0.703907 0.000000 0.654308
0.822334 0.000000 0.646620
0.937775 0.000000 0.637020
1.000000 0.000000 0.625103
0.000000 0.135799 0.655534
0.153319 0.129158 0.667782
0.309178 0.121135 0.665688
0.448037 0.094922 0.662887
0.578759 0.043205 0.658625
0.702501 0.000000 0.652754
0.821242 0.000000 0.645047
0.936905 0.000000 0.635292
1.000000 0.000000 0.623334
0.000000 0.266542 0.644238
0.103932 0.261907 0.663573
0.292277 0.263460 0.662077
0.440299 0.256537 0.658960
0.573716 0.240162 0.654681
0.698874 0.215309 0.648779
0.818485 0.177036 0.641035
0.934708 0.107708 0.631192
1.000000 0.000000 0.619235
0.000000 0.396335 0.636934
0.006375 0.395702 0.643008
0.255783 0.395618 0.655111
0.423713 0.395543 0.652139
0.564545 0.388512 0.647600
0.692388 0.375377 0.641592
0.813558 0.357468 0.633747
0.930746 0.333412 0.623810
1.000000 0.301021 0.611539
0.000000 0.522816 0.626583
0.000000 0.521961 0.625974
0.204347 0.530777 0.644288
0.393654 0.526724 0.641309
0.548773 0.523736 0.636866
0.682394 0.516485 0.630603
0.806026 0.505203 0.622575
0.924778 0.490621 0.612414
1.000000 0.472152 0.599852
0.000000 0.648782 0.616244
0.000000 0.648155 0.615580
0.095993 0.657718 0.625715
0.359479 0.658123 0.626189
0.525906 0.653595 0.621508
0.668120 0.647617 0.615155
0.795505 0.639722 0.606835
0.916474 0.629613 0.596333
1.000000 0.617104 0.583325
0.000000 0.776108 0.603765
0.000000 0.775614 0.603081
0.000000 0.774457 0.601417
0.309850 0.780983 0.605041
0.500394 0.777473 0.600942
0.649156 0.772848 0.594369
0.781534 0.766823 0.585709
0.905527 0.759202 0.574733
1.000000 0.749904 0.561091
0.000000 0.901392 0.583017
0.000000 0.901002 0.582330
0.000000 0.900069 0.580547
0.213002 0.901050 0.579096
0.460125 0.898374 0.574223
0.624008 0.894689 0.567240
0.763543 0.889837 0.558038
0.891660 0.883832 0.546358
1.000000 0.876382 0.531805
0.000000 1.000000 0.551525
0.000000 1.000000 0.550672
0.000000 1.000000 0.548661
0.000000 1.000000 0.545082
0.402451 1.000000 0.539713
0.591107 1.000000 0.532162
0.740835 1.000000 0.522173
0.874418 1.000000 0.509435
1.000000 1.000000 0.493496
0.000000 0.000000 0.800712
0.170324 0.000000 0.805788
0.314386 0.000000 0.804533
0.450984 0.000000 0.802314
0.580750 0.000000 0.798946
0.703948 0.000000 0.794311
0.822334 0.000000 0.788273
0.937775 0.000000 0.780715
1.000000 0.000000 0.771469
0.000000 0.136037 0.791668
0.152205 0.128104 0.805171
0.309180 0.121135 0.803324
0.448053 0.094912 0.801100
0.578799 0.043205 0.797725
0.702425 0.000000 0.793081
0.821233 0.000000 0.787009
0.936905 0.000000 0.779371
1.000000 0.000000 0.770077
0.000000 0.267489 0.780825
0.102626 0.260352 0.801836
0.291130 0.262352 0.800657
0.440285 0.256537 0.797978
0.573723 0.240162 0.794602
0.698876 0.215309 0.789942
0.818480 0.177036 0.783845
0.934708 0.107708 0.776261
1.000000 0.000000 0.766863
0.000000 0.396372 0.771960
0.004486 0.394214 0.779634
0.254657 0.393703 0.794913
0.422772 0.394532 0.792681
0.564532 0.388512 0.788991
0.692404 0.375377 0.784289
0.813563 0.357468 0.778154
0.930746 0.333412 0.770490
1.000000 0.301021 0.761000
0.000000 0.522755 0.763817
0.000000 0.521934 0.763325
0.199612 0.526576 0.786511
0.390319 0.523265 0.784372
0.547989 0.522862 0.780720
0.682388 0.516485 0.775725
0.806029 0.505203 0.769491
0.924778 0.490621 0.761679
1.000000 0.472152 0.752113
0.000000 0.644732 0.752469
0.000000 0.644134 0.751962
0.089362 0.653502 0.769006
0.353140 0.653994 0.772366
0.520625 0.649530 0.768787
0.666885 0.646454 0.763906
0.795505 0.639722 0.757443
0.916474 0.629619 0.749507
1.000000 0.617104 0.739739
0.000000 0.767836 0.742546
0.000000 0.767342 0.742035
0.000000 0.766127 0.740703
0.299883 0.781116 0.756971
0.492762 0.777590 0.753185
0.645736 0.772795 0.748079
0.781454 0.766775 0.741503
0.905527 0.759209 0.733304
1.000000 0.749907 0.723295
0.000000 0.892862 0.730755
0.000000 0.892542 0.730096
0.000000 0.891591 0.728838
0.204239 0.901065 0.734986
0.457497 0.898567 0.732315
0.623923 0.894689 0.727778
0.763564 0.889837 0.721098
0.891663 0.883832 0.712610
1.000000 0.876422 0.702233
0.000000 0.993424 0.711182
0.000000 0.993461 0.710556
0.000000 0.993553 0.709236
0.000000 0.993687 0.706807
0.402344 1.000000 0.707844
0.591114 1.000000 0.702469
0.740822 1.000000 0.695450
0.874387 1.000000 0.686590
1.000000 1.000000 0.675728
0.000000 0.000000 0.939015
0.170332 0.000000 0.945244
0.314282 0.000000 0.944196
0.450984 0.000000 0.942345
0.580801 0.000000 0.939562
0.703860 0.000000 0.935699
0.822351 0.000000 0.930669
0.937768 0.000000 0.924411
1.000000 0.000000 0.916824
0.000000 0.136181 0.930056
0.151028 0.127022 0.944979
0.309241 0.121135 0.943179
0.448028 0.094911 0.941334
0.578804 0.043205 0.938528
0.702502 0.000000 0.934660
0.821201 0.000000 0.929629
0.936904 0.000000 0.923346
1.000000 0.000000 0.915657
0.000000 0.268123 0.919562
0.101151 0.258714 0.942281
0.290116 0.261334 0.941114
0.440332 0.256537 0.938732
0.573711 0.240162 0.935916
0.698871 0.215309 0.932041
0.818487 0.177036 0.927004
0.934710 0.107708 0.920690
1.000000 0.000000 0.913016
0.000000 0.396326 0.908239
0.003376 0.393279 0.917445
0.253430 0.392070 0.936496
0.421695 0.393460 0.934493
0.564559 0.388512 0.931281
0.692375 0.375377 0.927361
0.813557 0.357468 0.922314
0.930748 0.333412 0.915973
1.000000 0.301021 0.908282
0.000000 0.522831 0.901419
0.000000 0.521982 0.901029
0.194930 0.522349 0.929353
0.389255 0.521430 0.927395
0.547139 0.521901 0.924497
0.682383 0.516485 0.920305
0.806021 0.505203 0.915192
0.924776 0.490621 0.908780
1.000000 0.472152 0.901033
0.000000 0.644748 0.892059
0.000000 0.644113 0.891680
0.085483 0.650263 0.912651
0.348648 0.649842 0.917653
0.517443 0.646178 0.914976
0.666113 0.645597 0.910762
0.795501 0.639722 0.905345
0.916477 0.629619 0.898864
1.000000 0.617104 0.890982
0.000000 0.763096 0.879836
0.000000 0.762636 0.879431
0.000000 0.761445 0.878382
0.292251 0.776863 0.904937
0.486729 0.773456 0.901938
0.640730 0.768756 0.897826
0.780294 0.765666 0.892567
0.905527 0.759209 0.885828
1.000000 0.749901 0.877784
0.000000 0.884731 0.870337
0.000000 0.884349 0.869942
0.000000 0.883358 0.868842
0.193270 0.901759 0.889294
0.448096 0.898787 0.886025
0.616776 0.894924 0.881741
0.760227 0.889930 0.876210
0.891622 0.883801 0.869370
1.000000 0.876415 0.861148
0.000000 0.984993 0.857716
0.000000 0.985008 0.857243
0.000000 0.985089 0.856210
0.000000 0.985233 0.854305
0.394777 0.999960 0.864010
0.588554 0.999885 0.860459
0.740739 1.000000 0.855830
0.874367 1.000000 0.848971
1.000000 1.000000 0.840565
0.000000 0.000000 0.992920
0.170368 0.000000 0.999939
0.314316 0.000000 1.000000
0.451034 0.000000 1.000000
0.580811 0.000000 1.000000
0.703945 0.000000 1.000000
0.822296 0.000000 1.000000
0.937813 0.000000 1.000000
1.000000 0.000000 1.000000
0.000000 0.136185 0.984787
0.151472 0.127411 0.999977
0.309168 0.121134 1.000000
0.448023 0.094911 1.000000
0.578766 0.043205 1.000000
0.702526 0.000000 1.000000
0.821274 0.000000 1.000000
0.936962 0.000000 1.000000
1.000000 0.000000 1.000000
0.000000 0.268379 0.976799
0.101765 0.258879 0.999835
0.290239 0.261444 0.999994
0.440233 0.256537 1.000000
0.573696 0.240162 1.000000
0.698868 0.215309 1.000000
0.818531 0.177036 1.000000
0.934719 0.107705 1.000000
1.000000 0.000000 1.000000
0.000000 0.396530 0.968998
0.003445 0.393029 0.978738
0.253504 0.391830 1.000000
0.421791 0.393487 0.999914
0.564568 0.388512 1.000000
0.692442 0.375377 1.000000
0.813554 0.357468 1.000000
0.930735 0.333412 1.000000
1.000000 0.301021 1.000000
0.000000 0.522751 0.968414
0.000000 0.521955 0.968414
0.193527 0.520641 1.000000
0.389152 0.520811 1.000000
0.546952 0.521721 0.999962
0.682384 0.516485 1.000000
0.806026 0.505203 1.000000
0.924808 0.490621 1.000000
1.000000 0.472152 1.000000
0.000000 0.644688 0.968414
0.000000 0.644096 0.968414
0.083751 0.648558 0.992366
0.346491 0.647594 1.000000
0.517181 0.645279 1.000000
0.665949 0.645398 0.999921
0.795519 0.639722 1.000000
0.916465 0.629619 1.000000
1.000000 0.617104 1.000000
0.000000 0.763077 0.968414
0.000000 0.762673 0.968414
0.000000 0.761458 0.968414
0.289681 0.774187 1.000000
0.484169 0.770760 1.000000
0.638655 0.766343 1.000000
0.779924 0.765234 1.000000
0.905541 0.759209 1.000000
1.000000 0.749901 1.000000
0.000000 0.879600 0.968823
0.000000 0.879227 0.968823
0.000000 0.878257 0.968708
0.185571 0.898130 1.000000
0.442318 0.895350 1.000000
0.612152 0.891550 1.000000
0.756357 0.886560 1.000000
0.890790 0.882986 1.000000
1.000000 0.876415 1.000000
0.000000 0.978241 0.975250
0.000000 0.978241 0.975250
0.000000 0.978241 0.975250
0.000000 0.978241 0.975250
0.386795 1.000000 1.000000
0.580918 1.000000 1.000000
0.734604 1.000000 1.000000
0.871441 1.000000 1.000000
1.000000 1.000000 1.000000
