luts/Vivid_Grain.CUBE
# kravix mobile - LUTs Pack
LUT_3D_SIZE 17
0.000000 0.000000 0.000000
0.045098 0.000000 0.000000
0.117647 0.000000 0.000000
0.186275 0.000000 0.000000
0.250980 0.000000 0.000000
0.313725 0.000000 0.000000
0.376471 0.000000 0.000000
0.452941 0.001961 0.000000
0.541176 0.003922 0.000000
0.635294 0.013725 0.000000
0.705882 0.023529 0.000000
0.770589 0.029412 0.000000
0.835294 0.039216 0.000000
0.900000 0.050980 0.000000
0.956863 0.062745 0.000000
0.998039 0.072549 0.000000
1.000000 0.078431 0.000000
0.000000 0.021568 0.000000
0.028431 0.024510 0.000000
0.094117 0.027451 0.000000
0.163725 0.031372 0.000000
0.229411 0.037255 0.000000
0.293137 0.040196 0.000000
0.360784 0.045098 0.000000
0.439216 0.047059 0.000000
0.529411 0.054902 0.000000
0.625490 0.060785 0.000000
0.700000 0.062746 0.000000
0.768627 0.058824 0.000000
0.835295 0.056863 0.000000
0.903922 0.058823 0.000000
0.962745 0.062745 0.000000
0.999019 0.072549 0.000000
1.000000 0.078431 0.000000
0.007843 0.074510 0.003922
0.037254 0.078431 0.001961
0.082353 0.082353 0.000000
0.150981 0.086275 0.000000
0.215686 0.094118 0.000000
0.282353 0.096078 0.000000
0.345098 0.101961 0.000000
0.429412 0.103921 0.000000
0.517647 0.109804 0.000000
0.613725 0.117647 0.000000
0.686275 0.117647 0.000000
0.754902 0.117647 0.000000
0.823529 0.109804 0.000000
0.894118 0.103921 0.000000
0.956863 0.094118 0.000000
1.000000 0.076470 0.000000
1.000000 0.078431 0.000000
0.031372 0.135294 0.017647
0.059804 0.137255 0.017647
0.096078 0.139216 0.017647
0.146078 0.142157 0.015686
0.203922 0.147059 0.015686
0.270588 0.150000 0.014706
0.335294 0.154902 0.013725
0.421569 0.158824 0.008824
0.511764 0.166666 0.007843
0.603921 0.171569 0.005882
0.674509 0.172549 0.003921
0.744117 0.169608 0.001961
0.809804 0.162745 0.001961
0.882353 0.157843 0.000981
0.945098 0.149019 0.000000
0.994118 0.134314 0.000000
1.000000 0.109804 0.000000
0.062745 0.188235 0.043137
0.080392 0.188235 0.043137
0.105882 0.192157 0.043137
0.147059 0.194117 0.039216
0.196078 0.196078 0.039216
0.262746 0.200000 0.035294
0.329412 0.203922 0.035294
0.415686 0.209804 0.025490
0.509804 0.215686 0.023529
0.594118 0.219608 0.019608
0.662745 0.219608 0.015686
0.731372 0.219608 0.011765
0.796078 0.215686 0.007843
0.870588 0.213726 0.005882
0.937255 0.203922 0.003922
0.988236 0.188235 0.001961
1.000000 0.168627 0.000000
0.054902 0.239216 0.070588
0.069608 0.241176 0.070588
0.096078 0.243137 0.070588
0.128431 0.245098 0.068627
0.182353 0.247059 0.066667
0.250000 0.254902 0.063726
0.321569 0.256863 0.060784
0.413725 0.263725 0.057843
0.503922 0.270588 0.052941
0.587255 0.275490 0.045098
0.650980 0.278431 0.037255
0.717647 0.278431 0.033333
0.784313 0.274510 0.031372
0.854902 0.272549 0.021569
0.919608 0.266667 0.017647
0.977451 0.251961 0.011765
1.000000 0.233334 0.007843
0.039216 0.298039 0.094118
0.050980 0.301961 0.094118
0.066667 0.301961 0.094118
0.100000 0.303921 0.094118
0.164706 0.305882 0.094118
0.237255 0.309804 0.090196
0.313725 0.313725 0.086275
0.409804 0.319608 0.082353
0.501961 0.325490 0.074510
0.576470 0.329412 0.070588
0.639216 0.329412 0.066667
0.705882 0.329412 0.058824
0.768627 0.329412 0.054902
0.839216 0.327451 0.045098
0.901961 0.321569 0.039216
0.960784 0.309804 0.031372
1.000000 0.298039 0.023529
0.005882 0.372549 0.117647
0.006863 0.373530 0.116667
0.009804 0.378432 0.115686
0.035294 0.379412 0.113726
0.115686 0.382353 0.113726
0.204902 0.385294 0.110784
0.296079 0.390196 0.105882
0.396079 0.396078 0.100980
0.482353 0.400000 0.096078
0.552941 0.401961 0.093137
0.615687 0.401961 0.086275
0.684314 0.401961 0.083333
0.749019 0.401961 0.078432
0.818627 0.396078 0.070588
0.880392 0.390196 0.062745
0.941176 0.380392 0.052941
0.994117 0.366667 0.045098
0.000000 0.447059 0.133333
0.000000 0.447059 0.133333
0.000000 0.450980 0.129412
0.023530 0.450980 0.129412
0.078431 0.454902 0.129412
0.168627 0.458824 0.125490
0.274510 0.462745 0.121569
0.376471 0.468627 0.117647
0.458824 0.474510 0.109804
0.525490 0.478431 0.105882
0.588235 0.478431 0.101961
0.654902 0.482353 0.098039
0.721569 0.482353 0.094118
0.788235 0.478431 0.088235
0.850980 0.474510 0.078431
0.911764 0.462746 0.072549
0.968627 0.447059 0.066667
0.000000 0.503922 0.147058
0.000000 0.503922 0.147058
0.000000 0.503922 0.143137
0.004902 0.507843 0.141176
0.035294 0.511765 0.139215
0.171569 0.517647 0.136274
0.282353 0.521568 0.133333
0.370588 0.525490 0.128431
0.441176 0.531373 0.125491
0.507843 0.534314 0.122549
0.568628 0.539216 0.115686
0.635294 0.541176 0.113725
0.700000 0.543137 0.105882
0.763726 0.545098 0.100000
0.819608 0.545098 0.094117
0.878431 0.540196 0.087255
0.933333 0.533334 0.080393
0.000000 0.552941 0.160784
0.000000 0.554902 0.160784
0.000000 0.556863 0.160784
0.009804 0.558823 0.158824
0.090196 0.560784 0.156863
0.198039 0.566666 0.149019
0.290196 0.572549 0.145098
0.366667 0.574510 0.139215
0.431373 0.580392 0.137255
0.498039 0.582353 0.133333
0.556863 0.588235 0.129412
0.625490 0.590196 0.123529
0.686275 0.592157 0.121569
0.749019 0.596078 0.113726
0.803922 0.596078 0.105882
0.858823 0.594118 0.100000
0.913725 0.588235 0.094118
0.000000 0.611765 0.176471
0.000000 0.611765 0.176471
0.000000 0.611765 0.174509
0.018627 0.615686 0.173529
0.098039 0.619608 0.170588
0.205883 0.622549 0.168627
0.284313 0.625490 0.166666
0.355882 0.629412 0.161764
0.417647 0.635294 0.158824
0.484314 0.637255 0.150980
0.545098 0.643137 0.147059
0.610785 0.645098 0.140196
0.670589 0.649019 0.133333
0.730392 0.650980 0.125490
0.782353 0.650980 0.121568
0.838235 0.650000 0.110784
0.896079 0.647059 0.103921
0.000000 0.666667 0.196078
0.000000 0.666667 0.196078
0.007843 0.670588 0.196078
0.068627 0.670588 0.192157
0.125490 0.674510 0.192157
0.205882 0.676470 0.190196
0.274510 0.678431 0.188235
0.345098 0.682353 0.180392
0.403922 0.686275 0.176471
0.472549 0.690196 0.172549
0.533333 0.694118 0.168627
0.598040 0.698039 0.162745
0.654902 0.701961 0.156863
0.711765 0.701961 0.147058
0.760784 0.701961 0.137255
0.817647 0.701961 0.125491
0.878431 0.701961 0.109804
0.000000 0.715686 0.215686
0.002941 0.715686 0.215686
0.017647 0.715686 0.215686
0.066667 0.715686 0.214706
0.137255 0.717647 0.211765
0.213725 0.720588 0.211765
0.276470 0.721569 0.207843
0.344117 0.726470 0.205882
0.405883 0.729412 0.203922
0.472549 0.734314 0.198039
0.529412 0.737255 0.192157
0.590196 0.742157 0.188235
0.643138 0.745098 0.182353
0.696079 0.748039 0.173529
0.745098 0.749019 0.164706
0.800000 0.752941 0.152941
0.864706 0.752941 0.137255
0.050980 0.756863 0.243137
0.064706 0.756863 0.243137
0.078431 0.756863 0.243137
0.113726 0.756863 0.241177
0.168627 0.760784 0.239216
0.233334 0.760784 0.239216
0.294118 0.764706 0.235294
0.354902 0.766666 0.231372
0.415686 0.772549 0.227451
0.478432 0.774510 0.223529
0.533333 0.780392 0.219608
0.588235 0.782353 0.213726
0.635294 0.784314 0.211765
0.686274 0.788235 0.203922
0.733333 0.792157 0.196078
0.790196 0.794118 0.182353
0.862745 0.800000 0.164706
0.058824 0.803921 0.264706
0.073529 0.804902 0.264706
0.100000 0.807843 0.264706
0.147059 0.807843 0.263726
0.198039 0.807843 0.262745
0.253922 0.811765 0.261765
0.309804 0.813725 0.258823
0.367647 0.816666 0.257843
0.421569 0.819608 0.254902
0.479412 0.824510 0.252941
0.529411 0.827451 0.247059
0.579412 0.830392 0.245098
0.625490 0.833333 0.239216
0.672549 0.836275 0.231373
0.719607 0.839216 0.225490
0.785294 0.844118 0.209804
0.866667 0.849020 0.188235
0.035294 0.874510 0.286275
0.052942 0.874510 0.286275
0.074510 0.874510 0.286275
0.111764 0.876470 0.282353
0.160784 0.878431 0.278431
0.225490 0.880392 0.278431
0.282353 0.882353 0.278431
0.343137 0.886275 0.274510
0.396078 0.890196 0.274510
0.449020 0.892157 0.270588
0.498039 0.894118 0.266667
0.545098 0.898039 0.264706
0.588235 0.901961 0.258824
0.637255 0.903922 0.252941
0.686275 0.905882 0.243137
0.762745 0.911764 0.227451
0.858824 0.917647 0.203922
0.000000 0.000000 0.013726
0.052941 0.000000 0.012745
0.131373 0.000000 0.011765
0.200000 0.000000 0.011765
0.260784 0.000000 0.007843
0.326470 0.000000 0.006863
0.390196 0.000000 0.005882
0.465686 0.001961 0.005882
0.552941 0.003922 0.003921
0.648039 0.013725 0.001961
0.719608 0.019608 0.001961
0.784314 0.031372 0.001961
0.845098 0.039216 0.000000
0.913725 0.050980 0.000000
0.970588 0.062745 0.000000
1.000000 0.071569 0.000000
1.000000 0.078431 0.000000
0.001961 0.026471 0.031372
0.034314 0.029902 0.030882
0.100000 0.033333 0.027451
0.171569 0.038235 0.026470
0.234314 0.043137 0.025490
0.300981 0.047059 0.022549
0.367647 0.051961 0.021569
0.446569 0.055882 0.018627
0.537255 0.062745 0.014706
0.634314 0.068137 0.010784
0.706863 0.069608 0.008824
0.776471 0.066176 0.007353
0.843137 0.062745 0.004902
0.913725 0.062255 0.002941
0.974510 0.064706 0.001961
1.000000 0.070588 0.000981
1.000000 0.078431 0.000000
0.009804 0.080392 0.047059
0.039216 0.084314 0.045098
0.092157 0.090196 0.043137
0.155882 0.094118 0.041176
0.219608 0.098039 0.039216
0.286274 0.101961 0.038235
0.354902 0.105882 0.035294
0.434314 0.110784 0.032353
0.527451 0.119608 0.027451
0.621568 0.123529 0.023529
0.692157 0.123529 0.017647
0.762745 0.122549 0.014706
0.829412 0.119608 0.011765
0.901961 0.109804 0.007843
0.964706 0.100000 0.005882
1.000000 0.081373 0.002941
1.000000 0.078431 0.001961
0.034313 0.138236 0.067647
0.064216 0.140196 0.066667
0.100000 0.143137 0.064706
0.149510 0.146079 0.062745
0.207844 0.150000 0.060784
0.275981 0.153921 0.058823
0.340196 0.156863 0.056863
0.425980 0.162255 0.050980
0.517647 0.171569 0.046078
0.609804 0.175980 0.040196
0.680392 0.175490 0.034313
0.748529 0.174510 0.029902
0.815686 0.169608 0.024510
0.887745 0.161765 0.020588
0.950981 0.153921 0.013725
0.996568 0.136765 0.009804
1.000000 0.112745 0.005883
0.062745 0.190196 0.088235
0.082353 0.191176 0.087255
0.107843 0.194117 0.084313
0.149019 0.197059 0.084313
0.198039 0.200000 0.082353
0.266667 0.202941 0.080393
0.331372 0.207843 0.076470
0.419608 0.212745 0.071569
0.511764 0.219608 0.064705
0.600000 0.222549 0.058824
0.668627 0.223529 0.052942
0.735294 0.222549 0.048039
0.801961 0.219608 0.041176
0.873529 0.215686 0.034314
0.937255 0.207843 0.027451
0.989216 0.191176 0.021569
1.000000 0.170588 0.015686
0.056863 0.243137 0.106863
0.072059 0.243137 0.105882
0.096078 0.245098 0.104902
0.131373 0.248529 0.104902
0.184314 0.252941 0.101961
0.254902 0.256373 0.099510
0.324510 0.260784 0.098039
0.416667 0.268628 0.092157
0.508824 0.274510 0.085294
0.589706 0.278431 0.081863
0.655882 0.279412 0.076471
0.722059 0.279412 0.069608
0.787255 0.278431 0.063726
0.858824 0.275000 0.055882
0.922549 0.268628 0.048039
0.978921 0.253922 0.040686
1.000000 0.236275 0.030392
0.039216 0.301961 0.125490
0.047059 0.301961 0.125490
0.066667 0.303921 0.121568
0.101961 0.305882 0.121568
0.166666 0.309804 0.119608
0.241176 0.311764 0.117647
0.317647 0.317647 0.113725
0.412745 0.323530 0.109804
0.503922 0.327451 0.105882
0.578431 0.330392 0.100000
0.641177 0.331372 0.096079
0.708824 0.331372 0.089216
0.774510 0.331372 0.084314
0.844118 0.328431 0.077451
0.907843 0.323530 0.066667
0.963726 0.313725 0.058824
1.000000 0.298039 0.050980
0.004902 0.378432 0.140196
0.006373 0.378432 0.139215
0.008823 0.380392 0.138235
0.036274 0.381863 0.138235
0.116667 0.384314 0.136274
0.207843 0.387745 0.132843
0.298039 0.393137 0.129412
0.398529 0.398529 0.123530
0.484314 0.402942 0.120588
0.555882 0.403922 0.114216
0.618627 0.404902 0.111765
0.685294 0.403922 0.105882
0.750980 0.402942 0.101961
0.821078 0.398529 0.093628
0.883333 0.393137 0.088235
0.943627 0.382843 0.079902
0.996078 0.366667 0.071569
0.000000 0.447059 0.152941
0.000000 0.450000 0.150980
0.000000 0.450980 0.150980
0.023530 0.452941 0.149019
0.078431 0.454902 0.147059
0.170588 0.460785 0.144118
0.276470 0.466667 0.139215
0.379412 0.472549 0.134313
0.460785 0.476471 0.131373
0.527451 0.479411 0.126470
0.588235 0.482353 0.123530
0.656863 0.482353 0.117647
0.721569 0.482353 0.113726
0.791176 0.480392 0.106863
0.850980 0.474510 0.101961
0.914706 0.463726 0.096078
0.970588 0.449020 0.088235
0.000000 0.503922 0.165686
0.000000 0.503922 0.165686
0.000000 0.507843 0.164706
0.004902 0.508824 0.162255
0.040196 0.511765 0.159804
0.175490 0.517647 0.156372
0.286274 0.523529 0.150980
0.374020 0.528431 0.146568
0.447059 0.531373 0.142157
0.511275 0.535784 0.137745
0.570588 0.539216 0.135294
0.638235 0.542157 0.129412
0.700980 0.544118 0.125490
0.766176 0.546079 0.119608
0.823530 0.545098 0.113725
0.881863 0.540686 0.106863
0.937255 0.533334 0.100000
0.000000 0.552941 0.182353
0.000000 0.555883 0.180392
0.000000 0.556863 0.180392
0.012745 0.559804 0.178431
0.096078 0.564706 0.172549
0.200000 0.566666 0.170588
0.294118 0.572549 0.166666
0.369608 0.576471 0.162745
0.433334 0.580392 0.158824
0.500000 0.583333 0.152941
0.560784 0.588235 0.147059
0.626471 0.590196 0.140196
0.688236 0.594118 0.135294
0.750980 0.596078 0.129412
0.803922 0.596078 0.123530
0.859804 0.594118 0.115686
0.917647 0.592157 0.109804
0.000000 0.611765 0.197059
0.000000 0.611765 0.197059
0.000000 0.613725 0.196078
0.022059 0.616667 0.193627
0.107843 0.619608 0.193137
0.209314 0.623039 0.189216
0.289216 0.625490 0.184313
0.358333 0.630392 0.181863
0.418627 0.635294 0.179412
0.486765 0.638726 0.173529
0.547059 0.643137 0.168627
0.612745 0.646569 0.161274
0.672549 0.650000 0.155883
0.732843 0.650980 0.147549
0.784314 0.651961 0.140196
0.839706 0.650490 0.129902
0.898039 0.649019 0.117647
0.000000 0.666667 0.215686
0.000000 0.669608 0.213726
0.013725 0.670588 0.211765
0.070588 0.671569 0.211765
0.127451 0.674510 0.211765
0.209804 0.676470 0.207843
0.278431 0.678431 0.203922
0.347059 0.683334 0.202941
0.407843 0.686275 0.200000
0.476471 0.690196 0.194118
0.537255 0.694118 0.190196
0.600980 0.698039 0.184314
0.658824 0.701961 0.178431
0.713726 0.701961 0.169608
0.764706 0.701961 0.162745
0.819608 0.701961 0.150000
0.880392 0.701961 0.137255
0.000981 0.715686 0.237255
0.006372 0.715686 0.237255
0.026471 0.715686 0.237255
0.075000 0.716667 0.235784
0.146079 0.717647 0.234314
0.218137 0.720588 0.233823
0.281373 0.723529 0.228432
0.348529 0.726470 0.226470
0.407843 0.729412 0.224510
0.475490 0.734314 0.219608
0.533333 0.737255 0.215686
0.593137 0.742157 0.209804
0.646078 0.745098 0.203922
0.699510 0.748529 0.196569
0.748039 0.750000 0.190196
0.803431 0.752941 0.177941
0.868627 0.753921 0.161765
0.056863 0.756863 0.260784
0.067647 0.756863 0.258823
0.084314 0.756863 0.258823
0.119608 0.756863 0.258823
0.174510 0.760784 0.256862
0.238235 0.761764 0.255882
0.300000 0.764706 0.254902
0.360784 0.766666 0.251961
0.417647 0.772549 0.249020
0.480392 0.774510 0.245098
0.535294 0.780392 0.243137
0.590196 0.782353 0.236274
0.639216 0.786274 0.231373
0.689215 0.790196 0.223529
0.735294 0.792157 0.215686
0.794118 0.795098 0.203921
0.866667 0.800000 0.188236
0.065686 0.804902 0.286275
0.080392 0.807353 0.286275
0.108823 0.807843 0.285295
0.153921 0.807843 0.285295
0.203922 0.808824 0.285295
0.260784 0.811765 0.282843
0.313725 0.815686 0.279412
0.371569 0.817647 0.277941
0.425490 0.819608 0.275490
0.483824 0.824510 0.273039
0.532353 0.827451 0.269608
0.582353 0.830882 0.266177
0.627451 0.834313 0.259804
0.675490 0.837745 0.253922
0.722549 0.841176 0.248039
0.787255 0.844608 0.233333
0.870588 0.849020 0.214706
0.045098 0.874510 0.305882
0.060784 0.874510 0.305882
0.080392 0.876470 0.305882
0.118627 0.878431 0.305882
0.168627 0.878431 0.303921
0.232353 0.881373 0.303921
0.292157 0.882353 0.301961
0.347059 0.886275 0.300980
0.398039 0.890196 0.300000
0.451961 0.892157 0.297059
0.500000 0.894118 0.294118
0.547059 0.899020 0.288235
0.590196 0.901961 0.284314
0.639216 0.904902 0.277451
0.690196 0.909804 0.268628
0.765686 0.913725 0.254902
0.860785 0.919608 0.231372
0.000000 0.000000 0.062745
0.062745 0.000000 0.052941
0.133333 0.000000 0.050980
0.201960 0.000000 0.047059
0.266667 0.000000 0.047059
0.333334 0.000000 0.043137
0.396078 0.000000 0.043137
0.474510 0.001961 0.037255
0.560784 0.003922 0.027451
0.654902 0.013725 0.023529
0.725490 0.019608 0.019608
0.790196 0.031372 0.013725
0.850980 0.039216 0.011765
0.917647 0.050980 0.007843
0.976471 0.062745 0.003922
1.000000 0.070588 0.003922
1.000000 0.078431 0.000000
0.001961 0.029412 0.084313
0.037255 0.033333 0.078432
0.105882 0.037255 0.076470
0.176471 0.043137 0.074510
0.239215 0.047059 0.072549
0.304902 0.051961 0.070588
0.372549 0.056863 0.068628
0.450981 0.061765 0.063726
0.543138 0.068627 0.056862
0.640196 0.072549 0.049020
0.711765 0.072549 0.043137
0.782353 0.070588 0.038235
0.849020 0.064706 0.033334
0.917647 0.064706 0.026471
0.980392 0.064706 0.019607
1.000000 0.070588 0.012745
1.000000 0.078431 0.005882
0.011765 0.082353 0.098039
0.045098 0.090196 0.096078
0.094118 0.094118 0.094118
0.162745 0.098039 0.092157
0.223529 0.101961 0.090196
0.290196 0.103921 0.086275
0.360784 0.109804 0.086275
0.439215 0.113726 0.078431
0.533333 0.121569 0.074510
0.627451 0.125490 0.068628
0.698039 0.125490 0.062745
0.766667 0.125490 0.052941
0.835294 0.121569 0.047059
0.905883 0.113726 0.041177
0.968627 0.101961 0.035294
1.000000 0.084313 0.023530
1.000000 0.078431 0.015686
0.035294 0.141177 0.113726
0.068628 0.143137 0.112745
0.101961 0.147059 0.109804
0.153921 0.149019 0.109804
0.211764 0.150980 0.105882
0.278431 0.156863 0.103921
0.347058 0.158824 0.100000
0.429412 0.166666 0.098039
0.523529 0.174510 0.092157
0.614706 0.178431 0.084314
0.684314 0.178431 0.080393
0.752941 0.177451 0.073529
0.819608 0.174510 0.068628
0.893137 0.166666 0.059804
0.954902 0.154902 0.049020
0.998039 0.141177 0.041177
1.000000 0.115686 0.031372
0.062745 0.192157 0.129412
0.082353 0.194117 0.129412
0.109804 0.196078 0.125490
0.150980 0.198039 0.125490
0.200000 0.203922 0.125490
0.270589 0.205882 0.121569
0.337255 0.211765 0.117647
0.423530 0.213726 0.113726
0.517647 0.223529 0.105882
0.605882 0.225490 0.100000
0.670588 0.227451 0.094118
0.739216 0.225490 0.090196
0.803922 0.223529 0.086275
0.878432 0.217647 0.074510
0.941176 0.211765 0.066667
0.992157 0.194117 0.058824
1.000000 0.172549 0.047059
0.058824 0.243137 0.141176
0.074510 0.247059 0.141176
0.098039 0.247059 0.141176
0.133333 0.252941 0.139215
0.188235 0.254902 0.137255
0.257843 0.258823 0.134314
0.327451 0.262745 0.131373
0.420588 0.271569 0.127451
0.511764 0.278431 0.121568
0.594117 0.281373 0.116667
0.658824 0.282353 0.111765
0.725490 0.282353 0.104902
0.792156 0.282353 0.100000
0.862745 0.276471 0.094118
0.927451 0.270588 0.086275
0.982353 0.257843 0.077451
1.000000 0.237255 0.068628
0.031373 0.305882 0.156863
0.047059 0.305882 0.156863
0.066667 0.305882 0.156863
0.103921 0.309804 0.152941
0.168627 0.309804 0.152941
0.245098 0.315686 0.149019
0.321569 0.317647 0.145098
0.417647 0.323530 0.139215
0.505882 0.329412 0.133333
0.582353 0.333333 0.131373
0.647059 0.333333 0.125490
0.711765 0.333333 0.123529
0.776471 0.333333 0.117647
0.847058 0.331372 0.107843
0.909804 0.325490 0.101961
0.968627 0.315686 0.094117
1.000000 0.301961 0.086275
0.003921 0.378432 0.166666
0.005882 0.382353 0.166666
0.007843 0.382353 0.164706
0.039216 0.384314 0.164706
0.117647 0.386274 0.162745
0.210784 0.391176 0.159804
0.301961 0.394118 0.156863
0.400980 0.400000 0.151961
0.488235 0.405883 0.143137
0.557843 0.407843 0.140196
0.621569 0.409804 0.137255
0.688236 0.407843 0.132353
0.754902 0.405883 0.129412
0.825491 0.400000 0.123529
0.888235 0.396079 0.115686
0.946078 0.384314 0.108824
0.998039 0.372549 0.101961
0.000000 0.450980 0.176471
0.000000 0.450980 0.176471
0.000000 0.450980 0.176471
0.025490 0.454902 0.174510
0.082353 0.458824 0.172549
0.172549 0.460785 0.170588
0.286275 0.466667 0.164706
0.382353 0.472549 0.160784
0.462745 0.478431 0.156863
0.531373 0.480392 0.152941
0.592157 0.482353 0.145098
0.658824 0.486275 0.141176
0.725490 0.486275 0.137255
0.794118 0.482353 0.131373
0.854902 0.478431 0.125490
0.915686 0.466666 0.123529
0.972549 0.450980 0.117647
0.000000 0.503922 0.196078
0.000000 0.506863 0.194117
0.000000 0.507843 0.194117
0.004902 0.509804 0.192157
0.047059 0.511765 0.188235
0.179412 0.517647 0.185294
0.290196 0.523529 0.180392
0.379412 0.529412 0.175490
0.450981 0.533333 0.170588
0.514706 0.537255 0.166666
0.572549 0.539216 0.162745
0.641176 0.543137 0.155882
0.703921 0.547059 0.149019
0.768627 0.547059 0.144118
0.825491 0.547059 0.137255
0.885294 0.542157 0.130392
0.939215 0.535294 0.123529
0.000000 0.556863 0.207843
0.000000 0.556863 0.207843
0.000000 0.556863 0.207843
0.015686 0.560784 0.207843
0.101961 0.564706 0.203922
0.205882 0.570588 0.201961
0.298039 0.572549 0.196078
0.374509 0.578431 0.194117
0.435294 0.580392 0.192157
0.503922 0.584314 0.184314
0.564706 0.588235 0.180392
0.629412 0.592157 0.174510
0.690196 0.596078 0.168627
0.752941 0.596078 0.162745
0.807843 0.596078 0.152941
0.862745 0.596078 0.141176
0.921569 0.592157 0.133333
0.000000 0.611765 0.227451
0.000000 0.613725 0.227451
0.001961 0.615686 0.223529
0.026471 0.617647 0.222549
0.113726 0.619608 0.221569
0.216667 0.624510 0.217647
0.294118 0.627451 0.213726
0.361765 0.632353 0.212745
0.423530 0.635294 0.209804
0.490196 0.641177 0.205883
0.552941 0.643137 0.201960
0.617647 0.648039 0.196078
0.676470 0.650980 0.188235
0.735294 0.651961 0.182353
0.788235 0.652942 0.174509
0.843137 0.651961 0.165686
0.901961 0.649019 0.154902
0.000000 0.670588 0.243137
0.001961 0.670588 0.243137
0.019608 0.670588 0.243137
0.076470 0.672549 0.243137
0.133333 0.674510 0.239216
0.217647 0.678431 0.239216
0.282353 0.682353 0.235294
0.352942 0.684314 0.231372
0.411765 0.686275 0.227451
0.480393 0.692157 0.223529
0.541176 0.694118 0.219608
0.605882 0.700000 0.213726
0.662745 0.701961 0.211765
0.717647 0.701961 0.203922
0.768627 0.701961 0.196078
0.823530 0.701961 0.186275
0.886275 0.701961 0.172549
0.001961 0.715686 0.264706
0.012745 0.715686 0.262745
0.035294 0.715686 0.262745
0.083333 0.716667 0.262745
0.152941 0.717647 0.262745
0.225490 0.720588 0.258823
0.288235 0.723529 0.258823
0.352941 0.726470 0.254902
0.413725 0.731372 0.254902
0.478432 0.734314 0.249020
0.537255 0.739216 0.247059
0.598039 0.743137 0.241177
0.650980 0.747059 0.235294
0.702941 0.749019 0.229412
0.750981 0.750981 0.221569
0.806863 0.752941 0.211765
0.872549 0.754902 0.200000
0.066667 0.756863 0.290196
0.074510 0.756863 0.290196
0.094118 0.756863 0.290196
0.127451 0.758823 0.290196
0.184314 0.760784 0.290196
0.245098 0.762745 0.286275
0.305882 0.764706 0.286275
0.366667 0.768627 0.282353
0.423529 0.772549 0.278431
0.486275 0.774510 0.274510
0.541176 0.780392 0.270588
0.594118 0.782353 0.266667
0.643137 0.788235 0.262745
0.694117 0.790196 0.256863
0.741176 0.792157 0.250980
0.798040 0.796078 0.239215
0.870588 0.800000 0.223529
0.078432 0.807843 0.317647
0.097059 0.807843 0.317647
0.125490 0.807843 0.317647
0.165687 0.807843 0.316666
0.211764 0.811765 0.315686
0.267647 0.811765 0.313725
0.321569 0.815686 0.313725
0.378431 0.817647 0.311765
0.431373 0.821569 0.309804
0.489216 0.825490 0.306863
0.537254 0.827451 0.303921
0.586275 0.832353 0.300980
0.633333 0.835294 0.296079
0.680392 0.838236 0.288235
0.727451 0.841176 0.282353
0.792157 0.845098 0.270589
0.874510 0.850981 0.250980
0.058824 0.874510 0.337255
0.074510 0.876470 0.337255
0.094118 0.878431 0.337255
0.127450 0.878431 0.335294
0.180392 0.878431 0.333333
0.241177 0.882353 0.333333
0.298039 0.882353 0.333333
0.352941 0.888235 0.331372
0.403922 0.890196 0.329412
0.456863 0.894118 0.327451
0.505882 0.898039 0.325490
0.552941 0.900000 0.321569
0.596078 0.901961 0.317647
0.643137 0.905882 0.311764
0.694118 0.909804 0.305882
0.770588 0.915686 0.292157
0.866667 0.921569 0.266667
0.000000 0.000000 0.113726
0.065687 0.000000 0.108823
0.139215 0.000000 0.107843
0.210784 0.000000 0.102941
0.270588 0.000000 0.101961
0.339216 0.000000 0.099019
0.401961 0.000000 0.096079
0.480392 0.001961 0.090196
0.566666 0.003922 0.086275
0.661765 0.013725 0.077451
0.733333 0.019608 0.072549
0.798039 0.031372 0.066667
0.860785 0.039216 0.058824
0.926471 0.049019 0.050000
0.984314 0.062745 0.045098
1.000000 0.070588 0.032353
1.000000 0.078431 0.025490
0.001961 0.033333 0.133333
0.042647 0.037745 0.131863
0.108823 0.043137 0.129411
