luts/Vivid_Grain.CUBE
# kravix mobile - LUTs Pack
LUT_3D_SIZE 9
0.000000 0.000000 0.000000
0.117647 0.000000 0.000000
0.250980 0.000000 0.000000
0.376471 0.000000 0.000000
0.541176 0.003922 0.000000
0.705882 0.023529 0.000000
0.835294 0.039216 0.000000
0.956863 0.062745 0.000000
1.000000 0.078431 0.000000
0.007843 0.074510 0.003922
0.082353 0.082353 0.000000
0.215686 0.094118 0.000000
0.345098 0.101961 0.000000
0.517647 0.109804 0.000000
0.686275 0.117647 0.000000
0.823529 0.109804 0.000000
0.956863 0.094118 0.000000
1.000000 0.078431 0.000000
0.062745 0.188235 0.043137
0.105882 0.192157 0.043137
0.196078 0.196078 0.039216
0.329412 0.203922 0.035294
0.509804 0.215686 0.023529
0.662745 0.219608 0.015686
0.796078 0.215686 0.007843
0.937255 0.203922 0.003922
1.000000 0.168627 0.000000
0.039216 0.298039 0.094118
0.066667 0.301961 0.094118
0.164706 0.305882 0.094118
0.313725 0.313725 0.086275
0.501961 0.325490 0.074510
0.639216 0.329412 0.066667
0.768627 0.329412 0.054902
0.901961 0.321569 0.039216
1.000000 0.298039 0.023529
0.000000 0.447059 0.133333
0.000000 0.450980 0.129412
0.078431 0.454902 0.129412
0.274510 0.462745 0.121569
0.458824 0.474510 0.109804
0.588235 0.478431 0.101961
0.721569 0.482353 0.094118
0.850980 0.474510 0.078431
0.968627 0.447059 0.066667
0.000000 0.552941 0.160784
0.000000 0.556863 0.160784
0.090196 0.560784 0.156863
0.290196 0.572549 0.145098
0.431373 0.580392 0.137255
0.556863 0.588235 0.129412
0.686275 0.592157 0.121569
0.803922 0.596078 0.105882
0.913725 0.588235 0.094118
0.000000 0.666667 0.196078
0.007843 0.670588 0.196078
0.125490 0.674510 0.192157
0.274510 0.678431 0.188235
0.403922 0.686275 0.176471
0.533333 0.694118 0.168627
0.654902 0.701961 0.156863
0.760784 0.701961 0.137255
0.878431 0.701961 0.109804
0.050980 0.756863 0.243137
0.078431 0.756863 0.243137
0.168627 0.760784 0.239216
0.294118 0.764706 0.235294
0.415686 0.772549 0.227451
0.533333 0.780392 0.219608
0.635294 0.784314 0.211765
0.733333 0.792157 0.196078
0.862745 0.800000 0.164706
0.035294 0.874510 0.286275
0.074510 0.874510 0.286275
0.160784 0.878431 0.278431
0.282353 0.882353 0.278431
0.396078 0.890196 0.274510
0.498039 0.894118 0.266667
0.588235 0.901961 0.258824
0.686275 0.905882 0.243137
0.858824 0.917647 0.203922
0.000000 0.000000 0.062745
0.133333 0.000000 0.050980
0.266667 0.000000 0.047059
0.396078 0.000000 0.043137
0.560784 0.003922 0.027451
0.725490 0.019608 0.019608
0.850980 0.039216 0.011765
0.976471 0.062745 0.003922
1.000000 0.078431 0.000000
0.011765 0.082353 0.098039
0.094118 0.094118 0.094118
0.223529 0.101961 0.090196
0.360784 0.109804 0.086275
0.533333 0.121569 0.074510
0.698039 0.125490 0.062745
0.835294 0.121569 0.047059
0.968627 0.101961 0.035294
1.000000 0.078431 0.015686
0.062745 0.192157 0.129412
0.109804 0.196078 0.125490
0.200000 0.203922 0.125490
0.337255 0.211765 0.117647
0.517647 0.223529 0.105882
0.670588 0.227451 0.094118
0.803922 0.223529 0.086275
0.941176 0.211765 0.066667
1.000000 0.172549 0.047059
0.031373 0.305882 0.156863
0.066667 0.305882 0.156863
0.168627 0.309804 0.152941
0.321569 0.317647 0.145098
0.505882 0.329412 0.133333
0.647059 0.333333 0.125490
0.776471 0.333333 0.117647
0.909804 0.325490 0.101961
1.000000 0.301961 0.086275
0.000000 0.450980 0.176471
0.000000 0.450980 0.176471
0.082353 0.458824 0.172549
0.286275 0.466667 0.164706
0.462745 0.478431 0.156863
0.592157 0.482353 0.145098
0.725490 0.486275 0.137255
0.854902 0.478431 0.125490
0.972549 0.450980 0.117647
0.000000 0.556863 0.207843
0.000000 0.556863 0.207843
0.101961 0.564706 0.203922
0.298039 0.572549 0.196078
0.435294 0.580392 0.192157
0.564706 0.588235 0.180392
0.690196 0.596078 0.168627
0.807843 0.596078 0.152941
0.921569 0.592157 0.133333
0.000000 0.670588 0.243137
0.019608 0.670588 0.243137
0.133333 0.674510 0.239216
0.282353 0.682353 0.235294
0.411765 0.686275 0.227451
0.541176 0.694118 0.219608
0.662745 0.701961 0.211765
0.768627 0.701961 0.196078
0.886275 0.701961 0.172549
0.066667 0.756863 0.290196
0.094118 0.756863 0.290196
0.184314 0.760784 0.290196
0.305882 0.764706 0.286275
0.423529 0.772549 0.278431
0.541176 0.780392 0.270588
0.643137 0.788235 0.262745
0.741176 0.792157 0.250980
0.870588 0.800000 0.223529
0.058824 0.874510 0.337255
0.094118 0.878431 0.337255
0.180392 0.878431 0.333333
0.298039 0.882353 0.333333
0.403922 0.890196 0.329412
0.505882 0.898039 0.325490
0.596078 0.901961 0.317647
0.694118 0.909804 0.305882
0.866667 0.921569 0.266667
0.000000 0.000000 0.164706
0.141176 0.000000 0.156863
0.274510 0.000000 0.152941
0.407843 0.000000 0.141176
0.572549 0.003922 0.133333
0.741176 0.019608 0.121569
0.866667 0.039216 0.109804
0.992157 0.062745 0.094118
1.000000 0.078431 0.074510
0.015686 0.094118 0.192157
0.101961 0.101961 0.188235
0.227451 0.109804 0.180392
0.368627 0.121569 0.176471
0.541176 0.129412 0.168627
0.705882 0.133333 0.156863
0.843137 0.129412 0.141176
0.980392 0.109804 0.129412
1.000000 0.078431 0.109804
0.066667 0.200000 0.211765
0.117647 0.200000 0.211765
0.207843 0.207843 0.207843
0.345098 0.215686 0.203922
0.525490 0.227451 0.196078
0.682353 0.239216 0.180392
0.815686 0.235294 0.172549
0.949020 0.219608 0.160784
1.000000 0.180392 0.149020
0.027451 0.309804 0.239216
0.062745 0.313725 0.239216
0.176471 0.317647 0.239216
0.329412 0.325490 0.227451
0.513725 0.337255 0.219608
0.654902 0.341176 0.211765
0.788235 0.341176 0.203922
0.921569 0.333333 0.192157
1.000000 0.309804 0.176471
0.000000 0.454902 0.266667
0.000000 0.458824 0.266667
0.090196 0.462745 0.262745
0.294118 0.474510 0.258824
0.470588 0.482353 0.250980
0.600000 0.490196 0.243137
0.733333 0.490196 0.235294
0.862745 0.486275 0.219608
0.980392 0.458824 0.203922
0.000000 0.560784 0.301961
0.000000 0.560784 0.298039
0.113725 0.568627 0.298039
0.313725 0.576471 0.290196
0.450980 0.584314 0.286275
0.576471 0.592157 0.274510
0.701961 0.600000 0.266667
0.819608 0.600000 0.258824
0.933333 0.596078 0.243137
0.003922 0.670588 0.341176
0.047059 0.674510 0.337255
0.164706 0.678431 0.337255
0.305882 0.682353 0.333333
0.427451 0.690196 0.329412
0.552941 0.698039 0.325490
0.674510 0.701961 0.317647
0.780392 0.705882 0.309804
0.898039 0.705882 0.290196
0.094118 0.756863 0.396078
0.129412 0.756863 0.396078
0.219608 0.760784 0.396078
0.329412 0.764706 0.392157
0.447059 0.772549 0.388235
0.556863 0.780392 0.384314
0.658824 0.788235 0.380392
0.756863 0.796078 0.372549
0.890196 0.800000 0.352941
0.101961 0.878431 0.431373
0.125490 0.882353 0.431373
0.215686 0.882353 0.431373
0.317647 0.886275 0.427451
0.423529 0.894118 0.423529
0.517647 0.901961 0.423529
0.607843 0.905882 0.415686
0.709804 0.913725 0.407843
0.882353 0.925490 0.384314
0.000000 0.000000 0.254902
0.152941 0.000000 0.247059
0.286275 0.000000 0.243137
0.415686 0.003922 0.239216
0.588235 0.003922 0.227451
0.752941 0.019608 0.215686
0.882353 0.039216 0.207843
1.000000 0.062745 0.196078
1.000000 0.078431 0.176471
0.023529 0.105882 0.286275
0.105882 0.109804 0.278431
0.239216 0.121569 0.274510
0.372549 0.129412 0.270588
0.552941 0.141176 0.262745
0.717647 0.145098 0.254902
0.854902 0.137255 0.247059
0.992157 0.121569 0.235294
1.000000 0.078431 0.219608
0.066667 0.207843 0.309804
0.117647 0.207843 0.309804
0.215686 0.215686 0.305882
0.356863 0.223529 0.301961
0.537255 0.239216 0.294118
0.690196 0.247059 0.286275
0.827451 0.243137 0.274510
0.960784 0.231373 0.266667
1.000000 0.192157 0.254902
0.023529 0.321569 0.341176
0.050980 0.321569 0.341176
0.180392 0.329412 0.337255
0.337255 0.337255 0.337255
0.525490 0.345098 0.329412
0.662745 0.352941 0.321569
0.800000 0.352941 0.313725
0.933333 0.341176 0.305882
1.000000 0.317647 0.294118
0.000000 0.462745 0.384314
0.007843 0.462745 0.384314
0.098039 0.470588 0.380392
0.309804 0.478431 0.376471
0.486275 0.490196 0.372549
0.611765 0.498039 0.368627
0.745098 0.501961 0.360784
0.874510 0.494118 0.352941
0.992157 0.470588 0.337255
0.000000 0.564706 0.427451
0.003922 0.564706 0.427451
0.141176 0.572549 0.423529
0.333333 0.580392 0.419608
0.470588 0.592157 0.419608
0.592157 0.596078 0.415686
0.721569 0.603922 0.407843
0.835294 0.607843 0.400000
0.945098 0.600000 0.388235
0.027451 0.674510 0.470588
0.082353 0.678431 0.466667
0.203922 0.682353 0.466667
0.329412 0.686275 0.462745
0.450980 0.694118 0.462745
0.572549 0.701961 0.458824
0.690196 0.705882 0.450980
0.796078 0.709804 0.447059
0.917647 0.709804 0.431373
0.129412 0.760784 0.498039
0.172549 0.760784 0.498039
0.250980 0.764706 0.498039
0.349020 0.768627 0.494118
0.462745 0.776471 0.494118
0.572549 0.784314 0.490196
0.674510 0.792157 0.486275
0.772549 0.796078 0.478431
0.905882 0.803922 0.466667
0.113725 0.886275 0.517647
0.156863 0.886275 0.517647
0.239216 0.890196 0.517647
0.333333 0.894118 0.513725
0.435294 0.898039 0.513725
0.529412 0.905882 0.509804
0.619608 0.913725 0.505882
0.721569 0.921569 0.498039
0.898039 0.929412 0.482353
0.000000 0.000000 0.352941
0.160784 0.000000 0.345098
0.290196 0.003922 0.345098
0.423529 0.003922 0.341176
0.600000 0.011765 0.333333
0.768627 0.019608 0.325490
0.898039 0.039216 0.321569
1.000000 0.062745 0.309804
1.000000 0.078431 0.298039
0.027451 0.117647 0.396078
0.117647 0.125490 0.392157
0.247059 0.133333 0.392157
0.384314 0.141176 0.392157
0.564706 0.156863 0.384314
0.729412 0.160784 0.380392
0.866667 0.152941 0.372549
1.000000 0.133333 0.364706
1.000000 0.090196 0.352941
0.070588 0.215686 0.439216
0.121569 0.219608 0.439216
0.223529 0.223529 0.431373
0.364706 0.239216 0.431373
0.549020 0.250980 0.427451
0.705882 0.254902 0.419608
0.839216 0.254902 0.415686
0.976471 0.243137 0.407843
1.000000 0.203922 0.396078
0.023529 0.333333 0.478431
0.047059 0.333333 0.478431
0.192157 0.341176 0.474510
0.345098 0.345098 0.474510
0.537255 0.360784 0.466667
0.678431 0.364706 0.462745
0.811765 0.364706 0.458824
0.941176 0.356863 0.450980
1.000000 0.325490 0.443137
0.000000 0.466667 0.509804
0.019608 0.470588 0.509804
0.105882 0.474510 0.509804
0.321569 0.486275 0.501961
0.498039 0.498039 0.498039
0.627451 0.505882 0.494118
0.760784 0.509804 0.490196
0.886275 0.505882 0.482353
1.000000 0.482353 0.474510
0.000000 0.568627 0.537255
0.011765 0.572549 0.537255
0.156863 0.580392 0.533333
0.345098 0.588235 0.529412
0.482353 0.596078 0.525490
0.603922 0.603922 0.521569
0.733333 0.611765 0.517647
0.847059 0.611765 0.509804
0.960784 0.607843 0.501961
0.047059 0.678431 0.560784
0.094118 0.682353 0.560784
0.219608 0.686275 0.556863
0.341176 0.690196 0.556863
0.462745 0.698039 0.552941
0.584314 0.701961 0.549020
0.701961 0.709804 0.545098
0.807843 0.713725 0.537255
0.929412 0.713725 0.529412
0.164706 0.764706 0.584314
0.200000 0.764706 0.584314
0.270588 0.768627 0.584314
0.368627 0.772549 0.580392
0.478431 0.780392 0.576471
0.588235 0.788235 0.576471
0.686275 0.796078 0.572549
0.784314 0.800000 0.564706
0.925490 0.807843 0.556863
0.141176 0.890196 0.603922
0.180392 0.894118 0.603922
0.258824 0.894118 0.603922
0.349020 0.901961 0.600000
0.450980 0.905882 0.600000
0.541176 0.913725 0.596078
0.627451 0.921569 0.592157
0.733333 0.925490 0.588235
0.917647 0.941176 0.572549
0.000000 0.000000 0.486275
0.164706 0.003922 0.482353
0.298039 0.007843 0.482353
0.431373 0.011765 0.478431
0.611765 0.023529 0.474510
0.784314 0.023529 0.466667
0.917647 0.039216 0.462745
1.000000 0.062745 0.454902
1.000000 0.078431 0.447059
0.039216 0.129412 0.525490
0.121569 0.137255 0.521569
0.250980 0.145098 0.521569
0.388235 0.156863 0.517647
0.572549 0.168627 0.513725
0.741176 0.172549 0.505882
0.878431 0.168627 0.501961
1.000000 0.152941 0.494118
1.000000 0.105882 0.486275
0.062745 0.223529 0.549020
0.117647 0.227451 0.549020
0.227451 0.239216 0.549020
0.368627 0.247059 0.545098
0.556863 0.262745 0.537255
0.713725 0.266667 0.533333
0.850980 0.266667 0.525490
0.984314 0.254902 0.521569
1.000000 0.219608 0.513725
0.015686 0.345098 0.576471
0.023529 0.352941 0.576471
0.180392 0.356863 0.572549
0.341176 0.364706 0.568627
0.541176 0.376471 0.564706
0.682353 0.380392 0.560784
0.819608 0.376471 0.552941
0.949020 0.368627 0.549020
1.000000 0.341176 0.541176
0.000000 0.474510 0.600000
0.019608 0.478431 0.600000
0.101961 0.482353 0.596078
0.325490 0.494118 0.592157
0.501961 0.505882 0.588235
0.631373 0.513725 0.584314
0.768627 0.521569 0.580392
0.894118 0.517647 0.572549
1.000000 0.498039 0.568627
0.000000 0.576471 0.623529
0.011765 0.580392 0.623529
0.156863 0.584314 0.623529
0.352941 0.596078 0.619608
0.486275 0.603922 0.615686
0.611765 0.611765 0.611765
0.741176 0.619608 0.607843
0.858824 0.619608 0.600000
0.972549 0.615686 0.596078
0.050980 0.682353 0.650980
0.101961 0.686275 0.650980
0.235294 0.690196 0.650980
0.356863 0.698039 0.647059
0.474510 0.701961 0.647059
0.596078 0.709804 0.639216
0.713725 0.717647 0.635294
0.819608 0.721569 0.631373
0.941176 0.721569 0.623529
0.184314 0.764706 0.678431
0.219608 0.768627 0.678431
0.290196 0.772549 0.678431
0.384314 0.776471 0.674510
0.490196 0.784314 0.674510
0.600000 0.792157 0.670588
0.701961 0.800000 0.666667
0.796078 0.803922 0.662745
0.937255 0.811765 0.654902
0.164706 0.898039 0.698039
0.200000 0.901961 0.698039
0.270588 0.901961 0.694118
0.364706 0.905882 0.694118
0.462745 0.913725 0.694118
0.552941 0.921569 0.690196
0.639216 0.929412 0.686275
0.741176 0.937255 0.682353
0.933333 0.945098 0.670588
0.000000 0.003922 0.588235
0.160784 0.011765 0.584314
0.298039 0.019608 0.580392
0.435294 0.023529 0.576471
0.615686 0.043137 0.572549
0.792157 0.043137 0.564706
0.929412 0.039216 0.556863
1.000000 0.062745 0.552941
1.000000 0.078431 0.545098
0.035294 0.145098 0.615686
0.121569 0.152941 0.611765
0.243137 0.164706 0.611765
0.388235 0.172549 0.607843
0.572549 0.188235 0.603922
0.745098 0.196078 0.596078
0.886275 0.188235 0.592157
1.000000 0.168627 0.584314
1.000000 0.129412 0.576471
0.054902 0.243137 0.639216
0.098039 0.247059 0.639216
0.219608 0.254902 0.635294
0.364706 0.262745 0.635294
0.556863 0.274510 0.627451
0.717647 0.286275 0.623529
0.854902 0.286275 0.615686
0.992157 0.270588 0.611765
1.000000 0.239216 0.607843
0.003922 0.364706 0.670588
0.007843 0.368627 0.666667
0.160784 0.376471 0.666667
0.329412 0.384314 0.662745
0.537255 0.396078 0.658824
0.682353 0.396078 0.654902
0.823529 0.396078 0.647059
0.956863 0.384314 0.639216
1.000000 0.360784 0.635294
0.000000 0.482353 0.694118
0.007843 0.486275 0.694118
0.082353 0.494118 0.694118
0.321569 0.501961 0.690196
0.505882 0.517647 0.682353
0.639216 0.525490 0.678431
0.772549 0.529412 0.674510
0.901961 0.529412 0.670588
1.000000 0.513725 0.666667
0.000000 0.584314 0.713725
0.003922 0.584314 0.713725
0.137255 0.592157 0.713725
0.352941 0.603922 0.709804
0.490196 0.611765 0.709804
0.615686 0.619608 0.705882
0.749020 0.627451 0.701961
0.866667 0.631373 0.698039
0.980392 0.623529 0.694118
0.050980 0.690196 0.737255
0.094118 0.690196 0.737255
0.239216 0.694118 0.733333
0.360784 0.701961 0.733333
0.478431 0.705882 0.729412
0.603922 0.713725 0.725490
0.721569 0.721569 0.721569
0.831373 0.729412 0.717647
0.952941 0.729412 0.713725
0.196078 0.768627 0.756863
0.227451 0.772549 0.756863
0.301961 0.776471 0.756863
0.392157 0.780392 0.752941
0.498039 0.788235 0.752941
0.607843 0.796078 0.749020
0.709804 0.803922 0.745098
0.807843 0.811765 0.741176
0.952941 0.819608 0.733333
0.168627 0.905882 0.772549
0.203922 0.909804 0.772549
0.274510 0.909804 0.768627
0.368627 0.917647 0.768627
0.466667 0.921569 0.768627
0.556863 0.929412 0.764706
0.643137 0.937255 0.764706
0.749020 0.941176 0.760784
0.949020 0.956863 0.749020
0.000000 0.015686 0.678431
0.152941 0.027451 0.674510
0.290196 0.039216 0.674510
0.427451 0.050980 0.670588
0.611765 0.066667 0.666667
0.792157 0.070588 0.658824
0.933333 0.066667 0.654902
1.000000 0.058824 0.647059
1.000000 0.078431 0.639216
0.023529 0.164706 0.705882
0.109804 0.172549 0.705882
0.227451 0.180392 0.701961
0.380392 0.192157 0.701961
0.568627 0.207843 0.698039
0.745098 0.215686 0.690196
0.886275 0.211765 0.686275
1.000000 0.196078 0.682353
1.000000 0.152941 0.678431
0.047059 0.258824 0.729412
0.090196 0.262745 0.729412
0.200000 0.270588 0.729412
0.356863 0.278431 0.725490
0.552941 0.298039 0.717647
0.717647 0.305882 0.713725
0.858824 0.305882 0.709804
0.996078 0.294118 0.709804
1.000000 0.262745 0.701961
0.000000 0.384314 0.752941
0.000000 0.388235 0.752941
0.129412 0.392157 0.752941
0.309804 0.403922 0.749020
0.525490 0.415686 0.741176
0.678431 0.419608 0.737255
0.819608 0.419608 0.733333
0.956863 0.407843 0.729412
1.000000 0.380392 0.725490
0.000000 0.494118 0.776471
0.000000 0.494118 0.776471
0.031373 0.501961 0.772549
0.305882 0.513725 0.768627
0.501961 0.529412 0.764706
0.639216 0.537255 0.760784
0.776471 0.545098 0.756863
0.905882 0.545098 0.752941
1.000000 0.533333 0.745098
0.000000 0.592157 0.796078
0.000000 0.592157 0.796078
0.094118 0.600000 0.792157
0.337255 0.611765 0.788235
0.486275 0.619608 0.784314
0.615686 0.631373 0.780392
0.749020 0.639216 0.776471
0.870588 0.643137 0.772549
0.988235 0.635294 0.768627
0.015686 0.694118 0.811765
0.058824 0.698039 0.811765
0.219608 0.701961 0.807843
0.356863 0.705882 0.807843
0.478431 0.713725 0.803922
0.603922 0.721569 0.800000
0.725490 0.729412 0.796078
0.835294 0.737255 0.792157
0.960784 0.737255 0.788235
0.180392 0.776471 0.827451
0.219608 0.776471 0.827451
0.294118 0.780392 0.827451
0.388235 0.784314 0.827451
0.501961 0.792157 0.823529
0.611765 0.800000 0.819608
0.717647 0.807843 0.819608
0.815686 0.815686 0.815686
0.964706 0.823529 0.807843
0.149020 0.917647 0.843137
0.184314 0.917647 0.843137
0.262745 0.921569 0.843137
0.360784 0.925490 0.843137
0.462745 0.933333 0.843137
0.556863 0.941176 0.839216
0.647059 0.945098 0.839216
0.752941 0.952941 0.835294
0.964706 0.968627 0.827451
0.000000 0.047059 0.764706
0.125490 0.054902 0.760784
0.270588 0.070588 0.760784
0.415686 0.078431 0.756863
0.603922 0.094118 0.749020
0.788235 0.101961 0.745098
0.933333 0.098039 0.737255
1.000000 0.074510 0.733333
1.000000 0.074510 0.729412
0.007843 0.188235 0.792157
0.082353 0.196078 0.788235
0.203922 0.203922 0.788235
0.360784 0.215686 0.784314
0.556863 0.227451 0.776471
0.741176 0.243137 0.772549
0.882353 0.239216 0.764706
1.000000 0.223529 0.760784
1.000000 0.180392 0.756863
0.015686 0.278431 0.811765
0.050980 0.286275 0.811765
0.156863 0.298039 0.807843
0.325490 0.305882 0.803922
0.533333 0.321569 0.796078
0.709804 0.329412 0.792157
0.854902 0.329412 0.788235
0.992157 0.321569 0.780392
1.000000 0.294118 0.776471
0.000000 0.403922 0.831373
0.000000 0.407843 0.827451
0.054902 0.415686 0.827451
0.266667 0.423529 0.823529
0.501961 0.443137 0.815686
0.662745 0.450980 0.811765
0.807843 0.450980 0.807843
0.949020 0.443137 0.803922
1.000000 0.407843 0.800000
0.000000 0.505882 0.847059
0.000000 0.505882 0.847059
0.000000 0.513725 0.847059
0.262745 0.525490 0.843137
0.486275 0.541176 0.835294
0.627451 0.549020 0.831373
0.772549 0.560784 0.827451
0.901961 0.560784 0.823529
1.000000 0.552941 0.819608
0.000000 0.600000 0.866667
0.000000 0.603922 0.866667
0.015686 0.611765 0.862745
0.305882 0.623529 0.858824
0.474510 0.635294 0.854902
0.607843 0.643137 0.854902
0.745098 0.654902 0.850980
0.866667 0.658824 0.847059
0.992157 0.654902 0.843137
0.000000 0.698039 0.890196
0.000000 0.701961 0.890196
0.168627 0.705882 0.886275
0.333333 0.709804 0.886275
0.466667 0.721569 0.882353
0.596078 0.729412 0.882353
0.725490 0.741176 0.878431
0.839216 0.745098 0.878431
0.968627 0.749020 0.874510
0.133333 0.780392 0.921569
0.180392 0.780392 0.921569
0.266667 0.784314 0.921569
0.372549 0.792157 0.921569
0.490196 0.800000 0.921569
0.611765 0.807843 0.921569
0.721569 0.815686 0.921569
0.823529 0.823529 0.925490
0.980392 0.835294 0.921569
0.098039 0.925490 0.968627
0.133333 0.929412 0.968627
0.227451 0.929412 0.968627
0.341176 0.937255 0.972549
0.454902 0.941176 0.972549
0.556863 0.949020 0.976471
0.650980 0.956863 0.980392
0.760784 0.968627 0.988235
1.000000 0.992157 0.992157
