luts/Vivid Marine.CUBE
# kravix mobile - LUTs Pack
LUT_3D_SIZE 17
0.000000 0.000000 0.000000
0.091615 0.000000 0.000000
0.170242 0.000000 0.000000
0.243477 0.000000 0.000000
0.314323 0.000000 0.000000
0.383467 0.000000 0.000000
0.451027 0.000000 0.000000
0.516760 0.000000 0.000000
0.580750 0.000000 0.000000
0.643036 0.000000 0.000000
0.703900 0.000000 0.000000
0.763586 0.000000 0.000000
0.822334 0.000000 0.000000
0.880298 0.000000 0.000000
0.937775 0.000000 0.000000
0.993477 0.000000 0.000000
1.000000 0.000000 0.000000
0.000000 0.069803 0.000000
0.083081 0.066781 0.000000
0.166047 0.061245 0.000000
0.240867 0.051425 0.000000
0.312480 0.035515 0.000000
0.382125 0.013983 0.000000
0.449937 0.000000 0.000000
0.515908 0.000000 0.000000
0.580042 0.000000 0.000000
0.642441 0.000000 0.000000
0.703392 0.000000 0.000000
0.763124 0.000000 0.000000
0.821949 0.000000 0.000000
0.879980 0.000000 0.000000
0.937475 0.000000 0.000000
0.993230 0.000000 0.000000
1.000000 0.000000 0.000000
0.000000 0.138225 0.000000
0.065895 0.136606 0.000000
0.158247 0.133632 0.000000
0.236149 0.128640 0.000000
0.309212 0.121119 0.000000
0.379680 0.110409 0.000000
0.448004 0.094924 0.000000
0.514371 0.072705 0.000017
0.578770 0.043205 0.000027
0.641384 0.006429 0.000015
0.702489 0.000000 0.000000
0.762362 0.000000 0.000000
0.821242 0.000000 0.000000
0.879348 0.000000 0.000000
0.936905 0.000000 0.000000
0.992766 0.000000 0.000000
1.000000 0.000000 0.000000
0.000000 0.206476 0.000000
0.032401 0.205418 0.000000
0.144341 0.203527 0.000000
0.228228 0.200359 0.000000
0.303739 0.195683 0.000000
0.375609 0.189272 0.000000
0.444879 0.180791 0.000000
0.511840 0.169756 0.000000
0.576716 0.155449 0.000031
0.639653 0.136591 0.000031
0.700997 0.110085 0.000031
0.761061 0.075183 0.000025
0.820138 0.031267 0.000050
0.878334 0.000000 0.000000
0.935996 0.000000 0.000000
0.991995 0.000000 0.000000
1.000000 0.000000 0.000000
0.000000 0.274422 0.000000
0.000830 0.273647 0.000000
0.120694 0.272281 0.000000
0.216115 0.270009 0.000000
0.295672 0.266739 0.000000
0.369690 0.262278 0.000000
0.440298 0.256537 0.000000
0.508196 0.249220 0.000000
0.573711 0.240135 0.000004
0.637137 0.229026 0.000031
0.698876 0.215361 0.000031
0.759244 0.198405 0.000031
0.818485 0.177084 0.000044
0.876912 0.148896 0.000061
0.934708 0.107724 0.000059
0.990895 0.066017 0.000046
1.000000 0.000000 0.000000
0.000000 0.341734 0.000000
0.000000 0.341126 0.000000
0.080821 0.340108 0.000000
0.198275 0.338379 0.000000
0.284349 0.335914 0.000000
0.361561 0.332580 0.000000
0.434079 0.328268 0.000000
0.503257 0.322911 0.000000
0.569705 0.316406 0.000000
0.633807 0.308487 0.000019
0.696014 0.299049 0.000031
0.756762 0.287851 0.000031
0.816317 0.274679 0.000033
0.874960 0.258783 0.000061
0.932981 0.239893 0.000061
0.989425 0.216889 0.000061
1.000000 0.187515 0.000061
0.000000 0.408245 0.000000
0.000000 0.407751 0.000000
0.014890 0.406951 0.000000
0.171820 0.405617 0.000000
0.269074 0.403670 0.000000
0.350875 0.401059 0.000000
0.426002 0.397702 0.000000
0.496884 0.393537 0.000000
0.564535 0.388481 0.000000
0.629484 0.382488 0.000000
0.692392 0.375356 0.000019
0.753609 0.367114 0.000031
0.813558 0.357481 0.000031
0.872504 0.346270 0.000046
0.930746 0.333407 0.000061
0.987522 0.318516 0.000061
1.000000 0.301037 0.000061
0.000000 0.473761 0.000000
0.000000 0.473393 0.000000
0.000000 0.472717 0.000000
0.127723 0.471609 0.000000
0.248569 0.470047 0.000000
0.337032 0.467933 0.000000
0.415757 0.465239 0.000000
0.488899 0.461871 0.000000
0.558077 0.457839 0.000000
0.624152 0.453024 0.000000
0.687860 0.447440 0.000000
0.749701 0.440909 0.000019
0.810134 0.433430 0.000031
0.869474 0.424960 0.000031
0.928061 0.415136 0.000061
0.985212 0.404122 0.000061
1.000000 0.391533 0.000061
0.000000 0.538071 0.000000
0.000000 0.537775 0.000000
0.000000 0.537226 0.000000
0.063365 0.536294 0.000000
0.220276 0.534992 0.000000
0.319397 0.533233 0.000000
0.402977 0.531014 0.000000
0.479046 0.528276 0.000000
0.550186 0.524971 0.000000
0.617665 0.521031 0.000000
0.682394 0.516439 0.000000
0.745004 0.511229 0.000000
0.806026 0.505192 0.000019
0.865823 0.498397 0.000031
0.924778 0.490643 0.000033
0.982419 0.481962 0.000061
1.000000 0.472137 0.000061
0.000000 0.601166 0.000000
0.000000 0.600897 0.000000
0.000000 0.600419 0.000000
0.000000 0.599665 0.000000
0.178005 0.598551 0.000000
0.296764 0.597087 0.000000
0.387228 0.595211 0.000000
0.467050 0.592878 0.000000
0.540749 0.590127 0.000000
0.609941 0.586861 0.000000
0.675893 0.583030 0.000000
0.739442 0.578638 0.000000
0.801184 0.573675 0.000000
0.861549 0.567975 0.000020
0.920926 0.561710 0.000031
0.979143 0.554535 0.000032
1.000000 0.546728 0.000048
0.000000 0.663178 0.000000
0.000000 0.662941 0.000000
0.000000 0.662546 0.000000
0.000000 0.661883 0.000000
0.107839 0.660935 0.000000
0.267109 0.659660 0.000000
0.367760 0.658083 0.000000
0.452712 0.656089 0.000000
0.529438 0.653725 0.000000
0.600773 0.650912 0.000000
0.668238 0.647671 0.000000
0.732895 0.643933 0.000000
0.795505 0.639737 0.000000
0.856553 0.634923 0.000000
0.916474 0.629624 0.000021
0.975374 0.623704 0.000031
1.000000 0.617134 0.000031
0.000000 0.724293 0.000000
0.000000 0.724105 0.000000
0.000000 0.723734 0.000000
0.000000 0.723179 0.000000
0.023399 0.722354 0.000000
0.226106 0.721247 0.000000
0.343551 0.719852 0.000000
0.435373 0.718120 0.000000
0.516185 0.716067 0.000000
0.590091 0.713647 0.000000
0.659371 0.710828 0.000000
0.725394 0.707616 0.000000
0.788985 0.703919 0.000000
0.850801 0.699894 0.000000
0.911333 0.695198 0.000000
0.970990 0.690136 0.000022
1.000000 0.684441 0.000031
0.000000 0.784760 0.000000
0.000000 0.784560 0.000000
0.000000 0.784267 0.000000
0.000000 0.783741 0.000000
0.000000 0.783005 0.000000
0.158419 0.782042 0.000000
0.312965 0.780806 0.000000
0.414593 0.779281 0.000000
0.500465 0.777481 0.000000
0.577653 0.775346 0.000000
0.649151 0.772848 0.000000
0.716741 0.770037 0.000000
0.781529 0.766827 0.000000
0.844269 0.763274 0.000000
0.905527 0.759229 0.000000
0.965738 0.754759 0.000000
1.000000 0.750023 0.000000
0.000000 0.844641 0.000000
0.000000 0.844494 0.000000
0.000000 0.844207 0.000000
0.000000 0.843757 0.000000
0.000000 0.843105 0.000000
0.072823 0.842253 0.000000
0.272724 0.841133 0.000000
0.389258 0.839794 0.000000
0.482033 0.838158 0.000000
0.563257 0.836256 0.000000
0.637371 0.834043 0.000000
0.706887 0.831528 0.000000
0.773040 0.828680 0.000000
0.836883 0.825480 0.000000
0.898997 0.821959 0.000000
0.959874 0.818028 0.000000
1.000000 0.813761 0.000000
0.000000 0.904255 0.000000
0.000000 0.904081 0.000000
0.000000 0.903847 0.000000
0.000000 0.903431 0.000000
0.000000 0.902871 0.000000
0.000000 0.902058 0.000000
0.213199 0.901074 0.000000
0.358104 0.899834 0.000000
0.460125 0.898374 0.000000
0.546533 0.896671 0.000000
0.624064 0.894689 0.000000
0.695764 0.892421 0.000000
0.763520 0.889837 0.000000
0.828630 0.886998 0.000000
0.891650 0.883839 0.000000
0.953286 0.880254 0.000000
1.000000 0.876442 0.000000
0.000000 0.963678 0.000000
0.000000 0.963562 0.000000
0.000000 0.963333 0.000000
0.000000 0.962958 0.000000
0.000000 0.962424 0.000000
0.000000 0.961722 0.000000
0.113517 0.960788 0.000000
0.318309 0.959682 0.000000
0.434079 0.958338 0.000000
0.527093 0.956809 0.000000
0.608648 0.954965 0.000000
0.683116 0.952938 0.000000
0.752851 0.950605 0.000000
0.819345 0.948005 0.000000
0.883480 0.945099 0.000000
0.945945 0.941925 0.000000
1.000000 0.938448 0.000000
0.000000 1.000000 0.000000
0.000000 1.000000 0.000000
0.000000 1.000000 0.000000
0.000000 1.000000 0.000000
0.000000 1.000000 0.000000
0.000000 1.000000 0.000000
0.000000 1.000000 0.000000
0.264172 1.000000 0.000000
0.402436 1.000000 0.000000
0.504499 1.000000 0.000000
0.591144 1.000000 0.000000
0.668770 1.000000 0.000000
0.740822 1.000000 0.000000
0.809059 1.000000 0.000000
0.874485 1.000000 0.000000
0.937842 1.000000 0.000000
1.000000 1.000000 0.000000
0.000000 0.000000 0.065960
0.091615 0.000000 0.063912
0.170242 0.000000 0.059405
0.243477 0.000000 0.051492
0.314323 0.000000 0.038840
0.383467 0.000000 0.020514
0.451027 0.000000 0.002017
0.516760 0.000000 0.000000
0.580750 0.000000 0.000000
0.643036 0.000000 0.000000
0.703900 0.000000 0.000000
0.763586 0.000000 0.000000
0.822334 0.000000 0.000000
0.880298 0.000000 0.000000
0.937775 0.000000 0.000000
0.993477 0.000000 0.000000
1.000000 0.000000 0.000000
0.000000 0.068289 0.058828
0.083008 0.066783 0.057565
0.166047 0.061245 0.052750
0.240867 0.051425 0.044238
0.312480 0.035481 0.030707
0.382125 0.014010 0.012274
0.449937 0.000000 0.000035
0.515908 0.000000 0.000000
0.580042 0.000000 0.000000
0.642441 0.000000 0.000000
0.703392 0.000000 0.000000
0.763124 0.000000 0.000000
0.821949 0.000000 0.000000
0.879980 0.000000 0.000000
0.937475 0.000000 0.000000
0.993230 0.000000 0.000000
1.000000 0.000000 0.000000
0.000000 0.138222 0.048013
0.065895 0.136606 0.045056
0.158247 0.133632 0.039399
0.236149 0.128639 0.029892
0.309212 0.121136 0.016094
0.379680 0.110417 0.001713
0.448004 0.094924 0.000000
0.514371 0.072705 0.000017
0.578770 0.043205 0.000027
0.641384 0.006429 0.000015
0.702489 0.000000 0.000000
0.762362 0.000000 0.000000
0.821242 0.000000 0.000000
0.879348 0.000000 0.000000
0.936905 0.000000 0.000000
0.992766 0.000000 0.000000
1.000000 0.000000 0.000000
0.000000 0.206476 0.024973
0.032401 0.205418 0.021669
0.144337 0.203527 0.015756
0.228228 0.200355 0.006073
0.303739 0.195679 0.000680
0.375609 0.189272 0.000000
0.444879 0.180791 0.000000
0.511840 0.169756 0.000000
0.576716 0.155449 0.000031
0.639653 0.136591 0.000031
0.700997 0.110085 0.000031
0.761061 0.075183 0.000025
0.820138 0.031267 0.000050
0.878334 0.000000 0.000000
0.935996 0.000000 0.000000
0.991995 0.000000 0.000000
1.000000 0.000000 0.000000
0.000000 0.274422 0.001388
0.000830 0.273647 0.000564
0.120694 0.272281 0.000000
0.216115 0.270009 0.000000
0.295672 0.266739 0.000000
0.369690 0.262278 0.000000
0.440298 0.256537 0.000000
0.508196 0.249220 0.000000
0.573711 0.240135 0.000004
0.637137 0.229026 0.000031
0.698876 0.215361 0.000031
0.759244 0.198405 0.000031
0.818485 0.177084 0.000044
0.876912 0.148896 0.000061
0.934708 0.107724 0.000059
0.990895 0.066017 0.000046
1.000000 0.000000 0.000000
0.000000 0.341734 0.000000
0.000000 0.341126 0.000000
0.080821 0.340108 0.000000
0.198275 0.338379 0.000000
0.284349 0.335914 0.000000
0.361561 0.332580 0.000000
0.434079 0.328268 0.000000
0.503257 0.322911 0.000000
0.569705 0.316406 0.000000
0.633807 0.308487 0.000019
0.696014 0.299049 0.000031
0.756768 0.287851 0.000031
0.816317 0.274679 0.000033
0.874960 0.258783 0.000061
0.932981 0.239893 0.000061
0.989425 0.216889 0.000061
1.000000 0.187515 0.000061
0.000000 0.408245 0.000000
0.000000 0.407751 0.000000
0.014890 0.406951 0.000000
0.171820 0.405617 0.000000
0.269074 0.403670 0.000000
0.350875 0.401059 0.000000
0.426002 0.397702 0.000000
0.496884 0.393537 0.000000
0.564535 0.388481 0.000000
0.629484 0.382488 0.000000
0.692392 0.375356 0.000019
0.753609 0.367114 0.000031
0.813558 0.357481 0.000031
0.872504 0.346270 0.000046
0.930746 0.333407 0.000061
0.987522 0.318516 0.000061
1.000000 0.301037 0.000061
0.000000 0.473761 0.000000
0.000000 0.473393 0.000000
0.000000 0.472717 0.000000
0.127723 0.471609 0.000000
0.248569 0.470047 0.000000
0.337032 0.467933 0.000000
0.415757 0.465239 0.000000
0.488899 0.461871 0.000000
0.558077 0.457839 0.000000
0.624152 0.453024 0.000000
0.687860 0.447440 0.000000
0.749701 0.440909 0.000019
0.810134 0.433430 0.000031
0.869474 0.424960 0.000031
0.928061 0.415136 0.000061
0.985212 0.404122 0.000061
1.000000 0.391533 0.000061
0.000000 0.538071 0.000000
0.000000 0.537775 0.000000
0.000000 0.537226 0.000000
0.063365 0.536294 0.000000
0.220276 0.534992 0.000000
0.319397 0.533233 0.000000
0.402977 0.531014 0.000000
0.479046 0.528276 0.000000
0.550186 0.524971 0.000000
0.617665 0.521031 0.000000
0.682394 0.516439 0.000000
0.745004 0.511229 0.000000
0.806026 0.505192 0.000019
0.865823 0.498397 0.000031
0.924778 0.490643 0.000033
0.982419 0.481962 0.000061
1.000000 0.472137 0.000061
0.000000 0.601166 0.000000
0.000000 0.600897 0.000000
0.000000 0.600419 0.000000
0.000000 0.599665 0.000000
0.178005 0.598551 0.000000
0.296764 0.597087 0.000000
0.387228 0.595211 0.000000
0.467050 0.592878 0.000000
0.540749 0.590127 0.000000
0.609941 0.586861 0.000000
0.675893 0.583030 0.000000
0.739442 0.578638 0.000000
0.801184 0.573675 0.000000
0.861549 0.567975 0.000020
0.920926 0.561710 0.000031
0.979143 0.554535 0.000032
1.000000 0.546728 0.000048
0.000000 0.663178 0.000000
0.000000 0.662941 0.000000
0.000000 0.662546 0.000000
0.000000 0.661883 0.000000
0.107839 0.660935 0.000000
0.267109 0.659660 0.000000
0.367760 0.658083 0.000000
0.452712 0.656089 0.000000
0.529438 0.653725 0.000000
0.600773 0.650912 0.000000
0.668238 0.647671 0.000000
0.732895 0.643933 0.000000
0.795505 0.639737 0.000000
0.856553 0.634923 0.000000
0.916474 0.629624 0.000021
0.975374 0.623704 0.000031
1.000000 0.617134 0.000031
0.000000 0.724293 0.000000
0.000000 0.724105 0.000000
0.000000 0.723734 0.000000
0.000000 0.723179 0.000000
0.023399 0.722354 0.000000
0.226106 0.721247 0.000000
0.343551 0.719852 0.000000
0.435373 0.718120 0.000000
0.516185 0.716067 0.000000
0.590091 0.713647 0.000000
0.659371 0.710828 0.000000
0.725394 0.707616 0.000000
0.788985 0.703919 0.000000
0.850801 0.699894 0.000000
0.911333 0.695198 0.000000
0.970990 0.690136 0.000022
1.000000 0.684441 0.000031
0.000000 0.784760 0.000000
0.000000 0.784560 0.000000
0.000000 0.784267 0.000000
0.000000 0.783741 0.000000
0.000000 0.783005 0.000000
0.158419 0.782042 0.000000
0.312965 0.780806 0.000000
0.414593 0.779281 0.000000
0.500465 0.777481 0.000000
0.577653 0.775346 0.000000
0.649151 0.772848 0.000000
0.716741 0.770037 0.000000
0.781529 0.766827 0.000000
0.844269 0.763274 0.000000
0.905527 0.759229 0.000000
0.965738 0.754759 0.000000
1.000000 0.750023 0.000000
0.000000 0.844641 0.000000
0.000000 0.844494 0.000000
0.000000 0.844207 0.000000
0.000000 0.843757 0.000000
0.000000 0.843105 0.000000
0.072823 0.842253 0.000000
0.272724 0.841133 0.000000
0.389258 0.839794 0.000000
0.482033 0.838158 0.000000
0.563257 0.836256 0.000000
0.637371 0.834043 0.000000
0.706887 0.831528 0.000000
0.773040 0.828680 0.000000
0.836883 0.825480 0.000000
0.898997 0.821959 0.000000
0.959874 0.818028 0.000000
1.000000 0.813761 0.000000
0.000000 0.904255 0.000000
0.000000 0.904081 0.000000
0.000000 0.903847 0.000000
0.000000 0.903431 0.000000
0.000000 0.902871 0.000000
0.000000 0.902058 0.000000
0.213199 0.901074 0.000000
0.358104 0.899834 0.000000
0.460125 0.898374 0.000000
0.546533 0.896671 0.000000
0.624064 0.894689 0.000000
0.695764 0.892421 0.000000
0.763520 0.889837 0.000000
0.828630 0.886998 0.000000
0.891650 0.883839 0.000000
0.953286 0.880254 0.000000
1.000000 0.876442 0.000000
0.000000 0.963678 0.000000
0.000000 0.963562 0.000000
0.000000 0.963333 0.000000
0.000000 0.962958 0.000000
0.000000 0.962424 0.000000
0.000000 0.961722 0.000000
0.113517 0.960788 0.000000
0.318309 0.959682 0.000000
0.434079 0.958338 0.000000
0.527093 0.956809 0.000000
0.608648 0.954965 0.000000
0.683116 0.952938 0.000000
0.752851 0.950605 0.000000
0.819345 0.948005 0.000000
0.883480 0.945099 0.000000
0.945945 0.941925 0.000000
1.000000 0.938448 0.000000
0.000000 1.000000 0.000000
0.000000 1.000000 0.000000
0.000000 1.000000 0.000000
0.000000 1.000000 0.000000
0.000000 1.000000 0.000000
0.000000 1.000000 0.000000
0.000000 1.000000 0.000000
0.264172 1.000000 0.000000
0.402436 1.000000 0.000000
0.504499 1.000000 0.000000
0.591144 1.000000 0.000000
0.668770 1.000000 0.000000
0.740822 1.000000 0.000000
0.809059 1.000000 0.000000
0.874485 1.000000 0.000000
0.937842 1.000000 0.000000
1.000000 1.000000 0.000000
0.000000 0.000000 0.129543
0.091615 0.000000 0.129049
0.170242 0.000000 0.126590
0.243477 0.000000 0.122470
0.314323 0.000000 0.116313
0.383467 0.000000 0.107588
0.451027 0.000000 0.095469
0.516760 0.000000 0.078241
0.580750 0.000000 0.055101
0.643036 0.000000 0.023038
0.703900 0.000000 0.000000
0.763586 0.000000 0.000000
0.822334 0.000000 0.000000
0.880298 0.000000 0.000000
0.937775 0.000000 0.000000
0.993477 0.000000 0.000000
1.000000 0.000000 0.000000
0.000000 0.067722 0.123202
0.082257 0.066151 0.125724
0.166047 0.061243 0.123071
0.240867 0.051425 0.118857
0.312480 0.035479 0.112506
0.382125 0.014012 0.103471
0.449937 0.000000 0.090831
0.515908 0.000000 0.072771
0.580042 0.000000 0.049482
0.642441 0.000000 0.015226
0.703392 0.000000 0.000000
0.763124 0.000000 0.000000
0.821949 0.000000 0.000000
0.879980 0.000000 0.000000
0.937475 0.000000 0.000000
0.993230 0.000000 0.000000
1.000000 0.000000 0.000000
0.000000 0.135250 0.117959
0.063456 0.136600 0.119369
0.158128 0.133636 0.116603
0.236149 0.128639 0.112107
0.309212 0.121134 0.105383
0.379680 0.110393 0.095771
0.448004 0.094920 0.081926
0.514371 0.072675 0.062950
0.578770 0.043205 0.038103
0.641384 0.006402 0.006049
0.702489 0.000000 0.000000
0.762362 0.000000 0.000000
0.821242 0.000000 0.000000
0.879348 0.000000 0.000000
0.936905 0.000000 0.000000
0.992766 0.000000 0.000000
1.000000 0.000000 0.000000
0.000000 0.206174 0.109530
0.032251 0.205415 0.108095
0.144358 0.203527 0.105225
0.228228 0.200355 0.100264
0.303739 0.195678 0.092701
0.375609 0.189276 0.081631
0.444879 0.180825 0.066074
0.511840 0.169789 0.046435
0.576716 0.155432 0.016720
0.639653 0.136591 0.000031
0.700997 0.110085 0.000031
0.761061 0.075183 0.000025
0.820138 0.031267 0.000050
0.878334 0.000000 0.000000
0.935996 0.000000 0.000000
0.991995 0.000000 0.000000
1.000000 0.000000 0.000000
0.000000 0.274422 0.091847
0.000830 0.273647 0.089921
0.120683 0.272281 0.086357
0.216102 0.270009 0.080374
0.295666 0.266739 0.071235
0.369690 0.262293 0.058922
0.440298 0.256544 0.042048
0.508196 0.249245 0.016729
0.573711 0.240139 0.000948
0.637137 0.229026 0.000031
0.698876 0.215361 0.000031
0.759244 0.198405 0.000031
0.818485 0.177084 0.000044
0.876912 0.148896 0.000061
0.934708 0.107724 0.000059
0.990895 0.066017 0.000046
1.000000 0.000000 0.000000
0.000000 0.341734 0.062746
0.000000 0.341126 0.060586
0.080820 0.340108 0.056538
0.198300 0.338379 0.049555
0.284362 0.335914 0.038828
0.361561 0.332585 0.022682
0.434079 0.328289 0.005827
0.503257 0.322911 0.000000
0.569705 0.316406 0.000000
0.633807 0.308487 0.000019
0.696014 0.299049 0.000031
0.756769 0.287857 0.000031
0.816317 0.274679 0.000033
0.874960 0.258783 0.000061
0.932981 0.239893 0.000061
0.989425 0.216889 0.000061
1.000000 0.187515 0.000061
0.000000 0.408245 0.016623
0.000000 0.407751 0.013588
0.014899 0.406951 0.010148
0.171814 0.405617 0.006769
0.269074 0.403670 0.001935
0.350875 0.401059 0.000000
0.426002 0.397702 0.000000
0.496884 0.393537 0.000000
0.564535 0.388481 0.000000
0.629484 0.382488 0.000000
0.692392 0.375356 0.000019
0.753609 0.367114 0.000031
0.813558 0.357481 0.000031
0.872504 0.346270 0.000046
0.930746 0.333407 0.000061
0.987522 0.318516 0.000061
1.000000 0.301037 0.000061
0.000000 0.473761 0.000000
0.000000 0.473393 0.000000
0.000000 0.472717 0.000000
0.127723 0.471609 0.000000
0.248569 0.470047 0.000000
0.337032 0.467933 0.000000
0.415757 0.465239 0.000000
0.488899 0.461871 0.000000
0.558077 0.457839 0.000000
0.624152 0.453024 0.000000
0.687860 0.447440 0.000000
0.749701 0.440909 0.000019
0.810134 0.433430 0.000031
0.869474 0.424960 0.000031
0.928061 0.415136 0.000061
0.985212 0.404122 0.000061
1.000000 0.391533 0.000061
0.000000 0.538071 0.000000
0.000000 0.537775 0.000000
0.000000 0.537226 0.000000
0.063365 0.536294 0.000000
0.220276 0.534992 0.000000
0.319397 0.533233 0.000000
0.402977 0.531014 0.000000
0.479046 0.528276 0.000000
0.550186 0.524971 0.000000
0.617665 0.521031 0.000000
0.682394 0.516439 0.000000
0.745004 0.511229 0.000000
0.806026 0.505192 0.000019
0.865823 0.498397 0.000031
0.924778 0.490643 0.000033
0.982419 0.481962 0.000061
1.000000 0.472137 0.000061
0.000000 0.601166 0.000000
0.000000 0.600897 0.000000
0.000000 0.600419 0.000000
0.000000 0.599665 0.000000
0.178005 0.598551 0.000000
0.296764 0.597087 0.000000
0.387228 0.595211 0.000000
0.467050 0.592878 0.000000
0.540749 0.590127 0.000000
0.609941 0.586861 0.000000
0.675893 0.583030 0.000000
0.739442 0.578638 0.000000
0.801184 0.573675 0.000000
0.861549 0.567975 0.000020
0.920926 0.561710 0.000031
0.979143 0.554535 0.000032
1.000000 0.546728 0.000048
0.000000 0.663178 0.000000
0.000000 0.662941 0.000000
0.000000 0.662546 0.000000
0.000000 0.661883 0.000000
0.107839 0.660935 0.000000
0.267109 0.659660 0.000000
0.367760 0.658083 0.000000
0.452712 0.656089 0.000000
0.529438 0.653725 0.000000
0.600773 0.650912 0.000000
0.668238 0.647671 0.000000
0.732895 0.643933 0.000000
0.795505 0.639737 0.000000
0.856553 0.634923 0.000000
0.916474 0.629624 0.000021
0.975374 0.623704 0.000031
1.000000 0.617134 0.000031
0.000000 0.724293 0.000000
0.000000 0.724105 0.000000
0.000000 0.723734 0.000000
0.000000 0.723179 0.000000
0.023399 0.722354 0.000000
0.226106 0.721247 0.000000
0.343551 0.719852 0.000000
0.435373 0.718120 0.000000
0.516185 0.716067 0.000000
0.590091 0.713647 0.000000
0.659371 0.710828 0.000000
0.725394 0.707616 0.000000
0.788985 0.703919 0.000000
0.850801 0.699894 0.000000
0.911333 0.695198 0.000000
0.970990 0.690136 0.000022
1.000000 0.684441 0.000031
0.000000 0.784760 0.000000
0.000000 0.784560 0.000000
0.000000 0.784267 0.000000
0.000000 0.783741 0.000000
0.000000 0.783005 0.000000
0.158419 0.782042 0.000000
0.312965 0.780806 0.000000
0.414593 0.779281 0.000000
0.500465 0.777481 0.000000
0.577653 0.775346 0.000000
0.649151 0.772848 0.000000
0.716741 0.770037 0.000000
0.781529 0.766827 0.000000
0.844269 0.763274 0.000000
0.905527 0.759229 0.000000
0.965738 0.754759 0.000000
1.000000 0.750023 0.000000
0.000000 0.844641 0.000000
0.000000 0.844494 0.000000
0.000000 0.844207 0.000000
0.000000 0.843757 0.000000
0.000000 0.843105 0.000000
0.072823 0.842253 0.000000
0.272724 0.841133 0.000000
0.389258 0.839794 0.000000
0.482033 0.838158 0.000000
0.563257 0.836256 0.000000
0.637371 0.834043 0.000000
0.706887 0.831528 0.000000
0.773040 0.828680 0.000000
0.836883 0.825480 0.000000
0.898997 0.821959 0.000000
0.959874 0.818028 0.000000
1.000000 0.813761 0.000000
0.000000 0.904255 0.000000
0.000000 0.904081 0.000000
0.000000 0.903847 0.000000
0.000000 0.903431 0.000000
0.000000 0.902871 0.000000
0.000000 0.902058 0.000000
0.213199 0.901074 0.000000
0.358104 0.899834 0.000000
0.460125 0.898374 0.000000
0.546533 0.896671 0.000000
0.624064 0.894689 0.000000
0.695764 0.892421 0.000000
0.763520 0.889837 0.000000
0.828630 0.886998 0.000000
0.891650 0.883839 0.000000
0.953286 0.880254 0.000000
1.000000 0.876442 0.000000
0.000000 0.963678 0.000000
0.000000 0.963562 0.000000
0.000000 0.963333 0.000000
0.000000 0.962958 0.000000
0.000000 0.962424 0.000000
0.000000 0.961722 0.000000
0.113517 0.960788 0.000000
0.318309 0.959682 0.000000
0.434079 0.958338 0.000000
0.527093 0.956809 0.000000
0.608648 0.954965 0.000000
0.683116 0.952938 0.000000
0.752851 0.950605 0.000000
0.819345 0.948005 0.000000
0.883480 0.945099 0.000000
0.945945 0.941925 0.000000
1.000000 0.938448 0.000000
0.000000 1.000000 0.000000
0.000000 1.000000 0.000000
0.000000 1.000000 0.000000
0.000000 1.000000 0.000000
0.000000 1.000000 0.000000
0.000000 1.000000 0.000000
0.000000 1.000000 0.000000
0.264172 1.000000 0.000000
0.402436 1.000000 0.000000
0.504499 1.000000 0.000000
0.591144 1.000000 0.000000
0.668770 1.000000 0.000000
0.740822 1.000000 0.000000
0.809059 1.000000 0.000000
0.874485 1.000000 0.000000
0.937842 1.000000 0.000000
1.000000 1.000000 0.000000
0.000000 0.000000 0.194452
0.091615 0.000000 0.194860
0.170195 0.000000 0.193236
0.243477 0.000000 0.190545
0.314323 0.000000 0.186608
0.383467 0.000000 0.181209
0.451027 0.000000 0.174147
0.516760 0.000000 0.165058
0.580750 0.000000 0.153440
0.643036 0.000000 0.138580
0.703900 0.000000 0.119042
0.763586 0.000000 0.091428
0.822334 0.000000 0.060055
0.880298 0.000000 0.015150
0.937775 0.000000 0.000000
0.993477 0.000000 0.000000
1.000000 0.000000 0.000000
0.000000 0.067978 0.188435
0.081625 0.065608 0.192747
0.166045 0.061243 0.190936
