luts/Vivid_Grain.CUBE
# kravix mobile - LUTs Pack
LUT_3D_SIZE 5
0.000000 0.000000 0.000000
0.250980 0.000000 0.000000
0.541176 0.003922 0.000000
0.835294 0.039216 0.000000
1.000000 0.078431 0.000000
0.062745 0.188235 0.043137
0.196078 0.196078 0.039216
0.509804 0.215686 0.023529
0.796078 0.215686 0.007843
1.000000 0.168627 0.000000
0.000000 0.447059 0.133333
0.078431 0.454902 0.129412
0.458824 0.474510 0.109804
0.721569 0.482353 0.094118
0.968627 0.447059 0.066667
0.000000 0.666667 0.196078
0.125490 0.674510 0.192157
0.403922 0.686275 0.176471
0.654902 0.701961 0.156863
0.878431 0.701961 0.109804
0.035294 0.874510 0.286275
0.160784 0.878431 0.278431
0.396078 0.890196 0.274510
0.588235 0.901961 0.258824
0.858824 0.917647 0.203922
0.000000 0.000000 0.164706
0.274510 0.000000 0.152941
0.572549 0.003922 0.133333
0.866667 0.039216 0.109804
1.000000 0.078431 0.074510
0.066667 0.200000 0.211765
0.207843 0.207843 0.207843
0.525490 0.227451 0.196078
0.815686 0.235294 0.172549
1.000000 0.180392 0.149020
0.000000 0.454902 0.266667
0.090196 0.462745 0.262745
0.470588 0.482353 0.250980
0.733333 0.490196 0.235294
0.980392 0.458824 0.203922
0.003922 0.670588 0.341176
0.164706 0.678431 0.337255
0.427451 0.690196 0.329412
0.674510 0.701961 0.317647
0.898039 0.705882 0.290196
0.101961 0.878431 0.431373
0.215686 0.882353 0.431373
0.423529 0.894118 0.423529
0.607843 0.905882 0.415686
0.882353 0.925490 0.384314
0.000000 0.000000 0.352941
0.290196 0.003922 0.345098
0.600000 0.011765 0.333333
0.898039 0.039216 0.321569
1.000000 0.078431 0.298039
0.070588 0.215686 0.439216
0.223529 0.223529 0.431373
0.549020 0.250980 0.427451
0.839216 0.254902 0.415686
1.000000 0.203922 0.396078
0.000000 0.466667 0.509804
0.105882 0.474510 0.509804
0.498039 0.498039 0.498039
0.760784 0.509804 0.490196
1.000000 0.482353 0.474510
0.047059 0.678431 0.560784
0.219608 0.686275 0.556863
0.462745 0.698039 0.552941
0.701961 0.709804 0.545098
0.929412 0.713725 0.529412
0.141176 0.890196 0.603922
0.258824 0.894118 0.603922
0.450980 0.905882 0.600000
0.627451 0.921569 0.592157
0.917647 0.941176 0.572549
0.000000 0.003922 0.588235
0.298039 0.019608 0.580392
0.615686 0.043137 0.572549
0.929412 0.039216 0.556863
1.000000 0.078431 0.545098
0.054902 0.243137 0.639216
0.219608 0.254902 0.635294
0.556863 0.274510 0.627451
0.854902 0.286275 0.615686
1.000000 0.239216 0.607843
0.000000 0.482353 0.694118
0.082353 0.494118 0.694118
0.505882 0.517647 0.682353
0.772549 0.529412 0.674510
1.000000 0.513725 0.666667
0.050980 0.690196 0.737255
0.239216 0.694118 0.733333
0.478431 0.705882 0.729412
0.721569 0.721569 0.721569
0.952941 0.729412 0.713725
0.168627 0.905882 0.772549
0.274510 0.909804 0.768627
0.466667 0.921569 0.768627
0.643137 0.937255 0.764706
0.949020 0.956863 0.749020
0.000000 0.047059 0.764706
0.270588 0.070588 0.760784
0.603922 0.094118 0.749020
0.933333 0.098039 0.737255
1.000000 0.074510 0.729412
0.015686 0.278431 0.811765
0.156863 0.298039 0.807843
0.533333 0.321569 0.796078
0.854902 0.329412 0.788235
1.000000 0.294118 0.776471
0.000000 0.505882 0.847059
0.000000 0.513725 0.847059
0.486275 0.541176 0.835294
0.772549 0.560784 0.827451
1.000000 0.552941 0.819608
0.000000 0.698039 0.890196
0.168627 0.705882 0.886275
0.466667 0.721569 0.882353
0.725490 0.741176 0.878431
0.968627 0.749020 0.874510
0.098039 0.925490 0.968627
0.227451 0.929412 0.968627
0.454902 0.941176 0.972549
0.650980 0.956863 0.980392
1.000000 0.992157 0.992157
