luts/Vivid Marine.CUBE
# kravix mobile - LUTs Pack
LUT_3D_SIZE 5
0.000000 0.000000 0.000000
0.314323 0.000000 0.000000
0.580750 0.000000 0.000000
0.822334 0.000000 0.000000
1.000000 0.000000 0.000000
0.000000 0.274422 0.000000
0.295672 0.266739 0.000000
0.573711 0.240135 0.000004
0.818485 0.177084 0.000044
1.000000 0.000000 0.000000
0.000000 0.538071 0.000000
0.220276 0.534992 0.000000
0.550186 0.524971 0.000000
0.806026 0.505192 0.000019
1.000000 0.472137 0.000061
0.000000 0.784760 0.000000
0.000000 0.783005 0.000000
0.500465 0.777481 0.000000
0.781529 0.766827 0.000000
1.000000 0.750023 0.000000
0.000000 1.000000 0.000000
0.000000 1.000000 0.000000
0.402436 1.000000 0.000000
0.740822 1.000000 0.000000
1.000000 1.000000 0.000000
0.000000 0.000000 0.260505
0.314329 0.000000 0.255625
0.580750 0.000000 0.232884
0.822334 0.000000 0.181509
1.000000 0.000000 0.056648
0.000000 0.268221 0.239527
0.295501 0.266733 0.238248
0.573711 0.240165 0.213489
0.818485 0.177045 0.155280
1.000000 0.000000 0.003227
0.000000 0.538071 0.180119
0.220247 0.534992 0.169910
0.550190 0.524971 0.131149
0.806026 0.505215 0.035507
1.000000 0.472137 0.000061
0.000000 0.784760 0.000000
0.000000 0.783005 0.000000
0.500465 0.777481 0.000000
0.781529 0.766827 0.000000
1.000000 0.750023 0.000000
0.000000 1.000000 0.000000
0.000000 1.000000 0.000000
0.402436 1.000000 0.000000
0.740822 1.000000 0.000000
1.000000 1.000000 0.000000
0.000000 0.000000 0.529831
0.314289 0.000000 0.530564
0.580765 0.000000 0.521202
0.822334 0.000000 0.502865
1.000000 0.000000 0.472839
0.000000 0.266323 0.510151
0.293295 0.264519 0.523556
0.573713 0.240162 0.513794
0.818485 0.177036 0.495094
1.000000 0.000000 0.464360
0.000000 0.526161 0.490295
0.211107 0.535080 0.499510
0.550041 0.524948 0.489197
0.806026 0.505201 0.469278
1.000000 0.472145 0.436226
0.000000 0.784199 0.452648
0.000000 0.782524 0.449156
0.500477 0.777481 0.437904
0.781534 0.766818 0.414932
1.000000 0.749912 0.376049
0.000000 1.000000 0.360214
0.000000 1.000000 0.355484
0.402435 1.000000 0.339958
0.740838 1.000000 0.308231
1.000000 1.000000 0.249833
0.000000 0.000000 0.800712
0.314386 0.000000 0.804533
0.580750 0.000000 0.798946
0.822334 0.000000 0.788273
1.000000 0.000000 0.771469
0.000000 0.267489 0.780825
0.291130 0.262352 0.800657
0.573723 0.240162 0.794602
0.818480 0.177036 0.783845
1.000000 0.000000 0.766863
0.000000 0.522755 0.763817
0.199612 0.526576 0.786511
0.547989 0.522862 0.780720
0.806029 0.505203 0.769491
1.000000 0.472152 0.752113
0.000000 0.767836 0.742546
0.000000 0.766127 0.740703
0.492762 0.777590 0.753185
0.781454 0.766775 0.741503
1.000000 0.749907 0.723295
0.000000 0.993424 0.711182
0.000000 0.993553 0.709236
0.402344 1.000000 0.707844
0.740822 1.000000 0.695450
1.000000 1.000000 0.675728
0.000000 0.000000 0.992920
0.314316 0.000000 1.000000
0.580811 0.000000 1.000000
0.822296 0.000000 1.000000
1.000000 0.000000 1.000000
0.000000 0.268379 0.976799
0.290239 0.261444 0.999994
0.573696 0.240162 1.000000
0.818531 0.177036 1.000000
1.000000 0.000000 1.000000
0.000000 0.522751 0.968414
0.193527 0.520641 1.000000
0.546952 0.521721 0.999962
0.806026 0.505203 1.000000
1.000000 0.472152 1.000000
0.000000 0.763077 0.968414
0.000000 0.761458 0.968414
0.484169 0.770760 1.000000
0.779924 0.765234 1.000000
1.000000 0.749901 1.000000
0.000000 0.978241 0.975250
0.000000 0.978241 0.975250
0.386795 1.000000 1.000000
0.734604 1.000000 1.000000
1.000000 1.000000 1.000000
